;START_OF_HEADER
;HEADER_VERSION:0.1
;FLAVOR:Griffin
;GENERATOR.NAME:Cura_SteamEngine
;GENERATOR.VERSION:3.2.0
;GENERATOR.BUILD_DATE:2018-02-06
;TARGET_MACHINE.NAME:Ultimaker 3
;EXTRUDER_TRAIN.0.INITIAL_TEMPERATURE:200
;EXTRUDER_TRAIN.0.MATERIAL.VOLUME_USED:4190
;EXTRUDER_TRAIN.0.MATERIAL.GUID:506c9f0d-e3aa-4bd4-b2d2-23e2425b1aa9
;EXTRUDER_TRAIN.0.NOZZLE.DIAMETER:0.4
;EXTRUDER_TRAIN.0.NOZZLE.NAME:AA 0.4
;BUILD_PLATE.INITIAL_TEMPERATURE:60
;PRINT.TIME:5780
;PRINT.SIZE.MIN.X:9
;PRINT.SIZE.MIN.Y:6
;PRINT.SIZE.MIN.Z:0.27
;PRINT.SIZE.MAX.X:157.06
;PRINT.SIZE.MAX.Y:133.305
;PRINT.SIZE.MAX.Z:3.11
;END_OF_HEADER
;Generated with Cura_SteamEngine 3.2.0
T0
M82 ;absolute extrusion mode

G92 E0
M109 S200
G0 F15000 X9 Y6 Z2
G280
G1 F1500 E-6.5
;LAYER_COUNT:22
;LAYER:0
M107
M204 S625
M205 X6 Y6
G0 F5000 X70.778 Y76.28 Z0.27
M204 S500
M205 X5 Y5
;TYPE:SKIRT
G1 F1500 E0
G1 F1200 X71.366 Y75.833 E0.01094
G1 X71.999 Y75.452 E0.02189
G1 X72.669 Y75.141 E0.03283
G1 X73.369 Y74.905 E0.04377
G1 X74.09 Y74.746 E0.05471
G1 X74.825 Y74.665 E0.06566
G1 X75.199 Y74.655 E0.0712
G1 X110.199 Y74.655 E0.58967
G1 X110.937 Y74.695 E0.60062
G1 X111.665 Y74.814 E0.61154
G1 X112.377 Y75.012 E0.62249
G1 X112.649 Y75.12 E0.62683
G1 X112.705 Y75.094 E0.62774
G1 X113.405 Y74.858 E0.63868
G1 X114.126 Y74.699 E0.64962
G1 X114.861 Y74.618 E0.66058
G1 X115.235 Y74.608 E0.66612
G1 X150.235 Y74.608 E1.18458
G1 X150.973 Y74.648 E1.19553
G1 X151.701 Y74.767 E1.20646
G1 X152.413 Y74.965 E1.21741
G1 X153.099 Y75.238 E1.22834
G1 X153.752 Y75.584 E1.23929
G1 X154.364 Y75.998 E1.25024
G1 X154.927 Y76.476 E1.26118
G1 X155.435 Y77.012 E1.27212
G1 X155.882 Y77.6 E1.28306
G1 X156.263 Y78.233 E1.294
G1 X156.574 Y78.903 E1.30494
G1 X156.81 Y79.603 E1.31589
G1 X156.969 Y80.324 E1.32682
G1 X157.05 Y81.059 E1.33778
G1 X157.06 Y81.433 E1.34332
G1 X157.06 Y126.433 E2.00992
G1 X157.02 Y127.171 E2.02087
G1 X156.901 Y127.899 E2.03179
G1 X156.703 Y128.611 E2.04274
G1 X156.43 Y129.297 E2.05368
G1 X156.084 Y129.95 E2.06462
G1 X155.67 Y130.562 E2.07557
G1 X155.192 Y131.125 E2.08651
G1 X154.656 Y131.633 E2.09745
G1 X154.068 Y132.08 E2.10839
G1 X153.435 Y132.461 E2.11934
G1 X152.765 Y132.772 E2.13028
G1 X152.065 Y133.008 E2.14122
G1 X151.344 Y133.167 E2.15216
G1 X150.609 Y133.248 E2.16311
G1 X150.235 Y133.258 E2.16865
G1 X115.235 Y133.258 E2.68712
G1 X114.497 Y133.218 E2.69807
G1 X113.769 Y133.099 E2.70899
G1 X113.057 Y132.901 E2.71994
G1 X112.785 Y132.793 E2.72428
G1 X112.729 Y132.819 E2.72519
G1 X112.029 Y133.055 E2.73613
G1 X111.308 Y133.214 E2.74707
G1 X110.573 Y133.295 E2.75803
G1 X110.199 Y133.305 E2.76357
G1 X75.199 Y133.305 E3.28203
G1 X74.461 Y133.265 E3.29298
G1 X73.733 Y133.146 E3.30391
G1 X73.021 Y132.948 E3.31486
G1 X72.335 Y132.675 E3.32579
G1 X71.682 Y132.329 E3.33674
G1 X71.07 Y131.915 E3.34769
G1 X70.507 Y131.437 E3.35863
G1 X69.999 Y130.901 E3.36957
G1 X69.552 Y130.313 E3.38051
G1 X69.171 Y129.68 E3.39145
G1 X68.86 Y129.01 E3.40239
G1 X68.624 Y128.31 E3.41334
G1 X68.465 Y127.589 E3.42427
G1 X68.384 Y126.854 E3.43523
G1 X68.374 Y126.48 E3.44077
G1 X68.374 Y81.48 E4.10737
G1 X68.414 Y80.742 E4.11832
G1 X68.533 Y80.014 E4.12924
G1 X68.731 Y79.302 E4.14019
G1 X69.004 Y78.616 E4.15113
G1 X69.35 Y77.963 E4.16207
G1 X69.764 Y77.351 E4.17302
G1 X70.242 Y76.788 E4.18396
G1 X70.778 Y76.28 E4.1949
M204 S625
M205 X6 Y6
G0 F5000 X71.12 Y76.451
M204 S500
M205 X5 Y5
G1 F1200 X71.703 Y76.03 E4.20555
G1 X72.33 Y75.676 E4.21622
G1 X72.991 Y75.393 E4.22687
G1 X73.68 Y75.186 E4.23753
G1 X74.388 Y75.056 E4.24819
G1 X75.199 Y75.005 E4.26023
G1 X110.199 Y75.005 E4.77869
G1 X110.917 Y75.045 E4.78935
G1 X111.627 Y75.164 E4.80001
G1 X112.319 Y75.362 E4.81067
G1 X112.661 Y75.503 E4.81615
G1 X113.027 Y75.346 E4.82205
G1 X113.716 Y75.139 E4.83271
G1 X114.424 Y75.009 E4.84337
G1 X115.235 Y74.958 E4.85541
G1 X150.235 Y74.958 E5.37387
G1 X150.953 Y74.998 E5.38453
G1 X151.663 Y75.117 E5.39519
G1 X152.355 Y75.315 E5.40585
G1 X153.02 Y75.588 E5.4165
G1 X153.652 Y75.933 E5.42717
G1 X154.241 Y76.346 E5.43782
G1 X154.78 Y76.822 E5.44848
G1 X155.264 Y77.354 E5.45913
G1 X155.685 Y77.937 E5.46978
G1 X156.039 Y78.564 E5.48045
G1 X156.322 Y79.225 E5.4911
G1 X156.529 Y79.914 E5.50176
G1 X156.659 Y80.622 E5.51242
G1 X156.71 Y81.433 E5.52446
G1 X156.71 Y126.433 E6.19106
G1 X156.67 Y127.151 E6.20171
G1 X156.551 Y127.861 E6.21237
G1 X156.353 Y128.553 E6.22304
G1 X156.08 Y129.218 E6.23368
G1 X155.735 Y129.85 E6.24435
G1 X155.322 Y130.439 E6.25501
G1 X154.846 Y130.978 E6.26566
G1 X154.314 Y131.462 E6.27631
G1 X153.731 Y131.883 E6.28697
G1 X153.104 Y132.237 E6.29763
G1 X152.443 Y132.52 E6.30828
G1 X151.754 Y132.727 E6.31894
G1 X151.046 Y132.857 E6.3296
G1 X150.235 Y132.908 E6.34164
G1 X115.235 Y132.908 E6.86011
G1 X114.517 Y132.868 E6.87076
G1 X113.807 Y132.749 E6.88142
G1 X113.115 Y132.551 E6.89208
G1 X112.773 Y132.41 E6.89756
G1 X112.407 Y132.567 E6.90346
G1 X111.718 Y132.774 E6.91412
G1 X111.01 Y132.904 E6.92478
G1 X110.199 Y132.955 E6.93682
G1 X75.199 Y132.955 E7.45529
G1 X74.481 Y132.915 E7.46594
G1 X73.771 Y132.796 E7.4766
G1 X73.079 Y132.598 E7.48727
G1 X72.414 Y132.325 E7.49792
G1 X71.782 Y131.98 E7.50858
G1 X71.193 Y131.567 E7.51924
G1 X70.654 Y131.091 E7.52989
G1 X70.17 Y130.559 E7.54054
G1 X69.749 Y129.976 E7.5512
G1 X69.395 Y129.349 E7.56186
G1 X69.112 Y128.688 E7.57251
G1 X68.905 Y127.999 E7.58317
G1 X68.775 Y127.291 E7.59383
G1 X68.724 Y126.48 E7.60587
G1 X68.724 Y81.48 E8.27247
G1 X68.764 Y80.762 E8.28312
G1 X68.883 Y80.052 E8.29379
G1 X69.081 Y79.36 E8.30445
G1 X69.354 Y78.695 E8.3151
G1 X69.699 Y78.063 E8.32576
G1 X70.112 Y77.474 E8.33642
G1 X70.588 Y76.935 E8.34707
G1 X71.12 Y76.451 E8.35773
M204 S625
M205 X6 Y6
G0 F5000 X71.461 Y76.628
M204 S500
M205 X5 Y5
G1 F1200 X72.039 Y76.233 E8.3681
G1 X72.658 Y75.907 E8.37846
G1 X73.31 Y75.653 E8.38883
G1 X73.987 Y75.476 E8.39919
G1 X74.68 Y75.377 E8.40956
G1 X75.199 Y75.355 E8.41726
G1 X110.199 Y75.355 E8.93572
G1 X110.898 Y75.395 E8.94609
G1 X111.587 Y75.514 E8.95645
G1 X112.258 Y75.712 E8.96681
G1 X112.656 Y75.88 E8.97321
G1 X112.694 Y75.86 E8.97385
G1 X113.346 Y75.606 E8.98421
G1 X114.023 Y75.429 E8.99458
G1 X114.716 Y75.33 E9.00495
G1 X115.235 Y75.308 E9.01265
G1 X150.235 Y75.308 E9.53111
G1 X150.934 Y75.348 E9.54148
G1 X151.623 Y75.467 E9.55184
G1 X152.294 Y75.665 E9.5622
G1 X152.939 Y75.937 E9.57257
G1 X153.548 Y76.281 E9.58293
G1 X154.114 Y76.693 E9.5933
G1 X154.629 Y77.166 E9.60366
G1 X155.087 Y77.695 E9.61403
G1 X155.482 Y78.273 E9.6244
G1 X155.808 Y78.892 E9.63476
G1 X156.062 Y79.544 E9.64513
G1 X156.239 Y80.221 E9.65549
G1 X156.338 Y80.914 E9.66586
G1 X156.36 Y81.433 E9.67356
G1 X156.36 Y126.433 E10.34016
G1 X156.32 Y127.132 E10.35053
G1 X156.201 Y127.821 E10.36089
G1 X156.003 Y128.492 E10.37125
G1 X155.731 Y129.137 E10.38162
G1 X155.387 Y129.746 E10.39198
G1 X154.975 Y130.312 E10.40235
G1 X154.502 Y130.827 E10.41271
G1 X153.973 Y131.285 E10.42307
G1 X153.395 Y131.68 E10.43344
G1 X152.776 Y132.006 E10.44381
G1 X152.124 Y132.26 E10.45417
G1 X151.447 Y132.437 E10.46454
G1 X150.754 Y132.536 E10.47491
G1 X150.235 Y132.558 E10.4826
G1 X115.235 Y132.558 E11.00107
G1 X114.536 Y132.518 E11.01144
G1 X113.847 Y132.399 E11.0218
G1 X113.176 Y132.201 E11.03216
G1 X112.778 Y132.033 E11.03856
G1 X112.74 Y132.053 E11.0392
G1 X112.088 Y132.307 E11.04956
G1 X111.411 Y132.484 E11.05993
G1 X110.718 Y132.583 E11.0703
G1 X110.199 Y132.605 E11.07799
G1 X75.199 Y132.605 E11.59646
G1 X74.5 Y132.565 E11.60683
G1 X73.811 Y132.446 E11.61719
G1 X73.14 Y132.248 E11.62755
G1 X72.495 Y131.976 E11.63792
G1 X71.886 Y131.632 E11.64828
G1 X71.32 Y131.22 E11.65865
G1 X70.805 Y130.747 E11.66901
G1 X70.347 Y130.218 E11.67938
G1 X69.952 Y129.64 E11.68975
G1 X69.626 Y129.021 E11.70011
G1 X69.372 Y128.369 E11.71047
G1 X69.195 Y127.692 E11.72084
G1 X69.096 Y126.999 E11.73121
G1 X69.074 Y126.48 E11.73891
G1 X69.074 Y81.48 E12.4055
G1 X69.114 Y80.781 E12.41588
G1 X69.233 Y80.092 E12.42623
G1 X69.431 Y79.421 E12.4366
G1 X69.703 Y78.776 E12.44697
G1 X70.047 Y78.167 E12.45733
G1 X70.459 Y77.601 E12.4677
G1 X70.932 Y77.086 E12.47806
G1 X71.461 Y76.628 E12.48842
M204 S625
M205 X6 Y6
G0 F5000 X71.276 Y77.242
M204 S500
M205 X5 Y5
G1 F1200 X71.801 Y76.811 E12.49848
G1 X72.373 Y76.444 E12.50855
G1 X72.984 Y76.147 E12.51861
G1 X73.626 Y75.923 E12.52869
G1 X74.289 Y75.777 E12.53874
G1 X75.199 Y75.705 E12.55226
G1 X110.199 Y75.705 E13.07073
G1 X110.877 Y75.745 E13.08079
G1 X111.546 Y75.864 E13.09086
G1 X112.196 Y76.061 E13.10092
G1 X112.672 Y76.269 E13.10861
G1 X113.02 Y76.1 E13.11434
G1 X113.662 Y75.876 E13.12442
G1 X114.325 Y75.73 E13.13447
G1 X115.235 Y75.658 E13.148
G1 X150.235 Y75.658 E13.66646
G1 X150.913 Y75.698 E13.67652
G1 X151.582 Y75.817 E13.68659
G1 X152.232 Y76.014 E13.69665
G1 X152.855 Y76.286 E13.70672
G1 X153.441 Y76.63 E13.71678
G1 X153.983 Y77.04 E13.72685
G1 X154.473 Y77.51 E13.73691
G1 X154.904 Y78.035 E13.74697
G1 X155.271 Y78.607 E13.75704
G1 X155.568 Y79.218 E13.7671
G1 X155.792 Y79.86 E13.77718
G1 X155.938 Y80.523 E13.78723
G1 X156.01 Y81.433 E13.80075
G1 X156.01 Y126.433 E14.46735
G1 X155.97 Y127.111 E14.47741
G1 X155.851 Y127.78 E14.48748
G1 X155.654 Y128.43 E14.49754
G1 X155.382 Y129.053 E14.50761
G1 X155.038 Y129.639 E14.51768
G1 X154.628 Y130.181 E14.52774
G1 X154.158 Y130.671 E14.5378
G1 X153.633 Y131.102 E14.54786
G1 X153.061 Y131.469 E14.55793
G1 X152.45 Y131.766 E14.56799
G1 X151.808 Y131.99 E14.57807
G1 X151.145 Y132.136 E14.58812
G1 X150.235 Y132.208 E14.60165
G1 X115.235 Y132.208 E15.12011
G1 X114.557 Y132.168 E15.13017
G1 X113.888 Y132.049 E15.14024
G1 X113.238 Y131.852 E15.1503
G1 X112.762 Y131.644 E15.15799
G1 X112.414 Y131.813 E15.16372
G1 X111.772 Y132.037 E15.1738
G1 X111.109 Y132.183 E15.18385
G1 X110.199 Y132.255 E15.19738
G1 X75.199 Y132.255 E15.71584
G1 X74.521 Y132.215 E15.7259
G1 X73.852 Y132.096 E15.73597
G1 X73.202 Y131.899 E15.74603
G1 X72.579 Y131.627 E15.7561
G1 X71.993 Y131.283 E15.76617
G1 X71.451 Y130.873 E15.77623
G1 X70.961 Y130.403 E15.78629
G1 X70.53 Y129.878 E15.79635
G1 X70.163 Y129.306 E15.80642
G1 X69.866 Y128.695 E15.81648
G1 X69.642 Y128.053 E15.82656
G1 X69.496 Y127.39 E15.83661
G1 X69.424 Y126.48 E15.85013
G1 X69.424 Y81.48 E16.51673
G1 X69.464 Y80.802 E16.52679
G1 X69.583 Y80.133 E16.53686
G1 X69.78 Y79.483 E16.54692
G1 X70.052 Y78.86 E16.55699
G1 X70.396 Y78.274 E16.56706
G1 X70.806 Y77.732 E16.57712
G1 X71.276 Y77.242 E16.58718
M204 S625
M205 X6 Y6
G0 F5000 X71.619 Y77.404
M204 S500
M205 X5 Y5
G1 F1200 X72.14 Y77 E16.59695
G1 X72.705 Y76.662 E16.6067
G1 X73.307 Y76.396 E16.61645
G1 X73.937 Y76.204 E16.62621
G1 X74.585 Y76.09 E16.63595
G1 X75.199 Y76.055 E16.64506
G1 X110.199 Y76.055 E17.16353
G1 X110.856 Y76.095 E17.17328
G1 X111.504 Y76.214 E17.18304
G1 X112.132 Y76.411 E17.19279
G1 X112.672 Y76.656 E17.20157
G1 X112.741 Y76.615 E17.20276
G1 X113.343 Y76.349 E17.21251
G1 X113.973 Y76.157 E17.22227
G1 X114.621 Y76.043 E17.23201
G1 X115.235 Y76.008 E17.24112
G1 X150.235 Y76.008 E17.75959
G1 X150.892 Y76.048 E17.76934
G1 X151.54 Y76.167 E17.7791
G1 X152.168 Y76.364 E17.78885
G1 X152.768 Y76.636 E17.79861
G1 X153.331 Y76.978 E17.80837
G1 X153.848 Y77.386 E17.81812
G1 X154.311 Y77.853 E17.82786
G1 X154.715 Y78.374 E17.83763
G1 X155.053 Y78.939 E17.84738
G1 X155.319 Y79.541 E17.85713
G1 X155.511 Y80.171 E17.86689
G1 X155.625 Y80.819 E17.87663
G1 X155.66 Y81.433 E17.88574
G1 X155.66 Y126.433 E18.55234
G1 X155.62 Y127.09 E18.56209
G1 X155.501 Y127.738 E18.57185
G1 X155.304 Y128.366 E18.5816
G1 X155.032 Y128.966 E18.59136
G1 X154.69 Y129.529 E18.60112
G1 X154.282 Y130.046 E18.61088
G1 X153.815 Y130.509 E18.62062
G1 X153.294 Y130.913 E18.63038
G1 X152.729 Y131.251 E18.64014
G1 X152.127 Y131.517 E18.64989
G1 X151.497 Y131.709 E18.65964
G1 X150.849 Y131.823 E18.66939
G1 X150.235 Y131.858 E18.6785
G1 X115.235 Y131.858 E19.19696
G1 X114.578 Y131.818 E19.20672
G1 X113.93 Y131.699 E19.21647
G1 X113.302 Y131.502 E19.22622
G1 X112.762 Y131.257 E19.23501
G1 X112.693 Y131.298 E19.2362
G1 X112.091 Y131.564 E19.24595
G1 X111.461 Y131.756 E19.2557
G1 X110.813 Y131.87 E19.26545
G1 X110.199 Y131.905 E19.27456
G1 X75.199 Y131.905 E19.79303
G1 X74.542 Y131.865 E19.80278
G1 X73.894 Y131.746 E19.81254
G1 X73.266 Y131.549 E19.82229
G1 X72.666 Y131.277 E19.83204
G1 X72.103 Y130.935 E19.8418
G1 X71.586 Y130.527 E19.85156
G1 X71.123 Y130.06 E19.8613
G1 X70.719 Y129.539 E19.87107
G1 X70.381 Y128.974 E19.88082
G1 X70.115 Y128.372 E19.89057
G1 X69.923 Y127.742 E19.90032
G1 X69.809 Y127.094 E19.91007
G1 X69.774 Y126.48 E19.91918
G1 X69.774 Y81.48 E20.58578
G1 X69.814 Y80.823 E20.59553
G1 X69.933 Y80.175 E20.60529
G1 X70.13 Y79.547 E20.61504
G1 X70.402 Y78.947 E20.6248
G1 X70.744 Y78.384 E20.63456
G1 X71.152 Y77.867 E20.64431
G1 X71.619 Y77.404 E20.65405
M204 S625
M205 X6 Y6
G0 F5000 X71.962 Y77.572
M204 S500
M205 X5 Y5
G1 F1200 X72.477 Y77.197 E20.66349
G1 X73.034 Y76.89 E20.67291
G1 X73.626 Y76.655 E20.68235
G1 X74.243 Y76.496 E20.69179
G1 X74.875 Y76.415 E20.70122
G1 X75.199 Y76.405 E20.70603
G1 X110.199 Y76.405 E21.22449
G1 X110.835 Y76.445 E21.23393
G1 X111.46 Y76.564 E21.24336
G1 X112.066 Y76.761 E21.2528
G1 X112.642 Y77.032 E21.26223
G1 X112.682 Y77.057 E21.26292
G1 X113.07 Y76.843 E21.26949
G1 X113.662 Y76.608 E21.27892
G1 X114.279 Y76.449 E21.28836
G1 X114.911 Y76.368 E21.2978
G1 X115.235 Y76.358 E21.3026
G1 X150.235 Y76.358 E21.82107
G1 X150.871 Y76.398 E21.83051
G1 X151.496 Y76.517 E21.83993
G1 X152.102 Y76.714 E21.84937
G1 X152.678 Y76.985 E21.8588
G1 X153.216 Y77.326 E21.86824
G1 X153.707 Y77.732 E21.87767
G1 X154.143 Y78.196 E21.88711
G1 X154.518 Y78.711 E21.89654
G1 X154.825 Y79.268 E21.90596
G1 X155.06 Y79.86 E21.9154
G1 X155.219 Y80.477 E21.92484
G1 X155.3 Y81.109 E21.93428
G1 X155.31 Y81.433 E21.93908
G1 X155.31 Y126.433 E22.60568
G1 X155.27 Y127.069 E22.61512
G1 X155.151 Y127.694 E22.62454
G1 X154.954 Y128.3 E22.63398
G1 X154.683 Y128.876 E22.64341
G1 X154.342 Y129.414 E22.65285
G1 X153.936 Y129.905 E22.66228
G1 X153.472 Y130.341 E22.67172
G1 X152.957 Y130.716 E22.68115
G1 X152.4 Y131.023 E22.69057
G1 X151.808 Y131.258 E22.70001
G1 X151.191 Y131.417 E22.70945
G1 X150.559 Y131.498 E22.71889
G1 X150.235 Y131.508 E22.72369
G1 X115.235 Y131.508 E23.24215
G1 X114.599 Y131.468 E23.25159
G1 X113.974 Y131.349 E23.26102
G1 X113.368 Y131.152 E23.27046
G1 X112.792 Y130.881 E23.27989
G1 X112.752 Y130.856 E23.28059
G1 X112.364 Y131.07 E23.28715
G1 X111.772 Y131.305 E23.29659
G1 X111.155 Y131.464 E23.30602
G1 X110.523 Y131.545 E23.31546
G1 X110.199 Y131.555 E23.32026
G1 X75.199 Y131.555 E23.83873
G1 X74.563 Y131.515 E23.84817
G1 X73.938 Y131.396 E23.85759
G1 X73.332 Y131.199 E23.86703
G1 X72.756 Y130.928 E23.87646
G1 X72.218 Y130.587 E23.8859
G1 X71.727 Y130.181 E23.89534
G1 X71.291 Y129.717 E23.90477
G1 X70.916 Y129.202 E23.91421
G1 X70.609 Y128.645 E23.92363
G1 X70.374 Y128.053 E23.93306
G1 X70.215 Y127.436 E23.9425
G1 X70.134 Y126.804 E23.95194
G1 X70.124 Y126.48 E23.95674
G1 X70.124 Y81.48 E24.62334
G1 X70.164 Y80.844 E24.63278
G1 X70.283 Y80.219 E24.6422
G1 X70.48 Y79.613 E24.65164
G1 X70.751 Y79.037 E24.66107
G1 X71.092 Y78.499 E24.67051
G1 X71.498 Y78.008 E24.67995
G1 X71.962 Y77.572 E24.68938
M204 S625
M205 X6 Y6
G0 F5000 X72.303 Y77.747
M204 S500
M205 X5 Y5
G1 F1200 X72.812 Y77.402 E24.69849
G1 X73.361 Y77.127 E24.70758
G1 X73.942 Y76.925 E24.7167
G1 X74.543 Y76.801 E24.72579
G1 X75.199 Y76.755 E24.73553
G1 X110.199 Y76.755 E25.25399
G1 X110.812 Y76.795 E25.26309
G1 X111.415 Y76.914 E25.2722
G1 X111.997 Y77.111 E25.2813
G1 X112.549 Y77.381 E25.2904
G1 X112.681 Y77.468 E25.29274
