;START_OF_HEADER
;HEADER_VERSION:0.1
;FLAVOR:Griffin
;GENERATOR.NAME:Cura_SteamEngine
;GENERATOR.VERSION:3.6.0
;GENERATOR.BUILD_DATE:2018-11-12
;TARGET_MACHINE.NAME:Ultimaker 3
;EXTRUDER_TRAIN.0.INITIAL_TEMPERATURE:200
;EXTRUDER_TRAIN.0.MATERIAL.VOLUME_USED:19548
;EXTRUDER_TRAIN.0.MATERIAL.GUID:506c9f0d-e3aa-4bd4-b2d2-23e2425b1aa9
;EXTRUDER_TRAIN.0.NOZZLE.DIAMETER:0.4
;EXTRUDER_TRAIN.0.NOZZLE.NAME:AA 0.4
;BUILD_PLATE.TYPE:glass
;BUILD_PLATE.INITIAL_TEMPERATURE:60
;PRINT.TIME:28057
;PRINT.SIZE.MIN.X:9
;PRINT.SIZE.MIN.Y:6
;PRINT.SIZE.MIN.Z:0.27
;PRINT.SIZE.MAX.X:161.43
;PRINT.SIZE.MAX.Y:158.84
;PRINT.SIZE.MAX.Z:3.03
;END_OF_HEADER
;Generated with Cura_SteamEngine 3.6.0
T0
M82 ;absolute extrusion mode

G92 E0
M109 S200
G0 F15000 X9 Y6 Z2
G280
G1 F1500 E-6.5
;LAYER_COUNT:47
;LAYER:0
M107
M204 S625
M205 X6 Y6
G0 F5000 X72.961 Y51.745 Z0.27
M204 S500
M205 X5 Y5
;TYPE:SKIRT
G1 F1500 E0
G1 F1200 X73.44 Y51.175 E0.01323
G1 X73.977 Y50.66 E0.02646
G1 X74.566 Y50.205 E0.03969
G1 X75.2 Y49.816 E0.05291
G1 X75.873 Y49.497 E0.06615
G1 X76.576 Y49.252 E0.07939
G1 X77.301 Y49.084 E0.09262
G1 X78.04 Y48.995 E0.10585
G1 X78.5 Y48.98 E0.11403
G1 X154.5 Y48.98 E1.465
G1 X155.243 Y49.02 E1.47823
G1 X155.978 Y49.139 E1.49146
G1 X156.696 Y49.337 E1.5047
G1 X157.388 Y49.61 E1.51793
G1 X158.047 Y49.956 E1.53116
G1 X158.665 Y50.371 E1.54439
G1 X159.235 Y50.85 E1.55763
G1 X159.75 Y51.387 E1.57085
G1 X160.205 Y51.976 E1.58408
G1 X160.594 Y52.61 E1.5973
G1 X160.913 Y53.283 E1.61054
G1 X161.158 Y53.986 E1.62378
G1 X161.326 Y54.711 E1.63701
G1 X161.415 Y55.45 E1.65024
G1 X161.43 Y55.91 E1.65842
G1 X161.43 Y151.91 E3.36491
G1 X161.39 Y152.653 E3.37814
G1 X161.271 Y153.388 E3.39137
G1 X161.073 Y154.106 E3.40461
G1 X160.8 Y154.798 E3.41784
G1 X160.454 Y155.457 E3.43107
G1 X160.039 Y156.075 E3.4443
G1 X159.56 Y156.645 E3.45754
G1 X159.023 Y157.16 E3.47076
G1 X158.434 Y157.615 E3.48399
G1 X157.8 Y158.004 E3.49721
G1 X157.127 Y158.323 E3.51045
G1 X156.424 Y158.568 E3.52369
G1 X155.699 Y158.736 E3.53692
G1 X154.96 Y158.825 E3.55015
G1 X154.5 Y158.84 E3.55833
G1 X78.5 Y158.84 E4.9093
G1 X77.757 Y158.8 E4.92253
G1 X77.022 Y158.681 E4.93577
G1 X76.304 Y158.483 E4.94901
G1 X75.612 Y158.21 E4.96223
G1 X74.953 Y157.864 E4.97546
G1 X74.335 Y157.449 E4.98869
G1 X73.765 Y156.97 E5.00193
G1 X73.25 Y156.433 E5.01515
G1 X72.795 Y155.844 E5.02838
G1 X72.406 Y155.21 E5.04161
G1 X72.087 Y154.537 E5.05484
G1 X71.842 Y153.834 E5.06808
G1 X71.674 Y153.109 E5.08131
G1 X71.585 Y152.37 E5.09454
G1 X71.57 Y151.91 E5.10272
G1 X71.57 Y55.91 E6.80921
G1 X71.61 Y55.167 E6.82244
G1 X71.729 Y54.432 E6.83568
G1 X71.927 Y53.714 E6.84892
G1 X72.2 Y53.022 E6.86214
G1 X72.546 Y52.363 E6.87537
G1 X72.961 Y51.745 E6.8886
M204 S625
M205 X6 Y6
G0 F5000 X73.378 Y51.892
M204 S500
M205 X5 Y5
G1 F1200 X73.854 Y51.35 E6.90143
G1 X74.387 Y50.864 E6.91425
G1 X74.971 Y50.44 E6.92708
G1 X75.598 Y50.083 E6.9399
G1 X76.26 Y49.797 E6.95272
G1 X76.95 Y49.587 E6.96554
G1 X77.659 Y49.455 E6.97836
G1 X78.5 Y49.4 E6.99334
G1 X154.5 Y49.4 E8.34432
G1 X155.22 Y49.44 E8.35714
G1 X155.932 Y49.559 E8.36997
G1 X156.626 Y49.757 E8.3828
G1 X157.293 Y50.03 E8.39561
G1 X157.927 Y50.375 E8.40844
G1 X158.518 Y50.788 E8.42125
G1 X159.06 Y51.264 E8.43408
G1 X159.546 Y51.797 E8.4469
G1 X159.97 Y52.381 E8.45973
G1 X160.327 Y53.008 E8.47255
G1 X160.613 Y53.67 E8.48537
G1 X160.823 Y54.36 E8.49819
G1 X160.955 Y55.069 E8.51101
G1 X161.01 Y55.91 E8.52599
G1 X161.01 Y151.91 E10.23249
G1 X160.97 Y152.63 E10.24531
G1 X160.851 Y153.342 E10.25814
G1 X160.653 Y154.036 E10.27097
G1 X160.38 Y154.703 E10.28378
G1 X160.035 Y155.337 E10.29661
G1 X159.622 Y155.928 E10.30943
G1 X159.146 Y156.47 E10.32225
G1 X158.613 Y156.956 E10.33507
G1 X158.029 Y157.38 E10.3479
G1 X157.402 Y157.737 E10.36072
G1 X156.74 Y158.023 E10.37354
G1 X156.05 Y158.233 E10.38636
G1 X155.341 Y158.365 E10.39918
G1 X154.5 Y158.42 E10.41417
G1 X78.5 Y158.42 E11.76514
G1 X77.78 Y158.38 E11.77796
G1 X77.068 Y158.261 E11.79079
G1 X76.374 Y158.063 E11.80362
G1 X75.707 Y157.79 E11.81643
G1 X75.073 Y157.445 E11.82926
G1 X74.482 Y157.032 E11.84208
G1 X73.94 Y156.556 E11.8549
G1 X73.454 Y156.023 E11.86772
G1 X73.03 Y155.439 E11.88055
G1 X72.673 Y154.812 E11.89338
G1 X72.387 Y154.15 E11.9062
G1 X72.177 Y153.46 E11.91902
G1 X72.045 Y152.751 E11.93184
G1 X71.99 Y151.91 E11.94682
G1 X71.99 Y55.91 E13.65331
G1 X72.03 Y55.19 E13.66613
G1 X72.149 Y54.478 E13.67896
G1 X72.347 Y53.784 E13.69179
G1 X72.62 Y53.117 E13.7046
G1 X72.965 Y52.483 E13.71743
G1 X73.378 Y51.892 E13.73025
M204 S625
M205 X6 Y6
G0 F5000 X73.795 Y52.044
M204 S500
M205 X5 Y5
G1 F1200 X74.268 Y51.531 E13.74265
G1 X74.796 Y51.076 E13.75504
G1 X75.373 Y50.684 E13.76744
G1 X75.992 Y50.361 E13.77985
G1 X76.643 Y50.11 E13.79226
G1 X77.319 Y49.936 E13.80466
G1 X78.01 Y49.84 E13.81707
G1 X78.5 Y49.82 E13.82578
G1 X154.5 Y49.82 E15.17676
G1 X155.197 Y49.86 E15.18917
G1 X155.884 Y49.979 E15.20156
G1 X156.553 Y50.177 E15.21396
G1 X157.196 Y50.449 E15.22637
G1 X157.802 Y50.793 E15.23876
G1 X158.366 Y51.205 E15.25118
G1 X158.879 Y51.678 E15.26358
G1 X159.334 Y52.206 E15.27597
G1 X159.726 Y52.783 E15.28837
G1 X160.049 Y53.402 E15.30078
G1 X160.3 Y54.053 E15.31318
G1 X160.474 Y54.729 E15.32559
G1 X160.57 Y55.42 E15.33799
G1 X160.59 Y55.91 E15.34671
G1 X160.59 Y151.91 E17.0532
G1 X160.55 Y152.607 E17.06561
G1 X160.431 Y153.294 E17.07801
G1 X160.233 Y153.963 E17.09041
G1 X159.961 Y154.606 E17.10282
G1 X159.617 Y155.212 E17.11521
G1 X159.205 Y155.776 E17.12762
G1 X158.732 Y156.289 E17.14003
G1 X158.204 Y156.744 E17.15242
G1 X157.627 Y157.136 E17.16482
G1 X157.008 Y157.459 E17.17723
G1 X156.357 Y157.71 E17.18963
G1 X155.681 Y157.884 E17.20204
G1 X154.99 Y157.98 E17.21444
G1 X154.5 Y158 E17.22316
G1 X78.5 Y158 E18.57413
G1 X77.803 Y157.96 E18.58654
G1 X77.116 Y157.841 E18.59894
G1 X76.447 Y157.643 E18.61134
G1 X75.804 Y157.371 E18.62375
G1 X75.198 Y157.027 E18.63614
G1 X74.634 Y156.615 E18.64855
G1 X74.121 Y156.142 E18.66095
G1 X73.666 Y155.614 E18.67334
G1 X73.274 Y155.037 E18.68574
G1 X72.951 Y154.418 E18.69816
G1 X72.7 Y153.767 E18.71056
G1 X72.526 Y153.091 E18.72297
G1 X72.43 Y152.4 E18.73537
G1 X72.41 Y151.91 E18.74409
G1 X72.41 Y55.91 E20.45058
G1 X72.45 Y55.213 E20.46299
G1 X72.569 Y54.526 E20.47538
G1 X72.767 Y53.857 E20.48779
G1 X73.039 Y53.214 E20.5002
G1 X73.383 Y52.608 E20.51258
G1 X73.795 Y52.044 E20.525
M204 S625
M205 X6 Y6
G0 F5000 X73.801 Y52.737
M204 S500
M205 X5 Y5
G1 F1200 X74.21 Y52.202 E20.53697
G1 X74.68 Y51.72 E20.54894
G1 X75.204 Y51.297 E20.56091
G1 X75.774 Y50.938 E20.57288
G1 X76.382 Y50.65 E20.58484
G1 X77.02 Y50.436 E20.5968
G1 X77.68 Y50.3 E20.60878
G1 X78.5 Y50.24 E20.6234
G1 X154.5 Y50.24 E21.97437
G1 X155.172 Y50.28 E21.98634
G1 X155.835 Y50.399 E21.99831
G1 X156.478 Y50.596 E22.01027
G1 X157.094 Y50.868 E22.02224
G1 X157.673 Y51.211 E22.0342
G1 X158.208 Y51.62 E22.04617
G1 X158.69 Y52.09 E22.05814
G1 X159.113 Y52.614 E22.07011
G1 X159.472 Y53.184 E22.08208
G1 X159.76 Y53.792 E22.09404
G1 X159.974 Y54.43 E22.106
G1 X160.11 Y55.09 E22.11798
G1 X160.17 Y55.91 E22.1326
G1 X160.17 Y151.91 E23.83909
G1 X160.13 Y152.582 E23.85106
G1 X160.011 Y153.245 E23.86303
G1 X159.814 Y153.888 E23.87498
G1 X159.542 Y154.504 E23.88695
G1 X159.199 Y155.083 E23.89892
G1 X158.79 Y155.618 E23.91089
G1 X158.32 Y156.1 E23.92286
G1 X157.796 Y156.523 E23.93483
G1 X157.226 Y156.882 E23.9468
G1 X156.618 Y157.17 E23.95876
G1 X155.98 Y157.384 E23.97072
G1 X155.32 Y157.52 E23.9827
G1 X154.5 Y157.58 E23.99732
G1 X78.5 Y157.58 E25.34829
G1 X77.828 Y157.54 E25.36026
G1 X77.165 Y157.421 E25.37223
G1 X76.522 Y157.224 E25.38418
G1 X75.906 Y156.952 E25.39615
G1 X75.327 Y156.609 E25.40812
G1 X74.792 Y156.2 E25.42009
G1 X74.31 Y155.73 E25.43206
G1 X73.887 Y155.206 E25.44403
G1 X73.528 Y154.636 E25.456
G1 X73.24 Y154.028 E25.46796
G1 X73.026 Y153.39 E25.47992
G1 X72.89 Y152.73 E25.4919
G1 X72.83 Y151.91 E25.50652
G1 X72.83 Y55.91 E27.21301
G1 X72.87 Y55.238 E27.22498
G1 X72.989 Y54.575 E27.23695
G1 X73.186 Y53.932 E27.2489
G1 X73.458 Y53.316 E27.26087
G1 X73.801 Y52.737 E27.27284
M204 S625
M205 X6 Y6
G0 F5000 X74.219 Y52.871
M204 S500
M205 X5 Y5
G1 F1200 X74.626 Y52.367 E27.28435
G1 X75.092 Y51.917 E27.29587
G1 X75.609 Y51.528 E27.30737
G1 X76.171 Y51.205 E27.31889
G1 X76.768 Y50.954 E27.3304
G1 X77.392 Y50.778 E27.34193
G1 X78.032 Y50.681 E27.35343
G1 X78.5 Y50.66 E27.36176
G1 X154.5 Y50.66 E28.71274
G1 X155.147 Y50.7 E28.72426
G1 X155.783 Y50.819 E28.73576
G1 X156.4 Y51.016 E28.74727
G1 X156.989 Y51.287 E28.7588
G1 X157.539 Y51.629 E28.77031
G1 X158.043 Y52.036 E28.78183
G1 X158.493 Y52.502 E28.79334
G1 X158.882 Y53.019 E28.80484
G1 X159.205 Y53.581 E28.81637
G1 X159.456 Y54.178 E28.82788
G1 X159.632 Y54.802 E28.8394
G1 X159.729 Y55.442 E28.85091
G1 X159.75 Y55.91 E28.85924
G1 X159.75 Y151.91 E30.56573
G1 X159.71 Y152.557 E30.57725
G1 X159.591 Y153.193 E30.58876
G1 X159.394 Y153.81 E30.60027
G1 X159.123 Y154.399 E30.61179
G1 X158.781 Y154.949 E30.62331
G1 X158.374 Y155.453 E30.63482
G1 X157.908 Y155.903 E30.64634
G1 X157.391 Y156.292 E30.65784
G1 X156.829 Y156.615 E30.66936
G1 X156.232 Y156.866 E30.68087
G1 X155.608 Y157.042 E30.6924
G1 X154.968 Y157.139 E30.70391
G1 X154.5 Y157.16 E30.71223
G1 X78.5 Y157.16 E32.06321
G1 X77.853 Y157.12 E32.07473
G1 X77.217 Y157.001 E32.08623
G1 X76.6 Y156.804 E32.09775
G1 X76.011 Y156.533 E32.10927
G1 X75.461 Y156.191 E32.12078
G1 X74.957 Y155.784 E32.1323
G1 X74.507 Y155.318 E32.14381
G1 X74.118 Y154.801 E32.15532
G1 X73.795 Y154.239 E32.16684
G1 X73.544 Y153.642 E32.17835
G1 X73.368 Y153.018 E32.18988
G1 X73.271 Y152.378 E32.20138
G1 X73.25 Y151.91 E32.20971
G1 X73.25 Y55.91 E33.9162
G1 X73.29 Y55.263 E33.92773
G1 X73.409 Y54.627 E33.93923
G1 X73.606 Y54.01 E33.95074
G1 X73.877 Y53.421 E33.96227
G1 X74.219 Y52.871 E33.97378
M204 S625
M205 X6 Y6
G0 F5000 X74.636 Y53.012
M204 S500
M205 X5 Y5
G1 F1200 X75.04 Y52.54 E33.98482
G1 X75.502 Y52.123 E33.99589
G1 X76.012 Y51.77 E34.00691
G1 X76.564 Y51.485 E34.01795
G1 X77.149 Y51.273 E34.02902
G1 X77.755 Y51.138 E34.04005
G1 X78.5 Y51.08 E34.05333
G1 X154.5 Y51.08 E35.40431
G1 X155.12 Y51.12 E35.41535
G1 X155.73 Y51.239 E35.4264
G1 X156.319 Y51.436 E35.43744
G1 X156.878 Y51.706 E35.44848
G1 X157.398 Y52.046 E35.45952
G1 X157.87 Y52.45 E35.47056
G1 X158.287 Y52.912 E35.48163
G1 X158.64 Y53.422 E35.49265
G1 X158.925 Y53.974 E35.5037
G1 X159.137 Y54.559 E35.51476
G1 X159.272 Y55.165 E35.52579
G1 X159.33 Y55.91 E35.53908
G1 X159.33 Y151.91 E37.24557
G1 X159.29 Y152.53 E37.25661
G1 X159.171 Y153.14 E37.26766
G1 X158.974 Y153.729 E37.2787
G1 X158.704 Y154.288 E37.28974
G1 X158.364 Y154.808 E37.30078
G1 X157.96 Y155.28 E37.31182
G1 X157.498 Y155.697 E37.32289
G1 X156.988 Y156.05 E37.33391
G1 X156.436 Y156.335 E37.34496
G1 X155.851 Y156.547 E37.35602
G1 X155.245 Y156.682 E37.36705
G1 X154.5 Y156.74 E37.38034
G1 X78.5 Y156.74 E38.73131
G1 X77.88 Y156.7 E38.74235
G1 X77.27 Y156.581 E38.7534
G1 X76.681 Y156.384 E38.76444
G1 X76.122 Y156.114 E38.77548
G1 X75.602 Y155.774 E38.78652
G1 X75.13 Y155.37 E38.79757
G1 X74.713 Y154.908 E38.80863
G1 X74.36 Y154.398 E38.81965
G1 X74.075 Y153.846 E38.8307
G1 X73.863 Y153.261 E38.84176
G1 X73.728 Y152.655 E38.85279
G1 X73.67 Y151.91 E38.86608
G1 X73.67 Y55.91 E40.57257
G1 X73.71 Y55.29 E40.58362
G1 X73.829 Y54.68 E40.59466
G1 X74.026 Y54.091 E40.6057
G1 X74.296 Y53.532 E40.61674
G1 X74.636 Y53.012 E40.62778
M204 S625
M205 X6 Y6
G0 F5000 X75.053 Y53.159
M204 S500
M205 X5 Y5
G1 F1200 X75.454 Y52.721 E40.63834
G1 X75.91 Y52.341 E40.64889
G1 X76.413 Y52.025 E40.65945
G1 X76.953 Y51.78 E40.66999
G1 X77.522 Y51.61 E40.68055
G1 X78.108 Y51.517 E40.69109
G1 X78.5 Y51.5 E40.69807
G1 X154.5 Y51.5 E42.04904
G1 X155.092 Y51.54 E42.05959
G1 X155.674 Y51.659 E42.07015
G1 X156.234 Y51.855 E42.0807
G1 X156.763 Y52.125 E42.09125
G1 X157.251 Y52.463 E42.10181
G1 X157.689 Y52.864 E42.11236
G1 X158.069 Y53.32 E42.12291
G1 X158.385 Y53.823 E42.13347
G1 X158.63 Y54.363 E42.14401
G1 X158.8 Y54.932 E42.15457
G1 X158.893 Y55.518 E42.16512
G1 X158.91 Y55.91 E42.17209
G1 X158.91 Y151.91 E43.87859
G1 X158.87 Y152.502 E43.88913
G1 X158.751 Y153.084 E43.89969
G1 X158.555 Y153.644 E43.91024
G1 X158.285 Y154.173 E43.9208
G1 X157.947 Y154.661 E43.93135
G1 X157.546 Y155.099 E43.9419
G1 X157.09 Y155.479 E43.95246
G1 X156.587 Y155.795 E43.96302
G1 X156.047 Y156.04 E43.97356
G1 X155.478 Y156.21 E43.98411
G1 X154.892 Y156.303 E43.99466
G1 X154.5 Y156.32 E44.00163
G1 X78.5 Y156.32 E45.35261
G1 X77.908 Y156.28 E45.36316
G1 X77.326 Y156.161 E45.37372
G1 X76.766 Y155.965 E45.38426
G1 X76.237 Y155.695 E45.39482
G1 X75.749 Y155.357 E45.40537
G1 X75.311 Y154.956 E45.41593
G1 X74.931 Y154.5 E45.42648
G1 X74.615 Y153.997 E45.43704
G1 X74.37 Y153.457 E45.44758
G1 X74.2 Y152.888 E45.45814
G1 X74.107 Y152.302 E45.46868
G1 X74.09 Y151.91 E45.47566
G1 X74.09 Y55.91 E47.18215
G1 X74.13 Y55.318 E47.1927
G1 X74.249 Y54.736 E47.20326
G1 X74.445 Y54.176 E47.21381
G1 X74.715 Y53.647 E47.22436
G1 X75.053 Y53.159 E47.23491
M204 S625
M205 X6 Y6
G0 F5000 X75.469 Y53.315
M204 S500
M205 X5 Y5
G1 F1200 X75.866 Y52.913 E47.24496
G1 X76.315 Y52.571 E47.25499
G1 X76.809 Y52.296 E47.26504
G1 X77.336 Y52.094 E47.27507
G1 X77.886 Y51.968 E47.2851
G1 X78.5 Y51.92 E47.29605
G1 X154.5 Y51.92 E48.64703
G1 X155.063 Y51.96 E48.65706
G1 X155.615 Y52.079 E48.6671
G1 X156.145 Y52.275 E48.67714
G1 X156.641 Y52.543 E48.68716
G1 X157.095 Y52.879 E48.6972
G1 X157.497 Y53.276 E48.70725
G1 X157.839 Y53.725 E48.71728
G1 X158.114 Y54.219 E48.72733
G1 X158.316 Y54.746 E48.73736
G1 X158.442 Y55.296 E48.74739
G1 X158.49 Y55.91 E48.75834
G1 X158.49 Y151.91 E50.46483
G1 X158.45 Y152.473 E50.47487
G1 X158.331 Y153.025 E50.4849
G1 X158.135 Y153.555 E50.49495
G1 X157.867 Y154.051 E50.50497
G1 X157.531 Y154.505 E50.51501
G1 X157.134 Y154.907 E50.52505
G1 X156.685 Y155.249 E50.53509
G1 X156.191 Y155.524 E50.54514
G1 X155.664 Y155.726 E50.55517
G1 X155.114 Y155.852 E50.5652
G1 X154.5 Y155.9 E50.57615
G1 X78.5 Y155.9 E51.92712
G1 X77.937 Y155.86 E51.93716
G1 X77.385 Y155.741 E51.94719
G1 X76.855 Y155.545 E51.95724
G1 X76.359 Y155.277 E51.96726
G1 X75.905 Y154.941 E51.9773
G1 X75.503 Y154.544 E51.98734
G1 X75.161 Y154.095 E51.99738
G1 X74.886 Y153.601 E52.00743
G1 X74.684 Y153.074 E52.01746
G1 X74.558 Y152.524 E52.02749
G1 X74.51 Y151.91 E52.03844
G1 X74.51 Y55.91 E53.74493
G1 X74.55 Y55.347 E53.75496
G1 X74.669 Y54.795 E53.765
G1 X74.865 Y54.265 E53.77505
G1 X75.133 Y53.769 E53.78507
G1 X75.469 Y53.315 E53.79511
M204 S625
M205 X6 Y6
G0 F5000 X75.551 Y53.897
M204 S500
M205 X5 Y5
G1 F1200 X75.885 Y53.48 E53.8046
G1 X76.276 Y53.117 E53.81409
G1 X76.718 Y52.817 E53.82358
G1 X77.199 Y52.585 E53.83308
G1 X77.71 Y52.429 E53.84257
G1 X78.5 Y52.34 E53.85671
G1 X154.5 Y52.34 E55.20768
G1 X155.033 Y52.38 E55.21718
G1 X155.553 Y52.499 E55.22666
G1 X156.05 Y52.694 E55.23616
G1 X156.513 Y52.961 E55.24566
G1 X156.93 Y53.295 E55.25515
G1 X157.293 Y53.686 E55.26464
G1 X157.593 Y54.128 E55.27413
G1 X157.825 Y54.609 E55.28363
G1 X157.981 Y55.12 E55.29312
G1 X158.07 Y55.91 E55.30725
G1 X158.07 Y151.91 E57.01375
G1 X158.03 Y152.443 E57.02325
G1 X157.911 Y152.963 E57.03273
G1 X157.716 Y153.46 E57.04222
G1 X157.449 Y153.923 E57.05172
G1 X157.115 Y154.34 E57.06122
G1 X156.724 Y154.703 E57.0707
G1 X156.282 Y155.003 E57.0802
G1 X155.801 Y155.235 E57.08969
G1 X155.29 Y155.391 E57.09919
G1 X154.5 Y155.48 E57.11332
G1 X78.5 Y155.48 E58.4643
G1 X77.967 Y155.44 E58.4738
G1 X77.447 Y155.321 E58.48328
G1 X76.95 Y155.126 E58.49277
G1 X76.487 Y154.859 E58.50227
G1 X76.07 Y154.525 E58.51177
