;START_OF_HEADER
;HEADER_VERSION:0.1
;FLAVOR:Griffin
;GENERATOR.NAME:Cura_SteamEngine
;GENERATOR.VERSION:3.2.0
;GENERATOR.BUILD_DATE:2018-02-06
;TARGET_MACHINE.NAME:Ultimaker 3
;EXTRUDER_TRAIN.0.INITIAL_TEMPERATURE:200
;EXTRUDER_TRAIN.0.MATERIAL.VOLUME_USED:271
;EXTRUDER_TRAIN.0.MATERIAL.GUID:506c9f0d-e3aa-4bd4-b2d2-23e2425b1aa9
;EXTRUDER_TRAIN.0.NOZZLE.DIAMETER:0.4
;EXTRUDER_TRAIN.0.NOZZLE.NAME:AA 0.4
;BUILD_PLATE.INITIAL_TEMPERATURE:60
;PRINT.TIME:572
;PRINT.SIZE.MIN.X:9
;PRINT.SIZE.MIN.Y:6
;PRINT.SIZE.MIN.Z:0.27
;PRINT.SIZE.MAX.X:137.321
;PRINT.SIZE.MAX.Y:110.689
;PRINT.SIZE.MAX.Z:5.13
;END_OF_HEADER
;Generated with Cura_SteamEngine 3.2.0
T0
M82 ;absolute extrusion mode

G92 E0
M109 S200
G0 F15000 X9 Y6 Z2
G280
G1 F1500 E-6.5
;LAYER_COUNT:82
;LAYER:0
M107
M204 S625
M205 X6 Y6
G0 F5000 X120.713 Y95.579 Z0.27
M204 S500
M205 X5 Y5
;TYPE:SKIRT
G1 F1500 E0
G1 F1200 X121.195 Y95.019 E0.01095
G1 X121.813 Y94.45 E0.02339
G1 X122.469 Y93.917 E0.03591
G1 X123.067 Y93.483 E0.04686
G1 X123.708 Y93.116 E0.0578
G1 X124.465 Y92.791 E0.07
G1 X125.258 Y92.506 E0.08248
G1 X125.965 Y92.294 E0.09342
G1 X126.692 Y92.16 E0.10437
G1 X127.526 Y92.104 E0.11675
G1 X128.374 Y92.099 E0.12931
G1 X129.112 Y92.135 E0.14026
G1 X129.841 Y92.25 E0.15119
G1 X130.669 Y92.482 E0.16393
G1 X131.463 Y92.76 E0.17639
G1 X132.146 Y93.042 E0.18733
G1 X132.795 Y93.395 E0.19828
G1 X133.472 Y93.873 E0.21055
G1 X134.132 Y94.401 E0.22308
G1 X134.683 Y94.893 E0.23402
G1 X135.177 Y95.441 E0.24495
G1 X135.661 Y96.121 E0.25731
G1 X136.109 Y96.84 E0.26986
G1 X136.465 Y97.487 E0.2808
G1 X136.749 Y98.169 E0.29174
G1 X136.984 Y98.996 E0.30448
G1 X137.164 Y99.822 E0.317
G1 X137.282 Y100.551 E0.32794
G1 X137.321 Y101.289 E0.33889
G1 X137.27 Y102.111 E0.35109
G1 X137.167 Y102.946 E0.36355
G1 X137.037 Y103.673 E0.37449
G1 X136.829 Y104.381 E0.38542
G1 X136.506 Y105.146 E0.39772
G1 X136.13 Y105.903 E0.41024
G1 X135.766 Y106.546 E0.42119
G1 X135.334 Y107.146 E0.43214
G1 X134.762 Y107.773 E0.44471
G1 X134.153 Y108.362 E0.45726
G1 X133.595 Y108.846 E0.46821
G1 X132.988 Y109.267 E0.47915
G1 X132.232 Y109.67 E0.49184
G1 X131.464 Y110.019 E0.50434
G1 X130.776 Y110.287 E0.51527
G1 X129.814 Y110.528 E0.52996
G1 X129.396 Y110.601 E0.53625
G1 X128.663 Y110.689 E0.54719
G1 X127.688 Y110.682 E0.56163
G1 X126.847 Y110.616 E0.57413
G1 X126.115 Y110.519 E0.58506
G1 X125.398 Y110.342 E0.596
G1 X124.597 Y110.043 E0.60867
G1 X123.827 Y109.699 E0.62116
G1 X123.17 Y109.362 E0.6321
G1 X122.553 Y108.956 E0.64304
G1 X121.912 Y108.418 E0.65544
G1 X121.299 Y107.836 E0.66796
G1 X120.791 Y107.299 E0.67891
G1 X120.345 Y106.71 E0.68985
G1 X119.911 Y105.974 E0.70251
G1 X119.528 Y105.219 E0.71505
G1 X119.23 Y104.543 E0.72599
G1 X119.007 Y103.839 E0.73693
G1 X118.851 Y103.038 E0.74902
G1 X118.739 Y102.203 E0.7615
G1 X118.68 Y101.467 E0.77244
G1 X118.702 Y100.729 E0.78338
G1 X118.821 Y99.905 E0.79571
G1 X118.993 Y99.079 E0.80821
G1 X119.183 Y98.365 E0.81915
G1 X119.448 Y97.675 E0.8301
G1 X119.852 Y96.91 E0.84292
G1 X120.294 Y96.187 E0.85547
G1 X120.713 Y95.579 E0.86641
M204 S625
M205 X6 Y6
G0 F5000 X121.001 Y95.778
M204 S500
M205 X5 Y5
G1 F1200 X121.473 Y95.235 E0.87707
G1 X122.034 Y94.722 E0.88833
G1 X122.69 Y94.189 E0.90085
G1 X123.273 Y93.767 E0.91151
G1 X123.899 Y93.412 E0.92217
G1 X124.583 Y93.121 E0.93318
G1 X125.376 Y92.836 E0.94566
G1 X126.066 Y92.63 E0.95633
G1 X126.774 Y92.503 E0.96698
G1 X127.528 Y92.454 E0.97818
G1 X128.376 Y92.449 E0.99074
G1 X129.094 Y92.485 E1.00139
G1 X129.805 Y92.6 E1.01206
G1 X130.554 Y92.813 E1.02359
G1 X131.348 Y93.091 E1.03605
G1 X132.012 Y93.366 E1.0467
G1 X132.643 Y93.713 E1.05737
G1 X133.253 Y94.146 E1.06845
G1 X133.913 Y94.674 E1.08097
G1 X134.449 Y95.154 E1.09163
G1 X134.928 Y95.69 E1.10228
G1 X135.364 Y96.306 E1.11346
G1 X135.812 Y97.025 E1.12601
G1 X136.157 Y97.656 E1.13666
G1 X136.431 Y98.321 E1.14731
G1 X136.643 Y99.07 E1.15884
G1 X136.823 Y99.896 E1.17137
G1 X136.936 Y100.607 E1.18203
G1 X136.971 Y101.325 E1.19268
G1 X136.922 Y102.068 E1.20371
G1 X136.819 Y102.903 E1.21617
G1 X136.692 Y103.611 E1.22683
G1 X136.486 Y104.3 E1.23748
G1 X136.192 Y104.99 E1.24859
G1 X135.816 Y105.747 E1.26111
G1 X135.461 Y106.373 E1.27177
G1 X135.038 Y106.955 E1.28243
G1 X134.518 Y107.521 E1.29382
G1 X133.909 Y108.11 E1.30637
G1 X133.365 Y108.581 E1.31703
G1 X132.772 Y108.988 E1.32768
G1 X132.087 Y109.351 E1.33916
G1 X131.319 Y109.7 E1.35166
G1 X130.648 Y109.961 E1.36232
G1 X129.754 Y110.183 E1.37597
G1 X129.336 Y110.256 E1.38226
G1 X128.621 Y110.341 E1.39292
G1 X127.715 Y110.333 E1.40634
G1 X126.874 Y110.267 E1.41884
G1 X126.161 Y110.171 E1.4295
G1 X125.463 Y109.997 E1.44015
G1 X124.74 Y109.724 E1.4516
G1 X123.97 Y109.38 E1.46409
G1 X123.33 Y109.05 E1.47476
G1 X122.731 Y108.652 E1.48541
G1 X122.153 Y108.164 E1.49662
G1 X121.54 Y107.582 E1.50914
G1 X121.046 Y107.058 E1.51981
G1 X120.614 Y106.483 E1.53046
G1 X120.224 Y105.815 E1.54192
G1 X119.841 Y105.06 E1.55446
G1 X119.551 Y104.402 E1.56511
G1 X119.337 Y103.715 E1.57577
G1 X119.197 Y102.992 E1.58668
G1 X119.085 Y102.157 E1.59916
G1 X119.03 Y101.44 E1.60981
G1 X119.054 Y100.72 E1.62048
G1 X119.164 Y99.976 E1.63163
G1 X119.336 Y99.15 E1.64412
G1 X119.522 Y98.455 E1.65478
G1 X119.783 Y97.785 E1.66543
G1 X120.151 Y97.093 E1.67704
G1 X120.593 Y96.37 E1.6896
G1 X121.001 Y95.778 E1.70025
M204 S625
M205 X6 Y6
G0 F5000 X121.29 Y95.977
M204 S500
M205 X5 Y5
G1 F1200 X121.751 Y95.451 E1.71061
G1 X122.255 Y94.993 E1.7207
G1 X122.911 Y94.46 E1.73322
G1 X123.478 Y94.051 E1.74357
G1 X124.088 Y93.709 E1.75393
G1 X124.701 Y93.45 E1.76379
G1 X125.494 Y93.165 E1.77627
G1 X126.165 Y92.966 E1.78664
G1 X126.855 Y92.845 E1.79702
G1 X127.53 Y92.804 E1.80703
G1 X128.378 Y92.799 E1.8196
G1 X129.077 Y92.835 E1.82996
G1 X129.767 Y92.95 E1.84033
G1 X130.438 Y93.143 E1.85067
G1 X131.232 Y93.421 E1.86313
G1 X131.878 Y93.69 E1.8735
G1 X132.489 Y94.03 E1.88385
G1 X133.034 Y94.419 E1.89377
G1 X133.694 Y94.947 E1.90629
G1 X134.215 Y95.415 E1.91667
G1 X134.679 Y95.939 E1.92704
G1 X135.066 Y96.491 E1.93702
G1 X135.514 Y97.21 E1.94957
G1 X135.85 Y97.824 E1.95994
G1 X136.113 Y98.472 E1.9703
G1 X136.301 Y99.145 E1.98065
G1 X136.481 Y99.971 E1.99317
G1 X136.59 Y100.662 E2.00354
G1 X136.62 Y101.361 E2.0139
G1 X136.575 Y102.025 E2.02376
G1 X136.472 Y102.86 E2.03622
G1 X136.347 Y103.548 E2.04658
G1 X136.144 Y104.218 E2.05695
G1 X135.879 Y104.835 E2.0669
G1 X135.503 Y105.592 E2.07942
G1 X135.156 Y106.2 E2.08979
G1 X134.742 Y106.764 E2.10015
G1 X134.275 Y107.27 E2.11035
G1 X133.666 Y107.859 E2.1229
G1 X133.136 Y108.316 E2.13327
G1 X132.558 Y108.709 E2.14362
G1 X131.942 Y109.032 E2.15393
G1 X131.174 Y109.381 E2.16642
G1 X130.521 Y109.634 E2.1768
G1 X129.694 Y109.839 E2.18942
G1 X129.276 Y109.912 E2.1957
G1 X128.581 Y109.992 E2.20607
G1 X127.743 Y109.984 E2.21848
G1 X126.902 Y109.918 E2.23098
G1 X126.208 Y109.824 E2.24135
G1 X125.53 Y109.651 E2.25172
G1 X124.883 Y109.404 E2.26198
G1 X124.113 Y109.06 E2.27447
G1 X123.491 Y108.739 E2.28484
G1 X122.91 Y108.349 E2.2952
G1 X122.394 Y107.91 E2.30524
G1 X121.781 Y107.328 E2.31776
G1 X121.302 Y106.818 E2.32812
G1 X120.884 Y106.257 E2.33849
G1 X120.536 Y105.657 E2.34876
G1 X120.153 Y104.902 E2.3613
G1 X119.872 Y104.261 E2.37167
G1 X119.667 Y103.592 E2.38204
G1 X119.544 Y102.945 E2.39179
G1 X119.432 Y102.11 E2.40427
G1 X119.379 Y101.413 E2.41463
G1 X119.406 Y100.713 E2.425
G1 X119.507 Y100.047 E2.43498
G1 X119.679 Y99.221 E2.44748
G1 X119.86 Y98.546 E2.45783
G1 X120.118 Y97.895 E2.46821
G1 X120.449 Y97.275 E2.47862
G1 X120.891 Y96.552 E2.49117
G1 X121.29 Y95.977 E2.50154
M204 S625
M205 X6 Y6
G0 F5000 X121.578 Y96.177
M204 S500
M205 X5 Y5
G1 F1200 X122.028 Y95.669 E2.51159
G1 X122.475 Y95.265 E2.52051
G1 X123.131 Y94.732 E2.53304
G1 X123.683 Y94.335 E2.54311
G1 X124.277 Y94.006 E2.55317
G1 X124.82 Y93.779 E2.56188
G1 X125.613 Y93.494 E2.57437
G1 X126.265 Y93.303 E2.58443
G1 X126.934 Y93.189 E2.59448
G1 X127.532 Y93.154 E2.60336
G1 X128.38 Y93.149 E2.61592
G1 X129.058 Y93.185 E2.62598
G1 X129.728 Y93.3 E2.63605
G1 X130.322 Y93.473 E2.64521
G1 X131.116 Y93.751 E2.65767
G1 X131.743 Y94.013 E2.66774
G1 X132.335 Y94.347 E2.67781
G1 X132.816 Y94.692 E2.68658
G1 X133.476 Y95.22 E2.6991
G1 X133.98 Y95.675 E2.70916
G1 X134.428 Y96.186 E2.71922
G1 X134.769 Y96.676 E2.72807
G1 X135.217 Y97.395 E2.74062
G1 X135.542 Y97.992 E2.75068
G1 X135.795 Y98.623 E2.76075
G1 X135.959 Y99.219 E2.76991
G1 X136.139 Y100.045 E2.78243
G1 X136.244 Y100.717 E2.79251
G1 X136.27 Y101.395 E2.80256
G1 X136.228 Y101.982 E2.81128
G1 X136.125 Y102.817 E2.82374
G1 X136.002 Y103.485 E2.8338
G1 X135.802 Y104.134 E2.84386
G1 X135.565 Y104.679 E2.85267
G1 X135.189 Y105.436 E2.86519
G1 X134.852 Y106.026 E2.87525
G1 X134.447 Y106.572 E2.88532
G1 X134.032 Y107.018 E2.89435
G1 X133.423 Y107.607 E2.9069
G1 X132.908 Y108.05 E2.91696
G1 X132.344 Y108.429 E2.92703
G1 X131.797 Y108.714 E2.93616
G1 X131.029 Y109.063 E2.94866
G1 X130.395 Y109.307 E2.95872
G1 X129.634 Y109.494 E2.97033
G1 X129.216 Y109.567 E2.97662
G1 X128.541 Y109.644 E2.98668
G1 X127.77 Y109.635 E2.9981
G1 X126.929 Y109.569 E3.0106
G1 X126.256 Y109.476 E3.02066
G1 X125.599 Y109.305 E3.03072
G1 X125.025 Y109.085 E3.03982
G1 X124.255 Y108.741 E3.05232
G1 X123.652 Y108.428 E3.06238
G1 X123.09 Y108.046 E3.07245
G1 X122.635 Y107.656 E3.08133
G1 X122.022 Y107.074 E3.09385
G1 X121.557 Y106.578 E3.10392
G1 X121.155 Y106.031 E3.11397
G1 X120.848 Y105.499 E3.12307
G1 X120.465 Y104.744 E3.13561
G1 X120.194 Y104.121 E3.14568
G1 X119.997 Y103.47 E3.15575
G1 X119.891 Y102.899 E3.16436
G1 X119.779 Y102.064 E3.17684
G1 X119.729 Y101.386 E3.18691
G1 X119.758 Y100.707 E3.19697
G1 X119.849 Y100.119 E3.20579
G1 X120.021 Y99.293 E3.21829
G1 X120.199 Y98.637 E3.22835
G1 X120.452 Y98.006 E3.23843
G1 X120.748 Y97.458 E3.24765
G1 X121.19 Y96.735 E3.2602
G1 X121.578 Y96.177 E3.27027
M204 S625
M205 X6 Y6
G0 F5000 X121.865 Y96.377
M204 S500
M205 X5 Y5
G1 F1200 X122.305 Y95.887 E3.28003
G1 X122.696 Y95.537 E3.2878
G1 X123.352 Y95.004 E3.30032
G1 X123.887 Y94.62 E3.31008
G1 X124.465 Y94.304 E3.31983
G1 X124.938 Y94.109 E3.32741
G1 X125.731 Y93.824 E3.3399
G1 X126.363 Y93.639 E3.34965
G1 X127.013 Y93.532 E3.35941
G1 X127.534 Y93.504 E3.36714
G1 X128.382 Y93.499 E3.3797
G1 X129.04 Y93.535 E3.38946
G1 X129.688 Y93.651 E3.39921
G1 X130.207 Y93.804 E3.40723
G1 X131.001 Y94.082 E3.41969
G1 X131.608 Y94.337 E3.42944
G1 X132.18 Y94.663 E3.4392
G1 X132.597 Y94.966 E3.44683
G1 X133.257 Y95.494 E3.45935
G1 X133.745 Y95.936 E3.46911
G1 X134.176 Y96.433 E3.47885
G1 X134.472 Y96.861 E3.48656
G1 X134.92 Y97.58 E3.49911
G1 X135.234 Y98.159 E3.50887
G1 X135.475 Y98.772 E3.51862
G1 X135.617 Y99.294 E3.52664
G1 X135.797 Y100.12 E3.53916
G1 X135.898 Y100.771 E3.54892
G1 X135.919 Y101.429 E3.55867
G1 X135.88 Y101.939 E3.56625
G1 X135.777 Y102.774 E3.57871
G1 X135.657 Y103.422 E3.58847
G1 X135.459 Y104.05 E3.59823
G1 X135.252 Y104.523 E3.60587
G1 X134.876 Y105.28 E3.61839
G1 X134.547 Y105.851 E3.62816
G1 X134.153 Y106.378 E3.6379
G1 X133.788 Y106.767 E3.64581
G1 X133.179 Y107.356 E3.65836
G1 X132.679 Y107.784 E3.66811
G1 X132.131 Y108.148 E3.67785
G1 X131.652 Y108.395 E3.68583
G1 X130.884 Y108.744 E3.69833
G1 X130.269 Y108.979 E3.70808
G1 X129.573 Y109.149 E3.7187
G1 X129.155 Y109.222 E3.72498
G1 X128.501 Y109.296 E3.73473
G1 X127.798 Y109.286 E3.74515
G1 X126.957 Y109.22 E3.75764
G1 X126.304 Y109.129 E3.76741
G1 X125.668 Y108.96 E3.77716
G1 X125.168 Y108.765 E3.78511
G1 X124.398 Y108.421 E3.7976
G1 X123.814 Y108.117 E3.80735
G1 X123.272 Y107.744 E3.8171
G1 X122.876 Y107.402 E3.82485
G1 X122.263 Y106.82 E3.83737
G1 X121.814 Y106.339 E3.84712
G1 X121.426 Y105.806 E3.85689
G1 X121.16 Y105.34 E3.86483
G1 X120.777 Y104.585 E3.87737
G1 X120.515 Y103.981 E3.88713
G1 X120.329 Y103.35 E3.89687
G1 X120.238 Y102.852 E3.90437
G1 X120.126 Y102.017 E3.91685
G1 X120.078 Y101.36 E3.92661
G1 X120.111 Y100.703 E3.93635
G1 X120.192 Y100.19 E3.94405
G1 X120.364 Y99.364 E3.95655
G1 X120.537 Y98.729 E3.96629
G1 X120.786 Y98.119 E3.97605
G1 X121.046 Y97.64 E3.98413
G1 X121.488 Y96.917 E3.99668
G1 X121.865 Y96.377 E4.00644
M204 S625
M205 X6 Y6
G0 F5000 X122.153 Y96.578
M204 S500
M205 X5 Y5
G1 F1200 X122.581 Y96.107 E4.01586
G1 X122.917 Y95.808 E4.02253
G1 X123.573 Y95.275 E4.03505
G1 X124.091 Y94.905 E4.04448
G1 X124.652 Y94.603 E4.05392
G1 X125.057 Y94.438 E4.06039
G1 X125.85 Y94.153 E4.07288
G1 X126.461 Y93.976 E4.0823
G1 X127.09 Y93.876 E4.09173
G1 X127.536 Y93.854 E4.09835
G1 X128.384 Y93.849 E4.11091
G1 X129.02 Y93.885 E4.12035
G1 X129.646 Y94.001 E4.12978
G1 X130.091 Y94.134 E4.13666
G1 X130.885 Y94.412 E4.14912
G1 X131.472 Y94.66 E4.15856
G1 X132.023 Y94.979 E4.16799
G1 X132.378 Y95.239 E4.17451
G1 X133.038 Y95.767 E4.18703
G1 X133.51 Y96.195 E4.19647
G1 X133.924 Y96.679 E4.2059
G1 X134.175 Y97.046 E4.21249
G1 X134.623 Y97.765 E4.22504
G1 X134.926 Y98.326 E4.23448
G1 X135.155 Y98.92 E4.24391
G1 X135.275 Y99.368 E4.25078
G1 X135.455 Y100.194 E4.26331
G1 X135.551 Y100.824 E4.27275
G1 X135.568 Y101.461 E4.28219
G1 X135.533 Y101.896 E4.28865
G1 X135.43 Y102.731 E4.30111
G1 X135.312 Y103.357 E4.31055
G1 X135.117 Y103.964 E4.31999
G1 X134.938 Y104.368 E4.32654
G1 X134.562 Y105.125 E4.33906
G1 X134.244 Y105.676 E4.34848
G1 X133.859 Y106.183 E4.35792
G1 X133.545 Y106.515 E4.36468
G1 X132.936 Y107.104 E4.37723
G1 X132.451 Y107.517 E4.38667
G1 X131.919 Y107.866 E4.3961
G1 X131.508 Y108.076 E4.40293
G1 X130.74 Y108.425 E4.41543
G1 X130.144 Y108.652 E4.42488
G1 X129.513 Y108.804 E4.43449
G1 X129.095 Y108.877 E4.44078
G1 X128.462 Y108.947 E4.45021
G1 X127.825 Y108.937 E4.45965
G1 X126.984 Y108.871 E4.47214
G1 X126.353 Y108.782 E4.48158
G1 X125.739 Y108.614 E4.49101
G1 X125.311 Y108.446 E4.49782
G1 X124.541 Y108.102 E4.51032
G1 X123.977 Y107.806 E4.51975
G1 X123.454 Y107.442 E4.52919
G1 X123.117 Y107.148 E4.53582
G1 X122.504 Y106.566 E4.54834
G1 X122.07 Y106.1 E4.55777
G1 X121.699 Y105.583 E4.5672
G1 X121.472 Y105.182 E4.57402
G1 X121.089 Y104.427 E4.58656
G1 X120.837 Y103.842 E4.596
G1 X120.66 Y103.23 E4.60544
G1 X120.585 Y102.806 E4.61182
G1 X120.473 Y101.971 E4.6243
G1 X120.428 Y101.335 E4.63374
G1 X120.463 Y100.699 E4.64318
G1 X120.535 Y100.261 E4.64975
G1 X120.707 Y99.435 E4.66225
G1 X120.875 Y98.821 E4.67168
G1 X121.12 Y98.233 E4.68112
G1 X121.345 Y97.823 E4.68804
G1 X121.787 Y97.1 E4.7006
G1 X122.153 Y96.578 E4.71004
M204 S625
M205 X6 Y6
G0 F5000 X122.44 Y96.78
M204 S500
M205 X5 Y5
G1 F1200 X122.856 Y96.328 E4.71914
G1 X123.137 Y96.08 E4.72469
G1 X123.793 Y95.547 E4.73721
G1 X124.295 Y95.191 E4.74633
G1 X124.838 Y94.904 E4.75543
G1 X125.175 Y94.767 E4.76082
G1 X125.968 Y94.482 E4.7733
G1 X126.559 Y94.313 E4.7824
G1 X127.166 Y94.221 E4.7915
G1 X127.538 Y94.204 E4.79701
G1 X128.386 Y94.199 E4.80958
G1 X129 Y94.235 E4.81869
G1 X129.603 Y94.351 E4.82778
G1 X129.975 Y94.464 E4.83354
G1 X130.769 Y94.742 E4.846
G1 X131.335 Y94.983 E4.85512
G1 X131.865 Y95.294 E4.86422
G1 X132.16 Y95.512 E4.86965
G1 X132.82 Y96.04 E4.88217
G1 X133.274 Y96.455 E4.89129
G1 X133.67 Y96.924 E4.90038
G1 X133.878 Y97.231 E4.90587
G1 X134.326 Y97.95 E4.91842
G1 X134.617 Y98.492 E4.92753
G1 X134.834 Y99.066 E4.93662
G1 X134.933 Y99.443 E4.9424
G1 X135.113 Y100.269 E4.95492
G1 X135.204 Y100.877 E4.96403
G1 X135.216 Y101.491 E4.97312
G1 X135.185 Y101.853 E4.97851
G1 X135.082 Y102.688 E4.99097
G1 X134.968 Y103.292 E5.00007
G1 X134.776 Y103.876 E5.00918
G1 X134.625 Y104.212 E5.01464
G1 X134.249 Y104.969 E5.02716
G1 X133.94 Y105.5 E5.03626
G1 X133.565 Y105.987 E5.04536
G1 X133.302 Y106.263 E5.05101
G1 X132.693 Y106.852 E5.06356
G1 X132.224 Y107.25 E5.07267
