;START_OF_HEADER
;HEADER_VERSION:0.1
;FLAVOR:Griffin
;GENERATOR.NAME:Cura_SteamEngine
;GENERATOR.VERSION:3.2.0
;GENERATOR.BUILD_DATE:2018-02-06
;TARGET_MACHINE.NAME:Ultimaker 3
;EXTRUDER_TRAIN.0.INITIAL_TEMPERATURE:200
;EXTRUDER_TRAIN.0.MATERIAL.VOLUME_USED:363
;EXTRUDER_TRAIN.0.MATERIAL.GUID:506c9f0d-e3aa-4bd4-b2d2-23e2425b1aa9
;EXTRUDER_TRAIN.0.NOZZLE.DIAMETER:0.4
;EXTRUDER_TRAIN.0.NOZZLE.NAME:AA 0.4
;BUILD_PLATE.INITIAL_TEMPERATURE:60
;PRINT.TIME:233
;PRINT.SIZE.MIN.X:9
;PRINT.SIZE.MIN.Y:6
;PRINT.SIZE.MIN.Z:0.27
;PRINT.SIZE.MAX.X:139.825
;PRINT.SIZE.MAX.Y:135.825
;PRINT.SIZE.MAX.Z:2
;END_OF_HEADER
;Generated with Cura_SteamEngine 3.2.0
T0
M82 ;absolute extrusion mode

G92 E0
M109 S200
G0 F15000 X9 Y6 Z2
G280
G1 F1500 E-6.5
;LAYER_COUNT:3
;LAYER:0
M107
M204 S625
M205 X6 Y6
G0 F5000 X106.065 Y81.871 Z0.27
M204 S500
M205 X5 Y5
;TYPE:SKIRT
G1 F1500 E0
G1 F1200 X106.543 Y81.308 E0.01094
G1 X107.079 Y80.8 E0.02188
G1 X107.667 Y80.353 E0.03282
G1 X108.3 Y79.972 E0.04377
G1 X108.97 Y79.661 E0.05471
G1 X109.67 Y79.425 E0.06565
G1 X110.391 Y79.266 E0.07659
G1 X111.126 Y79.185 E0.08754
G1 X111.5 Y79.175 E0.09308
G1 X121.5 Y79.175 E0.24122
G1 X122.238 Y79.215 E0.25216
G1 X122.966 Y79.334 E0.26309
G1 X123.678 Y79.532 E0.27404
G1 X124.364 Y79.805 E0.28498
G1 X125.017 Y80.151 E0.29592
G1 X125.629 Y80.565 E0.30687
G1 X126.192 Y81.043 E0.31781
G1 X126.7 Y81.579 E0.32875
G1 X127.147 Y82.167 E0.33969
G1 X127.528 Y82.8 E0.35063
G1 X127.839 Y83.47 E0.36158
G1 X128.075 Y84.17 E0.37252
G1 X128.234 Y84.891 E0.38346
G1 X128.315 Y85.626 E0.39441
G1 X128.325 Y86 E0.39995
G1 X128.325 Y87.5 E0.42217
G1 X128.285 Y88.238 E0.43312
G1 X128.166 Y88.966 E0.44405
G1 X127.968 Y89.678 E0.45499
G1 X127.695 Y90.364 E0.46593
G1 X127.349 Y91.017 E0.47688
G1 X126.935 Y91.629 E0.48782
G1 X126.457 Y92.192 E0.49876
G1 X125.921 Y92.7 E0.5097
G1 X125.333 Y93.147 E0.52064
G1 X124.7 Y93.528 E0.53159
G1 X124.03 Y93.839 E0.54253
G1 X123.33 Y94.075 E0.55347
G1 X122.609 Y94.234 E0.56441
G1 X121.874 Y94.315 E0.57536
G1 X121.5 Y94.325 E0.58091
G1 X111.5 Y94.325 E0.72904
G1 X110.762 Y94.285 E0.73999
G1 X110.034 Y94.166 E0.75092
G1 X109.322 Y93.968 E0.76186
G1 X108.636 Y93.695 E0.7728
G1 X107.983 Y93.349 E0.78375
G1 X107.371 Y92.935 E0.79469
G1 X106.808 Y92.457 E0.80563
G1 X106.3 Y91.921 E0.81657
G1 X105.853 Y91.333 E0.82751
G1 X105.472 Y90.7 E0.83846
G1 X105.161 Y90.03 E0.8494
G1 X104.925 Y89.33 E0.86034
G1 X104.766 Y88.609 E0.87128
G1 X104.685 Y87.874 E0.88223
G1 X104.675 Y87.5 E0.88778
G1 X104.675 Y86 E0.91
G1 X104.715 Y85.262 E0.92094
G1 X104.834 Y84.534 E0.93187
G1 X105.032 Y83.822 E0.94282
G1 X105.305 Y83.136 E0.95375
G1 X105.651 Y82.483 E0.9647
G1 X106.065 Y81.871 E0.97565
M204 S625
M205 X6 Y6
G0 F5000 X106.413 Y81.994
M204 S500
M205 X5 Y5
G1 F1200 X106.889 Y81.455 E0.9863
G1 X107.421 Y80.971 E0.99695
G1 X108.004 Y80.55 E1.00761
G1 X108.631 Y80.196 E1.01827
G1 X109.292 Y79.913 E1.02892
G1 X109.981 Y79.706 E1.03958
G1 X110.689 Y79.576 E1.05024
G1 X111.5 Y79.525 E1.06228
G1 X121.5 Y79.525 E1.21041
G1 X122.218 Y79.565 E1.22107
G1 X122.928 Y79.684 E1.23173
G1 X123.62 Y79.882 E1.24239
G1 X124.285 Y80.155 E1.25304
G1 X124.917 Y80.5 E1.26371
G1 X125.506 Y80.913 E1.27436
G1 X126.045 Y81.389 E1.28502
G1 X126.529 Y81.921 E1.29567
G1 X126.95 Y82.504 E1.30632
G1 X127.304 Y83.131 E1.31699
G1 X127.587 Y83.792 E1.32764
G1 X127.794 Y84.481 E1.3383
G1 X127.924 Y85.189 E1.34896
G1 X127.975 Y86 E1.361
G1 X127.975 Y87.5 E1.38322
G1 X127.935 Y88.218 E1.39387
G1 X127.816 Y88.928 E1.40453
G1 X127.618 Y89.62 E1.4152
G1 X127.345 Y90.285 E1.42584
G1 X127 Y90.917 E1.43651
G1 X126.587 Y91.506 E1.44717
G1 X126.111 Y92.045 E1.45782
G1 X125.579 Y92.529 E1.46847
G1 X124.996 Y92.95 E1.47913
G1 X124.369 Y93.304 E1.48979
G1 X123.708 Y93.587 E1.50044
G1 X123.019 Y93.794 E1.5111
G1 X122.311 Y93.924 E1.52176
G1 X121.5 Y93.975 E1.5338
G1 X111.5 Y93.975 E1.68193
G1 X110.782 Y93.935 E1.69259
G1 X110.072 Y93.816 E1.70325
G1 X109.38 Y93.618 E1.71391
G1 X108.715 Y93.345 E1.72456
G1 X108.083 Y93 E1.73523
G1 X107.494 Y92.587 E1.74588
G1 X106.955 Y92.111 E1.75654
G1 X106.471 Y91.579 E1.76719
G1 X106.05 Y90.996 E1.77784
G1 X105.696 Y90.369 E1.78851
G1 X105.413 Y89.708 E1.79916
G1 X105.206 Y89.019 E1.80982
G1 X105.076 Y88.311 E1.82048
G1 X105.025 Y87.5 E1.83252
G1 X105.025 Y86 E1.85474
G1 X105.065 Y85.282 E1.86539
G1 X105.184 Y84.572 E1.87605
G1 X105.382 Y83.88 E1.88672
G1 X105.655 Y83.215 E1.89736
G1 X106 Y82.583 E1.90803
G1 X106.413 Y81.994 E1.91869
M204 S625
M205 X6 Y6
G0 F5000 X106.76 Y82.121
M204 S500
M205 X5 Y5
G1 F1200 X107.233 Y81.606 E1.92904
G1 X107.762 Y81.148 E1.93941
G1 X108.34 Y80.753 E1.94978
G1 X108.959 Y80.427 E1.96014
G1 X109.611 Y80.173 E1.97051
G1 X110.288 Y79.996 E1.98087
G1 X110.981 Y79.897 E1.99124
G1 X111.5 Y79.875 E1.99894
G1 X121.5 Y79.875 E2.14707
G1 X122.199 Y79.915 E2.15744
G1 X122.888 Y80.034 E2.1678
G1 X123.559 Y80.232 E2.17817
G1 X124.204 Y80.504 E2.18853
G1 X124.813 Y80.848 E2.1989
G1 X125.379 Y81.26 E2.20927
G1 X125.894 Y81.733 E2.21962
G1 X126.352 Y82.262 E2.22999
G1 X126.747 Y82.84 E2.24036
G1 X127.073 Y83.459 E2.25072
G1 X127.327 Y84.111 E2.26109
G1 X127.504 Y84.788 E2.27145
G1 X127.603 Y85.481 E2.28182
G1 X127.625 Y86 E2.28952
G1 X127.625 Y87.5 E2.31174
G1 X127.585 Y88.199 E2.32211
G1 X127.466 Y88.888 E2.33247
G1 X127.268 Y89.559 E2.34283
G1 X126.996 Y90.204 E2.3532
G1 X126.652 Y90.813 E2.36356
G1 X126.24 Y91.379 E2.37393
G1 X125.767 Y91.894 E2.38429
G1 X125.238 Y92.352 E2.39466
G1 X124.66 Y92.747 E2.40503
G1 X124.041 Y93.073 E2.41539
G1 X123.389 Y93.327 E2.42575
G1 X122.712 Y93.504 E2.43612
G1 X122.019 Y93.603 E2.44649
G1 X121.5 Y93.625 E2.45419
G1 X111.5 Y93.625 E2.60232
G1 X110.801 Y93.585 E2.61269
G1 X110.112 Y93.466 E2.62305
G1 X109.441 Y93.268 E2.63341
G1 X108.796 Y92.996 E2.64378
G1 X108.187 Y92.652 E2.65414
G1 X107.621 Y92.24 E2.66451
G1 X107.106 Y91.767 E2.67487
G1 X106.648 Y91.238 E2.68524
G1 X106.253 Y90.66 E2.69561
G1 X105.927 Y90.041 E2.70597
G1 X105.673 Y89.389 E2.71633
G1 X105.496 Y88.712 E2.7267
G1 X105.397 Y88.019 E2.73707
G1 X105.375 Y87.5 E2.74476
G1 X105.375 Y86 E2.76698
G1 X105.415 Y85.301 E2.77736
G1 X105.534 Y84.612 E2.78771
G1 X105.732 Y83.941 E2.79808
G1 X106.004 Y83.296 E2.80845
G1 X106.348 Y82.687 E2.81881
G1 X106.76 Y82.121 E2.82918
M204 S625
M205 X6 Y6
G0 F5000 X107.107 Y82.252
M204 S500
M205 X5 Y5
G1 F1200 X107.577 Y81.762 E2.83924
G1 X108.102 Y81.331 E2.8493
G1 X108.674 Y80.964 E2.85937
G1 X109.285 Y80.667 E2.86943
G1 X109.927 Y80.443 E2.8795
G1 X110.59 Y80.297 E2.88956
G1 X111.5 Y80.225 E2.90308
G1 X121.5 Y80.225 E3.05121
G1 X122.178 Y80.265 E3.06127
G1 X122.847 Y80.384 E3.07134
G1 X123.497 Y80.581 E3.0814
G1 X124.12 Y80.853 E3.09147
G1 X124.706 Y81.197 E3.10154
G1 X125.248 Y81.607 E3.1116
G1 X125.738 Y82.077 E3.12166
G1 X126.169 Y82.602 E3.13172
G1 X126.536 Y83.174 E3.14179
G1 X126.833 Y83.785 E3.15185
G1 X127.057 Y84.427 E3.16193
G1 X127.203 Y85.09 E3.17198
G1 X127.275 Y86 E3.18551
G1 X127.275 Y87.5 E3.20773
G1 X127.235 Y88.178 E3.21779
G1 X127.116 Y88.847 E3.22785
G1 X126.919 Y89.497 E3.23791
G1 X126.647 Y90.12 E3.24798
G1 X126.303 Y90.706 E3.25805
G1 X125.893 Y91.248 E3.26812
G1 X125.423 Y91.738 E3.27817
G1 X124.898 Y92.169 E3.28824
G1 X124.326 Y92.536 E3.2983
G1 X123.715 Y92.833 E3.30837
G1 X123.073 Y93.057 E3.31844
G1 X122.41 Y93.203 E3.3285
G1 X121.5 Y93.275 E3.34202
G1 X111.5 Y93.275 E3.49015
G1 X110.822 Y93.235 E3.50021
G1 X110.153 Y93.116 E3.51028
G1 X109.503 Y92.919 E3.52034
G1 X108.88 Y92.647 E3.53041
G1 X108.294 Y92.303 E3.54047
G1 X107.752 Y91.893 E3.55054
G1 X107.262 Y91.423 E3.5606
G1 X106.831 Y90.898 E3.57066
G1 X106.464 Y90.326 E3.58073
G1 X106.167 Y89.715 E3.59079
G1 X105.943 Y89.073 E3.60086
G1 X105.797 Y88.41 E3.61092
G1 X105.725 Y87.5 E3.62444
G1 X105.725 Y86 E3.64666
G1 X105.765 Y85.322 E3.65672
G1 X105.884 Y84.653 E3.66679
G1 X106.081 Y84.003 E3.67685
G1 X106.353 Y83.38 E3.68692
G1 X106.697 Y82.794 E3.69699
G1 X107.107 Y82.252 E3.70705
M204 S625
M205 X6 Y6
G0 F5000 X107.045 Y82.904
M204 S500
M205 X5 Y5
G1 F1200 X107.453 Y82.387 E3.71681
G1 X107.92 Y81.924 E3.72655
G1 X108.441 Y81.52 E3.73632
G1 X109.006 Y81.182 E3.74607
G1 X109.608 Y80.916 E3.75582
G1 X110.238 Y80.724 E3.76558
G1 X110.886 Y80.61 E3.77532
G1 X111.5 Y80.575 E3.78443
G1 X121.5 Y80.575 E3.93257
G1 X122.157 Y80.615 E3.94232
G1 X122.805 Y80.734 E3.95208
G1 X123.433 Y80.931 E3.96183
G1 X124.033 Y81.203 E3.97158
G1 X124.596 Y81.545 E3.98134
G1 X125.113 Y81.953 E3.9911
G1 X125.576 Y82.42 E4.00084
G1 X125.98 Y82.941 E4.01061
G1 X126.318 Y83.506 E4.02036
G1 X126.584 Y84.108 E4.03011
G1 X126.776 Y84.738 E4.03986
G1 X126.89 Y85.386 E4.04961
G1 X126.925 Y86 E4.05872
G1 X126.925 Y87.5 E4.08094
G1 X126.885 Y88.157 E4.09069
G1 X126.766 Y88.805 E4.10045
G1 X126.569 Y89.433 E4.1102
G1 X126.297 Y90.033 E4.11996
G1 X125.955 Y90.596 E4.12972
G1 X125.547 Y91.113 E4.13947
G1 X125.08 Y91.576 E4.14921
G1 X124.559 Y91.98 E4.15898
G1 X123.994 Y92.318 E4.16873
G1 X123.392 Y92.584 E4.17848
G1 X122.762 Y92.776 E4.18824
G1 X122.114 Y92.89 E4.19799
G1 X121.5 Y92.925 E4.2071
G1 X111.5 Y92.925 E4.35523
G1 X110.843 Y92.885 E4.36498
G1 X110.195 Y92.766 E4.37474
G1 X109.567 Y92.569 E4.38449
G1 X108.967 Y92.297 E4.39425
G1 X108.404 Y91.955 E4.40401
G1 X107.887 Y91.547 E4.41376
G1 X107.424 Y91.08 E4.4235
G1 X107.02 Y90.559 E4.43327
G1 X106.682 Y89.994 E4.44302
G1 X106.416 Y89.392 E4.45277
G1 X106.224 Y88.762 E4.46253
G1 X106.11 Y88.114 E4.47227
G1 X106.075 Y87.5 E4.48138
G1 X106.075 Y86 E4.5036
G1 X106.115 Y85.343 E4.51335
G1 X106.234 Y84.695 E4.52311
G1 X106.431 Y84.067 E4.53286
G1 X106.703 Y83.467 E4.54262
G1 X107.045 Y82.904 E4.55238
M204 S625
M205 X6 Y6
G0 F5000 X107.393 Y83.019
M204 S500
M205 X5 Y5
G1 F1200 X107.799 Y82.528 E4.56182
G1 X108.263 Y82.092 E4.57125
G1 X108.778 Y81.717 E4.58069
G1 X109.335 Y81.41 E4.59011
G1 X109.927 Y81.175 E4.59954
G1 X110.544 Y81.016 E4.60898
G1 X111.176 Y80.935 E4.61842
G1 X111.5 Y80.925 E4.62322
G1 X121.5 Y80.925 E4.77136
G1 X122.136 Y80.965 E4.7808
G1 X122.761 Y81.084 E4.79022
G1 X123.367 Y81.281 E4.79966
G1 X123.943 Y81.552 E4.80909
G1 X124.481 Y81.893 E4.81852
G1 X124.972 Y82.299 E4.82796
G1 X125.408 Y82.763 E4.83739
G1 X125.783 Y83.278 E4.84683
G1 X126.09 Y83.835 E4.85625
G1 X126.325 Y84.427 E4.86569
G1 X126.484 Y85.044 E4.87513
G1 X126.565 Y85.676 E4.88456
G1 X126.575 Y86 E4.88937
G1 X126.575 Y87.5 E4.91159
G1 X126.535 Y88.136 E4.92103
G1 X126.416 Y88.761 E4.93045
G1 X126.219 Y89.367 E4.93989
G1 X125.948 Y89.943 E4.94932
G1 X125.607 Y90.481 E4.95876
G1 X125.201 Y90.972 E4.96819
G1 X124.737 Y91.408 E4.97762
G1 X124.222 Y91.783 E4.98706
G1 X123.665 Y92.09 E4.99648
G1 X123.073 Y92.325 E5.00592
G1 X122.456 Y92.484 E5.01536
G1 X121.824 Y92.565 E5.0248
G1 X121.5 Y92.575 E5.0296
G1 X111.5 Y92.575 E5.17773
G1 X110.864 Y92.535 E5.18717
G1 X110.239 Y92.416 E5.19659
G1 X109.633 Y92.219 E5.20603
G1 X109.057 Y91.948 E5.21546
G1 X108.519 Y91.607 E5.2249
G1 X108.028 Y91.201 E5.23434
G1 X107.592 Y90.737 E5.24377
G1 X107.217 Y90.222 E5.25321
G1 X106.91 Y89.665 E5.26263
G1 X106.675 Y89.073 E5.27206
G1 X106.516 Y88.456 E5.2815
G1 X106.435 Y87.824 E5.29094
G1 X106.425 Y87.5 E5.29574
G1 X106.425 Y86 E5.31796
G1 X106.465 Y85.364 E5.3274
G1 X106.584 Y84.739 E5.33683
G1 X106.781 Y84.133 E5.34626
G1 X107.052 Y83.557 E5.35569
G1 X107.393 Y83.019 E5.36513
M204 S625
M205 X6 Y6
G0 F5000 X107.741 Y83.138
M204 S500
M205 X5 Y5
G1 F1200 X108.144 Y82.674 E5.37423
G1 X108.604 Y82.267 E5.38333
G1 X109.113 Y81.922 E5.39244
G1 X109.662 Y81.647 E5.40154
G1 X110.243 Y81.445 E5.41065
G1 X110.844 Y81.321 E5.41974
G1 X111.5 Y81.275 E5.42948
G1 X121.5 Y81.275 E5.57761
G1 X122.113 Y81.315 E5.58671
G1 X122.716 Y81.434 E5.59582
G1 X123.298 Y81.631 E5.60492
G1 X123.85 Y81.901 E5.61402
G1 X124.362 Y82.241 E5.62313
G1 X124.826 Y82.644 E5.63223
G1 X125.233 Y83.104 E5.64133
G1 X125.578 Y83.613 E5.65044
G1 X125.853 Y84.162 E5.65953
G1 X126.055 Y84.743 E5.66865
G1 X126.179 Y85.344 E5.67774
G1 X126.225 Y86 E5.68748
G1 X126.225 Y87.5 E5.7097
G1 X126.185 Y88.113 E5.7188
G1 X126.066 Y88.716 E5.7279
G1 X125.869 Y89.298 E5.737
G1 X125.599 Y89.85 E5.74611
G1 X125.259 Y90.362 E5.75521
G1 X124.856 Y90.826 E5.76431
G1 X124.396 Y91.233 E5.77341
G1 X123.887 Y91.578 E5.78252
G1 X123.338 Y91.853 E5.79162
G1 X122.757 Y92.055 E5.80073
G1 X122.156 Y92.179 E5.80982
G1 X121.5 Y92.225 E5.81956
G1 X111.5 Y92.225 E5.96769
G1 X110.887 Y92.185 E5.97679
G1 X110.284 Y92.066 E5.9859
G1 X109.702 Y91.869 E5.995
G1 X109.15 Y91.599 E6.0041
G1 X108.638 Y91.259 E6.01321
G1 X108.174 Y90.856 E6.02231
G1 X107.767 Y90.396 E6.03141
G1 X107.422 Y89.887 E6.04052
G1 X107.147 Y89.338 E6.04961
G1 X106.945 Y88.757 E6.05873
G1 X106.821 Y88.156 E6.06782
G1 X106.775 Y87.5 E6.07756
G1 X106.775 Y86 E6.09978
G1 X106.815 Y85.387 E6.10888
G1 X106.934 Y84.784 E6.11798
G1 X107.131 Y84.202 E6.12708
G1 X107.401 Y83.65 E6.13619
G1 X107.741 Y83.138 E6.14529
M204 S625
M205 X6 Y6
G0 F5000 X108.088 Y83.262
M204 S500
M205 X5 Y5
G1 F1200 X108.488 Y82.827 E6.15405
G1 X108.944 Y82.45 E6.16281
G1 X109.446 Y82.137 E6.17157
G1 X109.985 Y81.896 E6.18032
G1 X110.553 Y81.729 E6.18909
G1 X111.137 Y81.64 E6.19784
G1 X111.5 Y81.625 E6.20322
G1 X121.5 Y81.625 E6.35136
G1 X122.09 Y81.665 E6.36012
G1 X122.669 Y81.784 E6.36887
G1 X123.227 Y81.98 E6.37763
G1 X123.753 Y82.25 E6.38639
G1 X124.238 Y82.588 E6.39515
G1 X124.673 Y82.988 E6.4039
G1 X125.05 Y83.444 E6.41267
G1 X125.363 Y83.946 E6.42143
G1 X125.604 Y84.485 E6.43018
G1 X125.771 Y85.053 E6.43895
G1 X125.86 Y85.637 E6.4477
G1 X125.875 Y86 E6.45308
G1 X125.875 Y87.5 E6.4753
G1 X125.835 Y88.09 E6.48406
G1 X125.716 Y88.669 E6.49281
G1 X125.52 Y89.227 E6.50158
G1 X125.25 Y89.753 E6.51033
G1 X124.912 Y90.238 E6.51909
G1 X124.512 Y90.673 E6.52785
G1 X124.056 Y91.05 E6.53661
G1 X123.554 Y91.363 E6.54537
G1 X123.015 Y91.604 E6.55412
G1 X122.447 Y91.771 E6.56289
G1 X121.863 Y91.86 E6.57164
G1 X121.5 Y91.875 E6.57702
G1 X111.5 Y91.875 E6.72516
G1 X110.91 Y91.835 E6.73391
G1 X110.331 Y91.716 E6.74267
G1 X109.773 Y91.52 E6.75143
G1 X109.247 Y91.25 E6.76019
G1 X108.762 Y90.912 E6.76895
G1 X108.327 Y90.512 E6.7777
G1 X107.95 Y90.056 E6.78647
G1 X107.637 Y89.554 E6.79523
G1 X107.396 Y89.015 E6.80398
G1 X107.229 Y88.447 E6.81275
G1 X107.14 Y87.863 E6.8215
G1 X107.125 Y87.5 E6.82688
G1 X107.125 Y86 E6.8491
G1 X107.165 Y85.41 E6.85786
G1 X107.284 Y84.831 E6.86661
G1 X107.48 Y84.273 E6.87538
G1 X107.75 Y83.747 E6.88413
G1 X108.088 Y83.262 E6.89289
M204 S625
M205 X6 Y6
G0 F5000 X108.435 Y83.392
M204 S500
M205 X5 Y5
G1 F1200 X108.832 Y82.987 E6.90129
G1 X109.282 Y82.641 E6.9097
G1 X109.776 Y82.363 E6.9181
G1 X110.304 Y82.157 E6.92649
G1 X110.856 Y82.027 E6.93489
G1 X111.5 Y81.975 E6.94446
G1 X121.5 Y81.975 E7.0926
G1 X122.066 Y82.015 E7.101
G1 X122.62 Y82.134 E7.1094
G1 X123.152 Y82.33 E7.11779
G1 X123.652 Y82.598 E7.1262
G1 X124.108 Y82.935 E7.1346
G1 X124.513 Y83.332 E7.143
G1 X124.859 Y83.782 E7.15141
G1 X125.137 Y84.276 E7.1598
G1 X125.343 Y84.804 E7.1682
G1 X125.473 Y85.356 E7.1766
G1 X125.525 Y86 E7.18617
G1 X125.525 Y87.5 E7.20839
G1 X125.485 Y88.066 E7.2168
G1 X125.366 Y88.62 E7.22519
G1 X125.17 Y89.152 E7.23359
G1 X124.902 Y89.652 E7.24199
G1 X124.565 Y90.108 E7.25039
G1 X124.168 Y90.513 E7.25879
G1 X123.718 Y90.859 E7.2672
G1 X123.224 Y91.137 E7.2756
G1 X122.696 Y91.343 E7.28399
G1 X122.144 Y91.473 E7.29239
G1 X121.5 Y91.525 E7.30197
G1 X111.5 Y91.525 E7.4501
G1 X110.934 Y91.485 E7.4585
G1 X110.38 Y91.366 E7.4669
G1 X109.848 Y91.17 E7.4753
G1 X109.348 Y90.902 E7.4837
G1 X108.892 Y90.565 E7.4921
G1 X108.487 Y90.168 E7.5005
