;START_OF_HEADER
;HEADER_VERSION:0.1
;FLAVOR:Griffin
;GENERATOR.NAME:Cura_SteamEngine
;GENERATOR.VERSION:3.2.0
;GENERATOR.BUILD_DATE:2018-02-06
;TARGET_MACHINE.NAME:Ultimaker 3
;EXTRUDER_TRAIN.0.INITIAL_TEMPERATURE:200
;EXTRUDER_TRAIN.0.MATERIAL.VOLUME_USED:894
;EXTRUDER_TRAIN.0.MATERIAL.GUID:506c9f0d-e3aa-4bd4-b2d2-23e2425b1aa9
;EXTRUDER_TRAIN.0.NOZZLE.DIAMETER:0.4
;EXTRUDER_TRAIN.0.NOZZLE.NAME:AA 0.4
;BUILD_PLATE.INITIAL_TEMPERATURE:60
;PRINT.TIME:1146
;PRINT.SIZE.MIN.X:9
;PRINT.SIZE.MIN.Y:6
;PRINT.SIZE.MIN.Z:0.27
;PRINT.SIZE.MAX.X:143.821
;PRINT.SIZE.MAX.Y:133.223
;PRINT.SIZE.MAX.Z:3.11
;END_OF_HEADER
;Generated with Cura_SteamEngine 3.2.0
T0
M82 ;absolute extrusion mode

G92 E0
M109 S200
G0 F15000 X9 Y6 Z2
G280
G1 F1500 E-6.5
;LAYER_COUNT:30
;LAYER:0
M107
M204 S625
M205 X6 Y6
G0 F5000 X95.776 Y86.545 Z0.27
M204 S500
M205 X5 Y5
;TYPE:SKIRT
G1 F1500 E0
G1 F1200 X96.302 Y86.028 E0.01093
G1 X96.882 Y85.57 E0.02187
G1 X97.508 Y85.178 E0.03281
G1 X98.173 Y84.855 E0.04377
G1 X98.868 Y84.607 E0.0547
G1 X99.586 Y84.434 E0.06564
G1 X100.319 Y84.341 E0.07658
G1 X101.058 Y84.327 E0.08753
G1 X101.793 Y84.393 E0.09846
G1 X102.518 Y84.539 E0.10942
G1 X103.222 Y84.761 E0.12035
G1 X103.898 Y85.059 E0.1313
G1 X104.538 Y85.428 E0.14224
G1 X105.408 Y86.099 E0.15852
G1 X111.109 Y91.285 E0.27268
G1 X111.393 Y91.005 E0.27859
G1 X111.973 Y90.547 E0.28953
G1 X112.599 Y90.155 E0.30048
G1 X113.264 Y89.832 E0.31143
G1 X113.959 Y89.584 E0.32236
G1 X114.677 Y89.411 E0.3333
G1 X115.41 Y89.318 E0.34424
G1 X116.149 Y89.304 E0.35519
G1 X116.884 Y89.37 E0.36612
G1 X117.609 Y89.516 E0.37708
G1 X118.313 Y89.738 E0.38801
G1 X118.989 Y90.036 E0.39896
G1 X119.629 Y90.405 E0.4099
G1 X120.225 Y90.841 E0.42084
G1 X120.508 Y91.085 E0.42638
G1 X121.745 Y92.214 E0.45118
G1 X124.897 Y88.761 E0.52044
G1 X125.424 Y88.244 E0.53138
G1 X126.003 Y87.786 E0.54231
G1 X126.629 Y87.393 E0.55326
G1 X127.293 Y87.071 E0.56419
G1 X127.989 Y86.822 E0.57514
G1 X128.707 Y86.65 E0.58608
G1 X129.44 Y86.556 E0.59703
G1 X130.178 Y86.542 E0.60796
G1 X130.914 Y86.608 E0.61891
G1 X131.638 Y86.753 E0.62985
G1 X132.343 Y86.976 E0.6408
G1 X133.019 Y87.273 E0.65174
G1 X133.659 Y87.642 E0.66268
G1 X134.255 Y88.078 E0.67362
G1 X134.539 Y88.322 E0.67917
G1 X136.755 Y90.345 E0.72361
G1 X137.272 Y90.872 E0.73455
G1 X137.73 Y91.452 E0.7455
G1 X138.123 Y92.078 E0.75645
G1 X138.445 Y92.742 E0.76738
G1 X138.694 Y93.438 E0.77833
G1 X138.866 Y94.156 E0.78926
G1 X138.96 Y94.889 E0.80021
G1 X138.974 Y95.627 E0.81115
G1 X138.908 Y96.363 E0.82209
G1 X138.763 Y97.087 E0.83303
G1 X138.54 Y97.791 E0.84397
G1 X138.243 Y98.468 E0.85492
G1 X137.874 Y99.108 E0.86586
G1 X137.438 Y99.704 E0.8768
G1 X137.193 Y99.988 E0.88236
G1 X134.041 Y103.44 E0.9516
G1 X135.277 Y104.569 E0.9764
G1 X135.795 Y105.096 E0.98735
G1 X136.253 Y105.676 E0.9983
G1 X136.646 Y106.302 E1.00925
G1 X136.968 Y106.966 E1.02018
G1 X137.217 Y107.662 E1.03113
G1 X137.389 Y108.38 E1.04206
G1 X137.483 Y109.112 E1.053
G1 X137.497 Y109.851 E1.06394
G1 X137.431 Y110.587 E1.07489
G1 X137.286 Y111.311 E1.08583
G1 X137.063 Y112.015 E1.09677
G1 X136.766 Y112.691 E1.10771
G1 X136.397 Y113.332 E1.11866
G1 X135.936 Y113.933 E1.12988
G1 X141.622 Y119.165 E1.24434
G1 X142.138 Y119.694 E1.25529
G1 X142.594 Y120.275 E1.26623
G1 X142.984 Y120.902 E1.27717
G1 X143.304 Y121.568 E1.28811
G1 X143.55 Y122.264 E1.29905
G1 X143.719 Y122.983 E1.30999
G1 X143.81 Y123.716 E1.32093
G1 X143.821 Y124.455 E1.33188
G1 X143.752 Y125.19 E1.34282
G1 X143.604 Y125.914 E1.35376
G1 X143.379 Y126.618 E1.36471
G1 X143.079 Y127.293 E1.37565
G1 X142.707 Y127.931 E1.38659
G1 X142.04 Y128.79 E1.4027
G1 X140.017 Y131.005 E1.44714
G1 X139.491 Y131.522 E1.45807
G1 X138.911 Y131.98 E1.46901
G1 X138.285 Y132.372 E1.47995
G1 X137.62 Y132.695 E1.49091
G1 X136.925 Y132.943 E1.50184
G1 X136.207 Y133.116 E1.51278
G1 X135.474 Y133.209 E1.52372
G1 X134.735 Y133.223 E1.53467
G1 X134 Y133.157 E1.5456
G1 X133.275 Y133.011 E1.55656
G1 X132.571 Y132.789 E1.56749
G1 X131.895 Y132.491 E1.57844
G1 X131.255 Y132.122 E1.58938
G1 X130.396 Y131.46 E1.60544
G1 X124.674 Y126.276 E1.71982
G1 X124.356 Y126.584 E1.72638
G1 X123.772 Y127.037 E1.73733
G1 X123.143 Y127.424 E1.74827
G1 X122.476 Y127.741 E1.75921
G1 X121.778 Y127.984 E1.77015
G1 X121.059 Y128.15 E1.78108
G1 X120.325 Y128.237 E1.79203
G1 X119.587 Y128.244 E1.80297
G1 X118.851 Y128.172 E1.81392
G1 X118.128 Y128.021 E1.82486
G1 X117.426 Y127.792 E1.8358
G1 X116.753 Y127.489 E1.84673
G1 X116.116 Y127.114 E1.85768
G1 X115.285 Y126.466 E1.87329
G1 X114.048 Y125.336 E1.89811
G1 X110.896 Y128.789 E1.96737
G1 X110.369 Y129.306 E1.9783
G1 X109.79 Y129.764 E1.98924
G1 X109.164 Y130.157 E2.00019
G1 X108.5 Y130.479 E2.01112
G1 X107.804 Y130.728 E2.02207
G1 X107.086 Y130.9 E2.03301
G1 X106.353 Y130.994 E2.04396
G1 X105.615 Y131.008 E2.05489
G1 X104.879 Y130.942 E2.06584
G1 X104.155 Y130.797 E2.07677
G1 X103.45 Y130.574 E2.08773
G1 X102.774 Y130.277 E2.09866
G1 X102.134 Y129.908 E2.10961
G1 X101.538 Y129.472 E2.12055
G1 X101.253 Y129.226 E2.12612
G1 X99.038 Y127.203 E2.17056
G1 X98.521 Y126.677 E2.18149
G1 X98.063 Y126.097 E2.19243
G1 X97.671 Y125.471 E2.20337
G1 X97.348 Y124.806 E2.21433
G1 X97.1 Y124.111 E2.22526
G1 X96.927 Y123.393 E2.2362
G1 X96.834 Y122.66 E2.24714
G1 X96.82 Y121.921 E2.25809
G1 X96.886 Y121.186 E2.26902
G1 X97.032 Y120.461 E2.27998
G1 X97.254 Y119.757 E2.29091
G1 X97.552 Y119.081 E2.30186
G1 X97.921 Y118.441 E2.3128
G1 X98.357 Y117.845 E2.32374
G1 X98.601 Y117.562 E2.32927
G1 X101.753 Y114.11 E2.39852
G1 X100.516 Y112.98 E2.42334
G1 X99.998 Y112.453 E2.43429
G1 X99.54 Y111.873 E2.44523
G1 X99.148 Y111.247 E2.45617
G1 X98.825 Y110.583 E2.46711
G1 X98.577 Y109.887 E2.47806
G1 X98.405 Y109.169 E2.48899
G1 X98.311 Y108.436 E2.49994
G1 X98.297 Y107.698 E2.51088
G1 X98.363 Y106.962 E2.52182
G1 X98.509 Y106.238 E2.53276
G1 X98.731 Y105.534 E2.5437
G1 X99.029 Y104.858 E2.55464
G1 X99.398 Y104.218 E2.56558
G1 X99.858 Y103.618 E2.57678
G1 X94.171 Y98.386 E2.69125
G1 X93.655 Y97.857 E2.7022
G1 X93.2 Y97.276 E2.71313
G1 X92.81 Y96.648 E2.72408
G1 X92.49 Y95.983 E2.73502
G1 X92.244 Y95.286 E2.74597
G1 X92.074 Y94.567 E2.75691
G1 X91.983 Y93.834 E2.76785
G1 X91.972 Y93.096 E2.77878
G1 X92.041 Y92.36 E2.78973
G1 X92.189 Y91.637 E2.80067
G1 X92.414 Y90.933 E2.81162
G1 X92.714 Y90.258 E2.82256
G1 X93.085 Y89.619 E2.8335
G1 X93.753 Y88.76 E2.84962
G1 X95.776 Y86.545 E2.89406
M204 S625
M205 X6 Y6
G0 F5000 X96.034 Y86.781
M204 S500
M205 X5 Y5
G1 F1200 X96.548 Y86.278 E2.90471
G1 X97.115 Y85.835 E2.91537
G1 X97.727 Y85.457 E2.92603
G1 X98.377 Y85.149 E2.93668
G1 X99.058 Y84.916 E2.94734
G1 X99.76 Y84.76 E2.958
G1 X100.475 Y84.682 E2.96865
G1 X101.195 Y84.684 E2.97932
G1 X101.909 Y84.766 E2.98996
G1 X102.611 Y84.927 E3.00063
G1 X103.29 Y85.165 E3.01129
G1 X103.938 Y85.476 E3.02194
G1 X104.548 Y85.858 E3.0326
G1 X105.172 Y86.358 E3.04444
G1 X111.117 Y91.766 E3.16349
G1 X111.125 Y91.758 E3.16366
G1 X111.639 Y91.255 E3.17432
G1 X112.206 Y90.812 E3.18497
G1 X112.818 Y90.434 E3.19563
G1 X113.468 Y90.126 E3.20628
G1 X114.149 Y89.893 E3.21695
G1 X114.851 Y89.737 E3.2276
G1 X115.566 Y89.659 E3.23825
G1 X116.286 Y89.661 E3.24892
G1 X117 Y89.743 E3.25957
G1 X117.702 Y89.904 E3.27023
G1 X118.381 Y90.142 E3.28089
G1 X119.029 Y90.453 E3.29154
G1 X119.639 Y90.835 E3.3022
G1 X120.272 Y91.343 E3.31422
G1 X121.767 Y92.708 E3.34421
G1 X125.155 Y88.997 E3.41865
G1 X125.669 Y88.494 E3.4293
G1 X126.236 Y88.05 E3.43997
G1 X126.848 Y87.672 E3.45063
G1 X127.498 Y87.365 E3.46127
G1 X128.179 Y87.131 E3.47194
G1 X128.881 Y86.975 E3.48259
G1 X129.596 Y86.897 E3.49325
G1 X130.316 Y86.899 E3.50391
G1 X131.03 Y86.981 E3.51456
G1 X131.732 Y87.142 E3.52523
G1 X132.411 Y87.379 E3.53588
G1 X133.059 Y87.691 E3.54654
G1 X133.669 Y88.072 E3.55719
G1 X134.303 Y88.581 E3.56923
G1 X136.519 Y90.604 E3.61368
G1 X137.022 Y91.118 E3.62433
G1 X137.466 Y91.684 E3.63499
G1 X137.843 Y92.297 E3.64565
G1 X138.151 Y92.947 E3.65631
G1 X138.385 Y93.627 E3.66696
G1 X138.541 Y94.33 E3.67763
G1 X138.619 Y95.045 E3.68828
G1 X138.617 Y95.764 E3.69893
G1 X138.535 Y96.479 E3.70959
G1 X138.374 Y97.18 E3.72025
G1 X138.137 Y97.859 E3.7309
G1 X137.826 Y98.508 E3.74156
G1 X137.444 Y99.118 E3.75222
G1 X136.935 Y99.752 E3.76427
G1 X133.546 Y103.463 E3.83871
G1 X135.041 Y104.828 E3.8687
G1 X135.545 Y105.342 E3.87936
G1 X135.988 Y105.908 E3.89001
G1 X136.366 Y106.52 E3.90067
G1 X136.674 Y107.171 E3.91134
G1 X136.908 Y107.851 E3.92199
G1 X137.064 Y108.553 E3.93264
G1 X137.142 Y109.269 E3.94331
G1 X137.14 Y109.988 E3.95396
G1 X137.058 Y110.703 E3.96462
G1 X136.897 Y111.404 E3.97528
G1 X136.66 Y112.083 E3.98593
G1 X136.349 Y112.732 E3.99659
G1 X135.967 Y113.342 E4.00725
G1 X135.496 Y113.933 E4.01845
G1 X135.462 Y113.971 E4.0192
G1 X141.385 Y119.422 E4.13844
G1 X141.887 Y119.938 E4.14911
G1 X142.328 Y120.506 E4.15976
G1 X142.704 Y121.12 E4.17042
G1 X143.009 Y121.772 E4.18109
G1 X143.239 Y122.453 E4.19173
G1 X143.393 Y123.156 E4.2024
G1 X143.468 Y123.871 E4.21304
G1 X143.463 Y124.591 E4.22371
G1 X143.379 Y125.305 E4.23436
G1 X143.215 Y126.006 E4.24502
G1 X142.975 Y126.684 E4.25568
G1 X142.661 Y127.331 E4.26633
G1 X142.277 Y127.94 E4.277
G1 X141.782 Y128.554 E4.28868
G1 X139.759 Y130.769 E4.33312
G1 X139.245 Y131.272 E4.34377
G1 X138.678 Y131.715 E4.35443
G1 X138.066 Y132.093 E4.36508
G1 X137.416 Y132.401 E4.37574
G1 X136.735 Y132.634 E4.3864
G1 X136.033 Y132.79 E4.39705
G1 X135.318 Y132.868 E4.40771
G1 X134.598 Y132.866 E4.41837
G1 X133.884 Y132.784 E4.42902
G1 X133.182 Y132.623 E4.43969
G1 X132.503 Y132.385 E4.45035
G1 X131.855 Y132.074 E4.46099
G1 X131.245 Y131.692 E4.47166
G1 X130.631 Y131.2 E4.48331
G1 X124.666 Y125.796 E4.60254
G1 X124.631 Y125.833 E4.6033
G1 X124.113 Y126.332 E4.61395
G1 X123.542 Y126.771 E4.62462
G1 X122.927 Y127.143 E4.63527
G1 X122.274 Y127.445 E4.64593
G1 X121.591 Y127.673 E4.65659
G1 X120.888 Y127.823 E4.66724
G1 X120.172 Y127.895 E4.6779
G1 X119.453 Y127.886 E4.68855
G1 X118.739 Y127.798 E4.69921
G1 X118.039 Y127.632 E4.70986
G1 X117.362 Y127.388 E4.72052
G1 X116.716 Y127.071 E4.73118
G1 X116.109 Y126.685 E4.74184
G1 X115.521 Y126.207 E4.75307
G1 X114.026 Y124.842 E4.78305
G1 X110.638 Y128.553 E4.85749
G1 X110.124 Y129.056 E4.86814
G1 X109.557 Y129.5 E4.87881
G1 X108.945 Y129.878 E4.88947
G1 X108.295 Y130.185 E4.90012
G1 X107.614 Y130.419 E4.91078
G1 X106.912 Y130.575 E4.92143
G1 X106.197 Y130.653 E4.93209
G1 X105.477 Y130.651 E4.94275
G1 X104.763 Y130.569 E4.9534
G1 X104.061 Y130.408 E4.96407
G1 X103.382 Y130.171 E4.97472
G1 X102.734 Y129.859 E4.98538
G1 X102.124 Y129.478 E4.99603
G1 X101.489 Y128.968 E5.0081
G1 X99.274 Y126.945 E5.05253
G1 X98.771 Y126.431 E5.06319
G1 X98.328 Y125.864 E5.07384
G1 X97.95 Y125.252 E5.0845
G1 X97.642 Y124.602 E5.09515
G1 X97.409 Y123.921 E5.10582
G1 X97.253 Y123.219 E5.11647
G1 X97.175 Y122.504 E5.12712
G1 X97.177 Y121.784 E5.13779
G1 X97.259 Y121.07 E5.14844
G1 X97.42 Y120.368 E5.1591
G1 X97.658 Y119.689 E5.16976
G1 X97.969 Y119.041 E5.18041
G1 X98.351 Y118.431 E5.19107
G1 X98.859 Y117.798 E5.20309
G1 X102.248 Y114.087 E5.27754
G1 X100.752 Y112.721 E5.30755
G1 X100.248 Y112.207 E5.31821
G1 X99.805 Y111.641 E5.32886
G1 X99.427 Y111.029 E5.33952
G1 X99.12 Y110.378 E5.35018
G1 X98.886 Y109.698 E5.36083
G1 X98.73 Y108.995 E5.3715
G1 X98.652 Y108.28 E5.38215
G1 X98.654 Y107.561 E5.3928
G1 X98.736 Y106.846 E5.40346
G1 X98.897 Y106.145 E5.41412
G1 X99.134 Y105.466 E5.42477
G1 X99.446 Y104.817 E5.43544
G1 X99.827 Y104.207 E5.44609
G1 X100.297 Y103.617 E5.45727
G1 X100.332 Y103.578 E5.45804
G1 X94.408 Y98.128 E5.57728
G1 X93.907 Y97.612 E5.58794
G1 X93.465 Y97.044 E5.5986
G1 X93.09 Y96.431 E5.60924
G1 X92.785 Y95.779 E5.61991
G1 X92.554 Y95.098 E5.63056
G1 X92.4 Y94.395 E5.64122
G1 X92.325 Y93.679 E5.65189
G1 X92.33 Y92.96 E5.66254
G1 X92.414 Y92.246 E5.67319
G1 X92.578 Y91.545 E5.68385
G1 X92.818 Y90.867 E5.6945
G1 X93.131 Y90.219 E5.70516
G1 X93.515 Y89.611 E5.71582
G1 X94.011 Y88.996 E5.72752
G1 X96.034 Y86.781 E5.77196
M204 S625
M205 X6 Y6
G0 F5000 X96.292 Y87.017
M204 S500
M205 X5 Y5
G1 F1200 X96.793 Y86.529 E5.78232
G1 X97.346 Y86.1 E5.79269
G1 X97.944 Y85.737 E5.80305
G1 X98.58 Y85.445 E5.81342
G1 X99.245 Y85.228 E5.82378
G1 X99.931 Y85.087 E5.83415
G1 X100.628 Y85.026 E5.84452
G1 X101.327 Y85.044 E5.85487
G1 X102.02 Y85.143 E5.86524
G1 X102.697 Y85.319 E5.87561
G1 X103.35 Y85.572 E5.88598
G1 X103.969 Y85.898 E5.89634
G1 X104.547 Y86.291 E5.9067
G1 X104.937 Y86.617 E5.91423
G1 X111.14 Y92.26 E6.03845
G1 X111.383 Y91.994 E6.04378
G1 X111.884 Y91.506 E6.05414
G1 X112.437 Y91.077 E6.06451
G1 X113.035 Y90.714 E6.07487
G1 X113.671 Y90.422 E6.08524
G1 X114.336 Y90.205 E6.0956
G1 X115.022 Y90.064 E6.10598
G1 X115.719 Y90.003 E6.11634
G1 X116.418 Y90.021 E6.1267
G1 X117.111 Y90.12 E6.13707
G1 X117.788 Y90.296 E6.14743
G1 X118.441 Y90.549 E6.15781
G1 X119.06 Y90.875 E6.16817
G1 X119.638 Y91.268 E6.17852
G1 X120.036 Y91.602 E6.18622
G1 X121.789 Y93.203 E6.22139
G1 X125.414 Y89.233 E6.30102
G1 X125.914 Y88.744 E6.31138
G1 X126.467 Y88.316 E6.32174
G1 X127.066 Y87.953 E6.33212
G1 X127.701 Y87.661 E6.34247
G1 X128.366 Y87.443 E6.35284
G1 X129.052 Y87.302 E6.36321
G1 X129.749 Y87.241 E6.37358
G1 X130.448 Y87.259 E6.38393
G1 X131.141 Y87.358 E6.3943
G1 X131.818 Y87.534 E6.40467
G1 X132.471 Y87.787 E6.41504
G1 X133.09 Y88.112 E6.4254
G1 X133.668 Y88.506 E6.43576
G1 X134.067 Y88.839 E6.44346
G1 X136.283 Y90.862 E6.4879
G1 X136.772 Y91.363 E6.49828
G1 X137.2 Y91.916 E6.50863
G1 X137.563 Y92.514 E6.519
G1 X137.855 Y93.15 E6.52936
G1 X138.073 Y93.815 E6.53973
G1 X138.214 Y94.5 E6.55009
G1 X138.275 Y95.197 E6.56045
G1 X138.257 Y95.897 E6.57083
G1 X138.159 Y96.59 E6.5812
G1 X137.982 Y97.267 E6.59156
G1 X137.73 Y97.919 E6.60192
G1 X137.404 Y98.539 E6.61229
G1 X137.01 Y99.117 E6.62265
G1 X136.676 Y99.516 E6.63036
G1 X133.052 Y103.485 E6.70998
G1 X134.805 Y105.086 E6.74515
G1 X135.294 Y105.587 E6.75552
G1 X135.723 Y106.14 E6.76588
G1 X136.086 Y106.738 E6.77625
G1 X136.378 Y107.374 E6.78661
G1 X136.596 Y108.039 E6.79698
G1 X136.737 Y108.724 E6.80734
G1 X136.798 Y109.421 E6.8177
G1 X136.78 Y110.121 E6.82808
G1 X136.682 Y110.814 E6.83844
G1 X136.505 Y111.491 E6.84881
G1 X136.253 Y112.143 E6.85916
G1 X135.927 Y112.763 E6.86954
G1 X135.533 Y113.341 E6.8799
G1 X135.236 Y113.7 E6.88681
G1 X134.971 Y113.996 E6.89269
G1 X141.148 Y119.68 E7.01704
G1 X141.635 Y120.182 E7.0274
G1 X142.062 Y120.737 E7.03777
G1 X142.422 Y121.337 E7.04814
G1 X142.712 Y121.974 E7.0585
G1 X142.927 Y122.639 E7.06886
G1 X143.065 Y123.325 E7.07922
G1 X143.124 Y124.023 E7.0896
G1 X143.103 Y124.722 E7.09996
G1 X143.002 Y125.414 E7.11032
G1 X142.823 Y126.091 E7.12069
G1 X142.567 Y126.742 E7.13105
G1 X142.24 Y127.361 E7.14142
G1 X141.844 Y127.937 E7.15178
G1 X141.524 Y128.318 E7.15915
G1 X139.501 Y130.533 E7.20358
G1 X139 Y131.021 E7.21395
G1 X138.447 Y131.45 E7.22431
G1 X137.849 Y131.813 E7.23468
G1 X137.213 Y132.105 E7.24504
G1 X136.548 Y132.322 E7.2554
G1 X135.862 Y132.463 E7.26578
G1 X135.165 Y132.524 E7.27614
G1 X134.466 Y132.506 E7.2865
G1 X133.773 Y132.407 E7.29687
G1 X133.096 Y132.231 E7.30723
G1 X132.443 Y131.978 E7.31761
G1 X131.824 Y131.652 E7.32797
G1 X131.246 Y131.259 E7.33832
G1 X130.866 Y130.941 E7.34566
G1 X124.644 Y125.304 E7.47003
G1 X124.374 Y125.595 E7.47591
G1 X123.87 Y126.079 E7.48626
G1 X123.313 Y126.503 E7.49663
G1 X122.712 Y126.861 E7.507
G1 X122.073 Y127.148 E7.51737
G1 X121.406 Y127.36 E7.52774
G1 X120.72 Y127.494 E7.53809
G1 X120.022 Y127.55 E7.54847
G1 X119.323 Y127.525 E7.55883
G1 X118.631 Y127.421 E7.56919
G1 X117.956 Y127.238 E7.57955
