;START_OF_HEADER
;HEADER_VERSION:0.1
;FLAVOR:Griffin
;GENERATOR.NAME:Cura_SteamEngine
;GENERATOR.VERSION:3.2.0
;GENERATOR.BUILD_DATE:2018-02-06
;TARGET_MACHINE.NAME:Ultimaker 3
;EXTRUDER_TRAIN.0.INITIAL_TEMPERATURE:200
;EXTRUDER_TRAIN.0.MATERIAL.VOLUME_USED:727
;EXTRUDER_TRAIN.0.MATERIAL.GUID:506c9f0d-e3aa-4bd4-b2d2-23e2425b1aa9
;EXTRUDER_TRAIN.0.NOZZLE.DIAMETER:0.4
;EXTRUDER_TRAIN.0.NOZZLE.NAME:AA 0.4
;BUILD_PLATE.INITIAL_TEMPERATURE:60
;PRINT.TIME:467
;PRINT.SIZE.MIN.X:9
;PRINT.SIZE.MIN.Y:6
;PRINT.SIZE.MIN.Z:0.27
;PRINT.SIZE.MAX.X:136.427
;PRINT.SIZE.MAX.Y:157.787
;PRINT.SIZE.MAX.Z:2
;END_OF_HEADER
;Generated with Cura_SteamEngine 3.2.0
T0
M82 ;absolute extrusion mode

G92 E0
M109 S200
G0 F15000 X9 Y6 Z2
G280
G1 F1500 E-6.5
;LAYER_COUNT:3
;LAYER:0
M107
M204 S625
M205 X6 Y6
G0 F5000 X102.393 Y75.443 Z0.27
M204 S500
M205 X5 Y5
;TYPE:SKIRT
G1 F1500 E0
G1 F1200 X102.871 Y74.88 E0.01094
G1 X103.407 Y74.372 E0.02188
G1 X103.995 Y73.925 E0.03282
G1 X104.628 Y73.544 E0.04377
G1 X105.298 Y73.233 E0.05471
G1 X105.998 Y72.997 E0.06565
G1 X106.719 Y72.838 E0.07659
G1 X107.454 Y72.757 E0.08754
G1 X107.828 Y72.747 E0.09308
G1 X109.328 Y72.747 E0.1153
G1 X110.066 Y72.787 E0.12625
G1 X110.794 Y72.906 E0.13718
G1 X111.506 Y73.104 E0.14813
G1 X112.192 Y73.377 E0.15906
G1 X112.845 Y73.723 E0.17001
G1 X113.457 Y74.137 E0.18096
G1 X114.02 Y74.615 E0.1919
G1 X114.528 Y75.151 E0.20283
G1 X114.975 Y75.739 E0.21378
G1 X115.356 Y76.372 E0.22472
G1 X115.667 Y77.042 E0.23566
G1 X115.903 Y77.742 E0.24661
G1 X116.062 Y78.463 E0.25754
G1 X116.143 Y79.198 E0.2685
G1 X116.153 Y79.572 E0.27404
G1 X116.153 Y89.572 E0.42217
G1 X116.113 Y90.31 E0.43312
G1 X115.994 Y91.038 E0.44405
G1 X115.796 Y91.75 E0.45499
G1 X115.523 Y92.436 E0.46593
G1 X115.177 Y93.089 E0.47688
G1 X114.763 Y93.701 E0.48782
G1 X114.285 Y94.264 E0.49876
G1 X113.749 Y94.772 E0.5097
G1 X113.161 Y95.219 E0.52064
G1 X112.528 Y95.6 E0.53159
G1 X111.858 Y95.911 E0.54253
G1 X111.158 Y96.147 E0.55347
G1 X110.437 Y96.306 E0.56441
G1 X109.702 Y96.387 E0.57536
G1 X109.328 Y96.397 E0.58091
G1 X107.828 Y96.397 E0.60313
G1 X107.09 Y96.357 E0.61407
G1 X106.362 Y96.238 E0.625
G1 X105.65 Y96.04 E0.63595
G1 X104.964 Y95.767 E0.64689
G1 X104.311 Y95.421 E0.65783
G1 X103.699 Y95.007 E0.66878
G1 X103.136 Y94.529 E0.67972
G1 X102.628 Y93.993 E0.69066
G1 X102.181 Y93.405 E0.7016
G1 X101.8 Y92.772 E0.71254
G1 X101.489 Y92.102 E0.72349
G1 X101.253 Y91.402 E0.73443
G1 X101.094 Y90.681 E0.74537
G1 X101.013 Y89.946 E0.75632
G1 X101.003 Y89.572 E0.76186
G1 X101.003 Y79.572 E0.91
G1 X101.043 Y78.834 E0.92094
G1 X101.162 Y78.106 E0.93187
G1 X101.36 Y77.394 E0.94282
G1 X101.633 Y76.708 E0.95375
G1 X101.979 Y76.055 E0.9647
G1 X102.393 Y75.443 E0.97565
M204 S625
M205 X6 Y6
G0 F5000 X102.741 Y75.566
M204 S500
M205 X5 Y5
G1 F1200 X103.217 Y75.027 E0.9863
G1 X103.749 Y74.543 E0.99695
G1 X104.332 Y74.122 E1.00761
G1 X104.959 Y73.768 E1.01827
G1 X105.62 Y73.485 E1.02892
G1 X106.309 Y73.278 E1.03958
G1 X107.017 Y73.148 E1.05024
G1 X107.828 Y73.097 E1.06228
G1 X109.328 Y73.097 E1.0845
G1 X110.046 Y73.137 E1.09515
G1 X110.756 Y73.256 E1.10582
G1 X111.448 Y73.454 E1.11648
G1 X112.113 Y73.727 E1.12713
G1 X112.745 Y74.072 E1.13779
G1 X113.334 Y74.485 E1.14845
G1 X113.873 Y74.961 E1.1591
G1 X114.357 Y75.493 E1.16976
G1 X114.778 Y76.076 E1.18041
G1 X115.132 Y76.703 E1.19108
G1 X115.415 Y77.364 E1.20173
G1 X115.622 Y78.053 E1.21238
G1 X115.752 Y78.761 E1.22305
G1 X115.803 Y79.572 E1.23508
G1 X115.803 Y89.572 E1.38322
G1 X115.763 Y90.29 E1.39387
G1 X115.644 Y91 E1.40453
G1 X115.446 Y91.692 E1.4152
G1 X115.173 Y92.357 E1.42584
G1 X114.828 Y92.989 E1.43651
G1 X114.415 Y93.578 E1.44717
G1 X113.939 Y94.117 E1.45782
G1 X113.407 Y94.601 E1.46847
G1 X112.824 Y95.022 E1.47913
G1 X112.197 Y95.376 E1.48979
G1 X111.536 Y95.659 E1.50044
G1 X110.847 Y95.866 E1.5111
G1 X110.139 Y95.996 E1.52176
G1 X109.328 Y96.047 E1.5338
G1 X107.828 Y96.047 E1.55602
G1 X107.11 Y96.007 E1.56667
G1 X106.4 Y95.888 E1.57734
G1 X105.708 Y95.69 E1.588
G1 X105.043 Y95.417 E1.59865
G1 X104.411 Y95.072 E1.60931
G1 X103.822 Y94.659 E1.61997
G1 X103.283 Y94.183 E1.63062
G1 X102.799 Y93.651 E1.64128
G1 X102.378 Y93.068 E1.65193
G1 X102.024 Y92.441 E1.6626
G1 X101.741 Y91.78 E1.67325
G1 X101.534 Y91.091 E1.6839
G1 X101.404 Y90.383 E1.69457
G1 X101.353 Y89.572 E1.7066
G1 X101.353 Y79.572 E1.85474
G1 X101.393 Y78.854 E1.86539
G1 X101.512 Y78.144 E1.87605
G1 X101.71 Y77.452 E1.88672
G1 X101.983 Y76.787 E1.89736
G1 X102.328 Y76.155 E1.90803
G1 X102.741 Y75.566 E1.91869
M204 S625
M205 X6 Y6
G0 F5000 X103.088 Y75.693
M204 S500
M205 X5 Y5
G1 F1200 X103.561 Y75.178 E1.92904
G1 X104.09 Y74.72 E1.93941
G1 X104.668 Y74.325 E1.94978
G1 X105.287 Y73.999 E1.96014
G1 X105.939 Y73.745 E1.97051
G1 X106.616 Y73.568 E1.98087
G1 X107.309 Y73.469 E1.99124
G1 X107.828 Y73.447 E1.99894
G1 X109.328 Y73.447 E2.02116
G1 X110.027 Y73.487 E2.03153
G1 X110.716 Y73.606 E2.04189
G1 X111.387 Y73.804 E2.05225
G1 X112.032 Y74.076 E2.06262
G1 X112.641 Y74.42 E2.07298
G1 X113.207 Y74.832 E2.08335
G1 X113.722 Y75.305 E2.09371
G1 X114.18 Y75.834 E2.10408
G1 X114.575 Y76.412 E2.11445
G1 X114.901 Y77.031 E2.12481
G1 X115.155 Y77.683 E2.13518
G1 X115.332 Y78.36 E2.14554
G1 X115.431 Y79.053 E2.15591
G1 X115.453 Y79.572 E2.16361
G1 X115.453 Y89.572 E2.31174
G1 X115.413 Y90.271 E2.32211
G1 X115.294 Y90.96 E2.33247
G1 X115.096 Y91.631 E2.34283
G1 X114.824 Y92.276 E2.3532
G1 X114.48 Y92.885 E2.36356
G1 X114.068 Y93.451 E2.37393
G1 X113.595 Y93.966 E2.38429
G1 X113.066 Y94.424 E2.39466
G1 X112.488 Y94.819 E2.40503
G1 X111.869 Y95.145 E2.41539
G1 X111.217 Y95.399 E2.42575
G1 X110.54 Y95.576 E2.43612
G1 X109.847 Y95.675 E2.44649
G1 X109.328 Y95.697 E2.45419
G1 X107.828 Y95.697 E2.47641
G1 X107.129 Y95.657 E2.48678
G1 X106.44 Y95.538 E2.49713
G1 X105.769 Y95.34 E2.5075
G1 X105.124 Y95.068 E2.51787
G1 X104.515 Y94.724 E2.52823
G1 X103.949 Y94.312 E2.5386
G1 X103.434 Y93.839 E2.54896
G1 X102.976 Y93.31 E2.55932
G1 X102.581 Y92.732 E2.56969
G1 X102.255 Y92.113 E2.58006
G1 X102.001 Y91.461 E2.59042
G1 X101.824 Y90.784 E2.60079
G1 X101.725 Y90.091 E2.61116
G1 X101.703 Y89.572 E2.61885
G1 X101.703 Y79.572 E2.76698
G1 X101.743 Y78.873 E2.77736
G1 X101.862 Y78.184 E2.78771
G1 X102.06 Y77.513 E2.79808
G1 X102.332 Y76.868 E2.80845
G1 X102.676 Y76.259 E2.81881
G1 X103.088 Y75.693 E2.82918
M204 S625
M205 X6 Y6
G0 F5000 X103.435 Y75.824
M204 S500
M205 X5 Y5
G1 F1200 X103.905 Y75.334 E2.83924
G1 X104.43 Y74.903 E2.8493
G1 X105.002 Y74.536 E2.85937
G1 X105.613 Y74.239 E2.86943
G1 X106.255 Y74.015 E2.8795
G1 X106.918 Y73.869 E2.88956
G1 X107.828 Y73.797 E2.90308
G1 X109.328 Y73.797 E2.9253
G1 X110.006 Y73.837 E2.93536
G1 X110.675 Y73.956 E2.94543
G1 X111.325 Y74.153 E2.95549
G1 X111.948 Y74.425 E2.96556
G1 X112.534 Y74.769 E2.97562
G1 X113.076 Y75.179 E2.98569
G1 X113.566 Y75.649 E2.99575
G1 X113.997 Y76.174 E3.00581
G1 X114.364 Y76.746 E3.01588
G1 X114.661 Y77.357 E3.02594
G1 X114.885 Y77.999 E3.03601
G1 X115.031 Y78.662 E3.04607
G1 X115.103 Y79.572 E3.05959
G1 X115.103 Y89.572 E3.20773
G1 X115.063 Y90.25 E3.21779
G1 X114.944 Y90.919 E3.22785
G1 X114.747 Y91.569 E3.23791
G1 X114.475 Y92.192 E3.24798
G1 X114.131 Y92.778 E3.25805
G1 X113.721 Y93.32 E3.26812
G1 X113.251 Y93.81 E3.27817
G1 X112.726 Y94.241 E3.28824
G1 X112.154 Y94.608 E3.2983
G1 X111.543 Y94.905 E3.30837
G1 X110.901 Y95.129 E3.31844
G1 X110.238 Y95.275 E3.3285
G1 X109.328 Y95.347 E3.34202
G1 X107.828 Y95.347 E3.36424
G1 X107.15 Y95.307 E3.3743
G1 X106.481 Y95.188 E3.38436
G1 X105.831 Y94.991 E3.39443
G1 X105.208 Y94.719 E3.4045
G1 X104.622 Y94.375 E3.41456
G1 X104.08 Y93.965 E3.42463
G1 X103.59 Y93.495 E3.43469
G1 X103.159 Y92.97 E3.44475
G1 X102.792 Y92.398 E3.45482
G1 X102.495 Y91.787 E3.46488
G1 X102.271 Y91.145 E3.47495
G1 X102.125 Y90.482 E3.48501
G1 X102.053 Y89.572 E3.49853
G1 X102.053 Y79.572 E3.64666
G1 X102.093 Y78.894 E3.65672
G1 X102.212 Y78.225 E3.66679
G1 X102.409 Y77.575 E3.67685
G1 X102.681 Y76.952 E3.68692
G1 X103.025 Y76.366 E3.69699
G1 X103.435 Y75.824 E3.70705
M204 S625
M205 X6 Y6
G0 F5000 X103.373 Y76.476
M204 S500
M205 X5 Y5
G1 F1200 X103.781 Y75.959 E3.71681
G1 X104.248 Y75.496 E3.72655
G1 X104.769 Y75.092 E3.73632
G1 X105.334 Y74.754 E3.74607
G1 X105.936 Y74.488 E3.75582
G1 X106.566 Y74.296 E3.76558
G1 X107.214 Y74.182 E3.77532
G1 X107.828 Y74.147 E3.78443
G1 X109.328 Y74.147 E3.80665
G1 X109.985 Y74.187 E3.8164
G1 X110.633 Y74.306 E3.82616
G1 X111.261 Y74.503 E3.83591
G1 X111.861 Y74.775 E3.84567
G1 X112.424 Y75.117 E3.85543
G1 X112.941 Y75.525 E3.86519
G1 X113.404 Y75.992 E3.87493
G1 X113.808 Y76.513 E3.88469
G1 X114.146 Y77.078 E3.89445
G1 X114.412 Y77.68 E3.9042
G1 X114.604 Y78.31 E3.91395
G1 X114.718 Y78.958 E3.9237
G1 X114.753 Y79.572 E3.93281
G1 X114.753 Y89.572 E4.08094
G1 X114.713 Y90.229 E4.09069
G1 X114.594 Y90.877 E4.10045
G1 X114.397 Y91.505 E4.1102
G1 X114.125 Y92.105 E4.11996
G1 X113.783 Y92.668 E4.12972
G1 X113.375 Y93.185 E4.13947
G1 X112.908 Y93.648 E4.14921
G1 X112.387 Y94.052 E4.15898
G1 X111.822 Y94.39 E4.16873
G1 X111.22 Y94.656 E4.17848
G1 X110.59 Y94.848 E4.18824
G1 X109.942 Y94.962 E4.19799
G1 X109.328 Y94.997 E4.2071
G1 X107.828 Y94.997 E4.22932
G1 X107.171 Y94.957 E4.23907
G1 X106.523 Y94.838 E4.24883
G1 X105.895 Y94.641 E4.25858
G1 X105.295 Y94.369 E4.26833
G1 X104.732 Y94.027 E4.27809
G1 X104.215 Y93.619 E4.28785
G1 X103.752 Y93.152 E4.29759
G1 X103.348 Y92.631 E4.30736
G1 X103.01 Y92.066 E4.31711
G1 X102.744 Y91.464 E4.32686
G1 X102.552 Y90.834 E4.33661
G1 X102.438 Y90.186 E4.34636
G1 X102.403 Y89.572 E4.35547
G1 X102.403 Y79.572 E4.5036
G1 X102.443 Y78.915 E4.51335
G1 X102.562 Y78.267 E4.52311
G1 X102.759 Y77.639 E4.53286
G1 X103.031 Y77.039 E4.54262
G1 X103.373 Y76.476 E4.55238
M204 S625
M205 X6 Y6
G0 F5000 X103.721 Y76.591
M204 S500
M205 X5 Y5
G1 F1200 X104.127 Y76.1 E4.56182
G1 X104.591 Y75.664 E4.57125
G1 X105.106 Y75.289 E4.58069
G1 X105.663 Y74.982 E4.59011
G1 X106.255 Y74.747 E4.59954
G1 X106.872 Y74.588 E4.60898
G1 X107.504 Y74.507 E4.61842
G1 X107.828 Y74.497 E4.62322
G1 X109.328 Y74.497 E4.64544
G1 X109.964 Y74.537 E4.65488
G1 X110.589 Y74.656 E4.66431
G1 X111.195 Y74.853 E4.67375
G1 X111.771 Y75.124 E4.68318
G1 X112.309 Y75.465 E4.69261
G1 X112.8 Y75.871 E4.70205
G1 X113.236 Y76.335 E4.71148
G1 X113.611 Y76.85 E4.72092
G1 X113.918 Y77.407 E4.73034
G1 X114.153 Y77.999 E4.73977
G1 X114.312 Y78.616 E4.74921
G1 X114.393 Y79.248 E4.75865
G1 X114.403 Y79.572 E4.76345
G1 X114.403 Y89.572 E4.91159
G1 X114.363 Y90.208 E4.92103
G1 X114.244 Y90.833 E4.93045
G1 X114.047 Y91.439 E4.93989
G1 X113.776 Y92.015 E4.94932
G1 X113.435 Y92.553 E4.95876
G1 X113.029 Y93.044 E4.96819
G1 X112.565 Y93.48 E4.97762
G1 X112.05 Y93.855 E4.98706
G1 X111.493 Y94.162 E4.99648
G1 X110.901 Y94.397 E5.00592
G1 X110.284 Y94.556 E5.01536
G1 X109.652 Y94.637 E5.0248
G1 X109.328 Y94.647 E5.0296
G1 X107.828 Y94.647 E5.05182
G1 X107.192 Y94.607 E5.06126
G1 X106.567 Y94.488 E5.07068
G1 X105.961 Y94.291 E5.08012
G1 X105.385 Y94.02 E5.08955
G1 X104.847 Y93.679 E5.09899
G1 X104.356 Y93.273 E5.10842
G1 X103.92 Y92.809 E5.11786
G1 X103.545 Y92.294 E5.12729
G1 X103.238 Y91.737 E5.13671
G1 X103.003 Y91.145 E5.14615
G1 X102.844 Y90.528 E5.15559
G1 X102.763 Y89.896 E5.16503
G1 X102.753 Y89.572 E5.16983
G1 X102.753 Y79.572 E5.31796
G1 X102.793 Y78.936 E5.3274
G1 X102.912 Y78.311 E5.33683
G1 X103.109 Y77.705 E5.34626
G1 X103.38 Y77.129 E5.35569
G1 X103.721 Y76.591 E5.36513
M204 S625
M205 X6 Y6
G0 F5000 X104.069 Y76.71
M204 S500
M205 X5 Y5
G1 F1200 X104.472 Y76.246 E5.37423
G1 X104.932 Y75.839 E5.38333
G1 X105.441 Y75.494 E5.39244
G1 X105.99 Y75.219 E5.40154
G1 X106.571 Y75.017 E5.41065
G1 X107.172 Y74.893 E5.41974
G1 X107.828 Y74.847 E5.42948
G1 X109.328 Y74.847 E5.4517
G1 X109.941 Y74.887 E5.4608
G1 X110.544 Y75.006 E5.4699
G1 X111.126 Y75.203 E5.47901
G1 X111.678 Y75.473 E5.48811
G1 X112.19 Y75.813 E5.49721
G1 X112.654 Y76.216 E5.50632
G1 X113.061 Y76.676 E5.51542
G1 X113.406 Y77.185 E5.52452
G1 X113.681 Y77.734 E5.53362
G1 X113.883 Y78.315 E5.54273
G1 X114.007 Y78.916 E5.55182
G1 X114.053 Y79.572 E5.56156
G1 X114.053 Y89.572 E5.7097
G1 X114.013 Y90.185 E5.7188
G1 X113.894 Y90.788 E5.7279
G1 X113.697 Y91.37 E5.737
G1 X113.427 Y91.922 E5.74611
G1 X113.087 Y92.434 E5.75521
G1 X112.684 Y92.898 E5.76431
G1 X112.224 Y93.305 E5.77341
G1 X111.715 Y93.65 E5.78252
G1 X111.166 Y93.925 E5.79162
G1 X110.585 Y94.127 E5.80073
G1 X109.984 Y94.251 E5.80982
G1 X109.328 Y94.297 E5.81956
G1 X107.828 Y94.297 E5.84178
G1 X107.215 Y94.257 E5.85088
G1 X106.612 Y94.138 E5.85999
G1 X106.03 Y93.941 E5.86909
G1 X105.478 Y93.671 E5.87819
G1 X104.966 Y93.331 E5.88729
G1 X104.502 Y92.928 E5.8964
G1 X104.095 Y92.468 E5.9055
G1 X103.75 Y91.959 E5.91461
G1 X103.475 Y91.41 E5.9237
G1 X103.273 Y90.829 E5.93281
G1 X103.149 Y90.228 E5.9419
G1 X103.103 Y89.572 E5.95165
G1 X103.103 Y79.572 E6.09978
G1 X103.143 Y78.959 E6.10888
G1 X103.262 Y78.356 E6.11798
G1 X103.459 Y77.774 E6.12708
G1 X103.729 Y77.222 E6.13619
G1 X104.069 Y76.71 E6.14529
M204 S625
M205 X6 Y6
G0 F5000 X104.416 Y76.834
M204 S500
M205 X5 Y5
G1 F1200 X104.816 Y76.399 E6.15405
G1 X105.272 Y76.022 E6.16281
G1 X105.774 Y75.709 E6.17157
G1 X106.313 Y75.468 E6.18032
G1 X106.881 Y75.301 E6.18909
G1 X107.465 Y75.212 E6.19784
G1 X107.828 Y75.197 E6.20322
G1 X109.328 Y75.197 E6.22544
G1 X109.918 Y75.237 E6.2342
G1 X110.497 Y75.356 E6.24296
G1 X111.055 Y75.552 E6.25172
G1 X111.581 Y75.822 E6.26048
G1 X112.066 Y76.16 E6.26923
G1 X112.501 Y76.56 E6.27799
G1 X112.878 Y77.016 E6.28675
G1 X113.191 Y77.518 E6.29552
G1 X113.432 Y78.057 E6.30426
G1 X113.599 Y78.625 E6.31303
G1 X113.688 Y79.209 E6.32178
G1 X113.703 Y79.572 E6.32717
G1 X113.703 Y89.572 E6.4753
G1 X113.663 Y90.162 E6.48406
G1 X113.544 Y90.741 E6.49281
G1 X113.348 Y91.299 E6.50158
G1 X113.078 Y91.825 E6.51033
G1 X112.74 Y92.31 E6.51909
G1 X112.34 Y92.745 E6.52785
G1 X111.884 Y93.122 E6.53661
G1 X111.382 Y93.435 E6.54537
G1 X110.843 Y93.676 E6.55412
G1 X110.275 Y93.843 E6.56289
G1 X109.691 Y93.932 E6.57164
G1 X109.328 Y93.947 E6.57702
G1 X107.828 Y93.947 E6.59924
G1 X107.238 Y93.907 E6.608
G1 X106.659 Y93.788 E6.61676
G1 X106.101 Y93.592 E6.62552
G1 X105.575 Y93.322 E6.63428
G1 X105.09 Y92.984 E6.64303
G1 X104.655 Y92.584 E6.65179
G1 X104.278 Y92.128 E6.66055
G1 X103.965 Y91.626 E6.66932
G1 X103.724 Y91.087 E6.67806
G1 X103.557 Y90.519 E6.68683
G1 X103.468 Y89.935 E6.69558
G1 X103.453 Y89.572 E6.70097
G1 X103.453 Y79.572 E6.8491
G1 X103.493 Y78.982 E6.85786
G1 X103.612 Y78.403 E6.86661
G1 X103.808 Y77.845 E6.87538
G1 X104.078 Y77.319 E6.88413
G1 X104.416 Y76.834 E6.89289
M204 S625
M205 X6 Y6
G0 F5000 X104.763 Y76.964
M204 S500
M205 X5 Y5
G1 F1200 X105.16 Y76.559 E6.90129
G1 X105.61 Y76.213 E6.9097
G1 X106.104 Y75.935 E6.9181
G1 X106.632 Y75.729 E6.92649
G1 X107.184 Y75.599 E6.93489
G1 X107.828 Y75.547 E6.94446
G1 X109.328 Y75.547 E6.96668
G1 X109.894 Y75.587 E6.97509
G1 X110.448 Y75.706 E6.98348
G1 X110.98 Y75.902 E6.99188
G1 X111.48 Y76.17 E7.00029
G1 X111.936 Y76.507 E7.00868
G1 X112.341 Y76.904 E7.01709
G1 X112.687 Y77.354 E7.02549
G1 X112.965 Y77.848 E7.03389
G1 X113.171 Y78.376 E7.04229
G1 X113.301 Y78.928 E7.05069
G1 X113.353 Y79.572 E7.06026
G1 X113.353 Y89.572 E7.20839
G1 X113.313 Y90.138 E7.2168
G1 X113.194 Y90.692 E7.22519
G1 X112.998 Y91.224 E7.23359
G1 X112.73 Y91.724 E7.24199
G1 X112.393 Y92.18 E7.25039
G1 X111.996 Y92.585 E7.25879
G1 X111.546 Y92.931 E7.2672
G1 X111.052 Y93.209 E7.2756
G1 X110.524 Y93.415 E7.28399
G1 X109.972 Y93.545 E7.29239
G1 X109.328 Y93.597 E7.30197
