;START_OF_HEADER
;HEADER_VERSION:0.1
;FLAVOR:Griffin
;GENERATOR.NAME:Cura_SteamEngine
;GENERATOR.VERSION:3.2.0
;GENERATOR.BUILD_DATE:2018-02-06
;TARGET_MACHINE.NAME:Ultimaker 3
;EXTRUDER_TRAIN.0.INITIAL_TEMPERATURE:200
;EXTRUDER_TRAIN.0.MATERIAL.VOLUME_USED:727
;EXTRUDER_TRAIN.0.MATERIAL.GUID:506c9f0d-e3aa-4bd4-b2d2-23e2425b1aa9
;EXTRUDER_TRAIN.0.NOZZLE.DIAMETER:0.4
;EXTRUDER_TRAIN.0.NOZZLE.NAME:AA 0.4
;BUILD_PLATE.INITIAL_TEMPERATURE:60
;PRINT.TIME:465
;PRINT.SIZE.MIN.X:9
;PRINT.SIZE.MIN.Y:6
;PRINT.SIZE.MIN.Z:0.27
;PRINT.SIZE.MAX.X:166.69
;PRINT.SIZE.MAX.Y:157.616
;PRINT.SIZE.MAX.Z:2
;END_OF_HEADER
;Generated with Cura_SteamEngine 3.2.0
T0
M82 ;absolute extrusion mode

G92 E0
M109 S200
G0 F15000 X9 Y6 Z2
G280
G1 F1500 E-6.5
;LAYER_COUNT:3
;LAYER:0
M107
M204 S625
M205 X6 Y6
G0 F5000 X117.248 Y75.617 Z0.27
M204 S500
M205 X5 Y5
;TYPE:SKIRT
G1 F1500 E0
G1 F1200 X117.662 Y75.005 E0.01095
G1 X118.14 Y74.442 E0.02189
G1 X118.676 Y73.934 E0.03282
G1 X119.264 Y73.487 E0.04377
G1 X119.897 Y73.106 E0.05471
G1 X120.567 Y72.795 E0.06565
G1 X121.267 Y72.559 E0.0766
G1 X121.988 Y72.4 E0.08753
G1 X122.723 Y72.319 E0.09849
G1 X123.097 Y72.309 E0.10403
G1 X124.597 Y72.309 E0.12625
G1 X125.335 Y72.349 E0.1372
G1 X126.063 Y72.468 E0.14812
G1 X126.775 Y72.666 E0.15907
G1 X127.461 Y72.939 E0.17001
G1 X128.114 Y73.285 E0.18096
G1 X128.726 Y73.699 E0.1919
G1 X129.289 Y74.177 E0.20284
G1 X129.797 Y74.713 E0.21378
G1 X130.244 Y75.301 E0.22472
G1 X130.625 Y75.934 E0.23567
G1 X130.936 Y76.604 E0.24661
G1 X131.172 Y77.304 E0.25755
G1 X131.331 Y78.025 E0.26849
G1 X131.412 Y78.76 E0.27944
G1 X131.422 Y79.134 E0.28498
G1 X131.422 Y89.134 E0.43312
G1 X131.382 Y89.872 E0.44406
G1 X131.263 Y90.6 E0.45499
G1 X131.065 Y91.312 E0.46594
G1 X130.792 Y91.998 E0.47688
G1 X130.446 Y92.651 E0.48782
G1 X130.032 Y93.263 E0.49877
G1 X129.554 Y93.826 E0.50971
G1 X129.018 Y94.334 E0.52065
G1 X128.43 Y94.781 E0.53159
G1 X127.797 Y95.162 E0.54253
G1 X127.127 Y95.473 E0.55348
G1 X126.427 Y95.709 E0.56442
G1 X125.706 Y95.868 E0.57536
G1 X124.971 Y95.949 E0.58631
G1 X124.597 Y95.959 E0.59185
G1 X123.097 Y95.959 E0.61407
G1 X122.359 Y95.919 E0.62502
G1 X121.631 Y95.8 E0.63595
G1 X120.919 Y95.602 E0.64689
G1 X120.233 Y95.329 E0.65783
G1 X119.58 Y94.983 E0.66878
G1 X118.968 Y94.569 E0.67972
G1 X118.405 Y94.091 E0.69066
G1 X117.897 Y93.555 E0.7016
G1 X117.45 Y92.967 E0.71255
G1 X117.069 Y92.334 E0.72349
G1 X116.758 Y91.664 E0.73443
G1 X116.522 Y90.964 E0.74537
G1 X116.363 Y90.243 E0.75631
G1 X116.282 Y89.508 E0.76726
G1 X116.272 Y89.134 E0.77281
G1 X116.272 Y79.134 E0.92094
G1 X116.312 Y78.396 E0.93189
G1 X116.431 Y77.668 E0.94282
G1 X116.629 Y76.956 E0.95376
G1 X116.902 Y76.27 E0.9647
G1 X117.248 Y75.617 E0.97565
M204 S625
M205 X6 Y6
G0 F5000 X117.597 Y75.717
M204 S500
M205 X5 Y5
G1 F1200 X118.01 Y75.128 E0.9863
G1 X118.486 Y74.589 E0.99696
G1 X119.018 Y74.105 E1.00761
G1 X119.601 Y73.684 E1.01826
G1 X120.228 Y73.33 E1.02893
G1 X120.889 Y73.047 E1.03958
G1 X121.578 Y72.84 E1.05024
G1 X122.286 Y72.71 E1.0609
G1 X123.097 Y72.659 E1.07294
G1 X124.597 Y72.659 E1.09516
G1 X125.315 Y72.699 E1.10581
G1 X126.025 Y72.818 E1.11647
G1 X126.717 Y73.016 E1.12714
G1 X127.382 Y73.289 E1.13778
G1 X128.014 Y73.634 E1.14845
G1 X128.603 Y74.047 E1.15911
G1 X129.142 Y74.523 E1.16976
G1 X129.626 Y75.055 E1.18041
G1 X130.047 Y75.638 E1.19107
G1 X130.401 Y76.265 E1.20173
G1 X130.684 Y76.926 E1.21238
G1 X130.891 Y77.615 E1.22304
G1 X131.021 Y78.323 E1.2337
G1 X131.072 Y79.134 E1.24574
G1 X131.072 Y89.134 E1.39387
G1 X131.032 Y89.852 E1.40453
G1 X130.913 Y90.562 E1.41519
G1 X130.715 Y91.254 E1.42585
G1 X130.442 Y91.919 E1.4365
G1 X130.097 Y92.551 E1.44717
G1 X129.684 Y93.14 E1.45782
G1 X129.208 Y93.679 E1.46848
G1 X128.676 Y94.163 E1.47913
G1 X128.093 Y94.584 E1.48978
G1 X127.466 Y94.938 E1.50045
G1 X126.805 Y95.221 E1.5111
G1 X126.116 Y95.428 E1.52176
G1 X125.408 Y95.558 E1.53242
G1 X124.597 Y95.609 E1.54446
G1 X123.097 Y95.609 E1.56668
G1 X122.379 Y95.569 E1.57733
G1 X121.669 Y95.45 E1.58799
G1 X120.977 Y95.252 E1.59866
G1 X120.312 Y94.979 E1.6093
G1 X119.68 Y94.634 E1.61997
G1 X119.091 Y94.221 E1.63063
G1 X118.552 Y93.745 E1.64128
G1 X118.068 Y93.213 E1.65193
G1 X117.647 Y92.63 E1.66259
G1 X117.293 Y92.003 E1.67325
G1 X117.01 Y91.342 E1.6839
G1 X116.803 Y90.653 E1.69456
G1 X116.673 Y89.945 E1.70522
G1 X116.622 Y89.134 E1.71726
G1 X116.622 Y79.134 E1.86539
G1 X116.662 Y78.416 E1.87605
G1 X116.781 Y77.706 E1.88671
G1 X116.979 Y77.014 E1.89737
G1 X117.252 Y76.349 E1.90802
G1 X117.597 Y75.717 E1.91869
M204 S625
M205 X6 Y6
G0 F5000 X117.945 Y75.821
M204 S500
M205 X5 Y5
G1 F1200 X118.357 Y75.255 E1.92906
G1 X118.83 Y74.74 E1.93942
G1 X119.359 Y74.282 E1.94978
G1 X119.937 Y73.887 E1.96015
G1 X120.556 Y73.561 E1.97051
G1 X121.208 Y73.307 E1.98088
G1 X121.885 Y73.13 E1.99125
G1 X122.578 Y73.031 E2.00162
G1 X123.097 Y73.009 E2.00931
G1 X124.597 Y73.009 E2.03153
G1 X125.296 Y73.049 E2.0419
G1 X125.985 Y73.168 E2.05226
G1 X126.656 Y73.366 E2.06262
G1 X127.301 Y73.638 E2.07299
G1 X127.91 Y73.982 E2.08335
G1 X128.476 Y74.394 E2.09372
G1 X128.991 Y74.867 E2.10408
G1 X129.449 Y75.396 E2.11445
G1 X129.844 Y75.974 E2.12482
G1 X130.17 Y76.593 E2.13518
G1 X130.424 Y77.245 E2.14555
G1 X130.601 Y77.922 E2.15591
G1 X130.7 Y78.615 E2.16628
G1 X130.722 Y79.134 E2.17398
G1 X130.722 Y89.134 E2.32211
G1 X130.682 Y89.833 E2.33248
G1 X130.563 Y90.522 E2.34284
G1 X130.365 Y91.193 E2.3532
G1 X130.093 Y91.838 E2.36357
G1 X129.749 Y92.447 E2.37393
G1 X129.337 Y93.013 E2.3843
G1 X128.864 Y93.528 E2.39466
G1 X128.335 Y93.986 E2.40503
G1 X127.757 Y94.381 E2.4154
G1 X127.138 Y94.707 E2.42576
G1 X126.486 Y94.961 E2.43613
G1 X125.809 Y95.138 E2.44649
G1 X125.116 Y95.237 E2.45686
G1 X124.597 Y95.259 E2.46456
G1 X123.097 Y95.259 E2.48678
G1 X122.398 Y95.219 E2.49715
G1 X121.709 Y95.1 E2.5075
G1 X121.038 Y94.902 E2.51787
G1 X120.393 Y94.63 E2.52824
G1 X119.784 Y94.286 E2.5386
G1 X119.218 Y93.874 E2.54897
G1 X118.703 Y93.401 E2.55933
G1 X118.245 Y92.872 E2.56969
G1 X117.85 Y92.294 E2.58006
G1 X117.524 Y91.675 E2.59043
G1 X117.27 Y91.023 E2.60079
G1 X117.093 Y90.346 E2.61116
G1 X116.994 Y89.653 E2.62153
G1 X116.972 Y89.134 E2.62922
G1 X116.972 Y79.134 E2.77736
G1 X117.012 Y78.435 E2.78773
G1 X117.131 Y77.746 E2.79808
G1 X117.329 Y77.075 E2.80845
G1 X117.601 Y76.43 E2.81882
G1 X117.945 Y75.821 E2.82918
M204 S625
M205 X6 Y6
G0 F5000 X118.294 Y75.928
M204 S500
M205 X5 Y5
G1 F1200 X118.704 Y75.386 E2.83925
G1 X119.174 Y74.896 E2.8493
G1 X119.699 Y74.465 E2.85937
G1 X120.271 Y74.098 E2.86943
G1 X120.882 Y73.801 E2.8795
G1 X121.524 Y73.577 E2.88957
G1 X122.187 Y73.431 E2.89962
G1 X123.097 Y73.359 E2.91315
G1 X124.597 Y73.359 E2.93537
G1 X125.275 Y73.399 E2.94543
G1 X125.944 Y73.518 E2.95549
G1 X126.594 Y73.715 E2.96555
G1 X127.217 Y73.987 E2.97562
G1 X127.803 Y74.331 E2.98569
G1 X128.345 Y74.741 E2.99576
G1 X128.835 Y75.211 E3.00582
G1 X129.266 Y75.736 E3.01588
G1 X129.633 Y76.308 E3.02594
G1 X129.93 Y76.919 E3.03601
G1 X130.154 Y77.561 E3.04608
G1 X130.3 Y78.224 E3.05614
G1 X130.372 Y79.134 E3.06966
G1 X130.372 Y89.134 E3.21779
G1 X130.332 Y89.812 E3.22785
G1 X130.213 Y90.481 E3.23792
G1 X130.016 Y91.131 E3.24798
G1 X129.744 Y91.754 E3.25805
G1 X129.4 Y92.34 E3.26812
G1 X128.99 Y92.882 E3.27818
G1 X128.52 Y93.372 E3.28824
G1 X127.995 Y93.803 E3.2983
G1 X127.423 Y94.17 E3.30837
G1 X126.812 Y94.467 E3.31843
G1 X126.17 Y94.691 E3.32851
G1 X125.507 Y94.837 E3.33856
G1 X124.597 Y94.909 E3.35209
G1 X123.097 Y94.909 E3.37431
G1 X122.419 Y94.869 E3.38437
G1 X121.75 Y94.75 E3.39443
G1 X121.1 Y94.553 E3.40449
G1 X120.477 Y94.281 E3.41456
G1 X119.891 Y93.937 E3.42463
G1 X119.349 Y93.527 E3.4347
G1 X118.859 Y93.057 E3.44475
G1 X118.428 Y92.532 E3.45482
G1 X118.061 Y91.96 E3.46488
G1 X117.764 Y91.349 E3.47495
G1 X117.54 Y90.707 E3.48502
G1 X117.394 Y90.044 E3.49508
G1 X117.322 Y89.134 E3.5086
G1 X117.322 Y79.134 E3.65673
G1 X117.362 Y78.456 E3.66679
G1 X117.481 Y77.787 E3.67686
G1 X117.678 Y77.137 E3.68692
G1 X117.95 Y76.514 E3.69699
G1 X118.294 Y75.928 E3.70705
M204 S625
M205 X6 Y6
G0 F5000 X118.3 Y76.601
M204 S500
M205 X5 Y5
G1 F1200 X118.642 Y76.038 E3.71681
G1 X119.05 Y75.521 E3.72657
G1 X119.517 Y75.058 E3.73631
G1 X120.038 Y74.654 E3.74608
G1 X120.603 Y74.316 E3.75583
G1 X121.205 Y74.05 E3.76558
G1 X121.835 Y73.858 E3.77533
G1 X122.483 Y73.744 E3.78508
G1 X123.097 Y73.709 E3.79419
G1 X124.597 Y73.709 E3.81641
G1 X125.254 Y73.749 E3.82616
G1 X125.902 Y73.868 E3.83592
G1 X126.53 Y74.065 E3.84567
G1 X127.13 Y74.337 E3.85543
G1 X127.693 Y74.679 E3.86519
G1 X128.21 Y75.087 E3.87494
G1 X128.673 Y75.554 E3.88468
G1 X129.077 Y76.075 E3.89445
G1 X129.415 Y76.64 E3.9042
G1 X129.681 Y77.242 E3.91395
G1 X129.873 Y77.872 E3.92371
G1 X129.987 Y78.52 E3.93346
G1 X130.022 Y79.134 E3.94257
G1 X130.022 Y89.134 E4.0907
G1 X129.982 Y89.791 E4.10045
G1 X129.863 Y90.439 E4.11021
G1 X129.666 Y91.067 E4.11996
G1 X129.394 Y91.667 E4.12972
G1 X129.052 Y92.23 E4.13948
G1 X128.644 Y92.747 E4.14923
G1 X128.177 Y93.21 E4.15897
G1 X127.656 Y93.614 E4.16874
G1 X127.091 Y93.952 E4.17849
G1 X126.489 Y94.218 E4.18824
G1 X125.859 Y94.41 E4.198
G1 X125.211 Y94.524 E4.20774
G1 X124.597 Y94.559 E4.21685
G1 X123.097 Y94.559 E4.23907
G1 X122.44 Y94.519 E4.24882
G1 X121.792 Y94.4 E4.25858
G1 X121.164 Y94.203 E4.26833
G1 X120.564 Y93.931 E4.27809
G1 X120.001 Y93.589 E4.28785
G1 X119.484 Y93.181 E4.29761
G1 X119.021 Y92.714 E4.30735
G1 X118.617 Y92.193 E4.31711
G1 X118.279 Y91.628 E4.32687
G1 X118.013 Y91.026 E4.33662
G1 X117.821 Y90.396 E4.34637
G1 X117.707 Y89.748 E4.35612
G1 X117.672 Y89.134 E4.36523
G1 X117.672 Y79.134 E4.51336
G1 X117.712 Y78.477 E4.52311
G1 X117.831 Y77.829 E4.53287
G1 X118.028 Y77.201 E4.54262
G1 X118.3 Y76.601 E4.55238
M204 S625
M205 X6 Y6
G0 F5000 X118.649 Y76.691
M204 S500
M205 X5 Y5
G1 F1200 X118.99 Y76.153 E4.56182
G1 X119.396 Y75.662 E4.57125
G1 X119.86 Y75.226 E4.58069
G1 X120.375 Y74.851 E4.59012
G1 X120.932 Y74.544 E4.59954
G1 X121.524 Y74.309 E4.60898
G1 X122.141 Y74.15 E4.61842
G1 X122.773 Y74.069 E4.62786
G1 X123.097 Y74.059 E4.63266
G1 X124.597 Y74.059 E4.65488
G1 X125.233 Y74.099 E4.66432
G1 X125.858 Y74.218 E4.67374
G1 X126.464 Y74.415 E4.68318
G1 X127.04 Y74.686 E4.69261
G1 X127.578 Y75.027 E4.70205
G1 X128.069 Y75.433 E4.71148
G1 X128.505 Y75.897 E4.72092
G1 X128.88 Y76.412 E4.73035
G1 X129.187 Y76.969 E4.73977
G1 X129.422 Y77.561 E4.74921
G1 X129.581 Y78.178 E4.75865
G1 X129.662 Y78.81 E4.76809
G1 X129.672 Y79.134 E4.77289
G1 X129.672 Y89.134 E4.92102
G1 X129.632 Y89.77 E4.93046
G1 X129.513 Y90.395 E4.93989
G1 X129.316 Y91.001 E4.94933
G1 X129.045 Y91.577 E4.95876
G1 X128.704 Y92.115 E4.96819
G1 X128.298 Y92.606 E4.97763
G1 X127.834 Y93.042 E4.98706
G1 X127.319 Y93.417 E4.9965
G1 X126.762 Y93.724 E5.00592
G1 X126.17 Y93.959 E5.01535
G1 X125.553 Y94.118 E5.02479
G1 X124.921 Y94.199 E5.03423
G1 X124.597 Y94.209 E5.03903
G1 X123.097 Y94.209 E5.06125
G1 X122.461 Y94.169 E5.07069
G1 X121.836 Y94.05 E5.08012
G1 X121.23 Y93.853 E5.08956
G1 X120.654 Y93.582 E5.09899
G1 X120.116 Y93.241 E5.10842
G1 X119.625 Y92.835 E5.11786
G1 X119.189 Y92.371 E5.12729
G1 X118.814 Y91.856 E5.13673
G1 X118.507 Y91.299 E5.14615
G1 X118.272 Y90.707 E5.15558
G1 X118.113 Y90.09 E5.16502
G1 X118.032 Y89.458 E5.17446
G1 X118.022 Y89.134 E5.17926
G1 X118.022 Y79.134 E5.3274
G1 X118.062 Y78.498 E5.33684
G1 X118.181 Y77.873 E5.34626
G1 X118.378 Y77.267 E5.3557
G1 X118.649 Y76.691 E5.36513
M204 S625
M205 X6 Y6
G0 F5000 X118.998 Y76.784
M204 S500
M205 X5 Y5
G1 F1200 X119.338 Y76.272 E5.37423
G1 X119.741 Y75.808 E5.38334
G1 X120.201 Y75.401 E5.39244
G1 X120.71 Y75.056 E5.40155
G1 X121.259 Y74.781 E5.41064
G1 X121.84 Y74.579 E5.41975
G1 X122.441 Y74.455 E5.42884
G1 X123.097 Y74.409 E5.43858
G1 X124.597 Y74.409 E5.4608
G1 X125.21 Y74.449 E5.4699
G1 X125.813 Y74.568 E5.47901
G1 X126.395 Y74.765 E5.48811
G1 X126.947 Y75.035 E5.49721
G1 X127.459 Y75.375 E5.50632
G1 X127.923 Y75.778 E5.51542
G1 X128.33 Y76.238 E5.52452
G1 X128.675 Y76.747 E5.53363
G1 X128.95 Y77.296 E5.54272
G1 X129.152 Y77.877 E5.55184
G1 X129.276 Y78.478 E5.56093
G1 X129.322 Y79.134 E5.57067
G1 X129.322 Y89.134 E5.7188
G1 X129.282 Y89.747 E5.7279
G1 X129.163 Y90.35 E5.73701
G1 X128.966 Y90.932 E5.74611
G1 X128.696 Y91.484 E5.75521
G1 X128.356 Y91.996 E5.76432
G1 X127.953 Y92.46 E5.77342
G1 X127.493 Y92.867 E5.78252
G1 X126.984 Y93.212 E5.79163
G1 X126.435 Y93.487 E5.80072
G1 X125.854 Y93.689 E5.80983
G1 X125.253 Y93.813 E5.81892
G1 X124.597 Y93.859 E5.82867
G1 X123.097 Y93.859 E5.85089
G1 X122.484 Y93.819 E5.85999
G1 X121.881 Y93.7 E5.86909
G1 X121.299 Y93.503 E5.87819
G1 X120.747 Y93.233 E5.88729
G1 X120.235 Y92.893 E5.8964
G1 X119.771 Y92.49 E5.9055
G1 X119.364 Y92.03 E5.9146
G1 X119.019 Y91.521 E5.92371
G1 X118.744 Y90.972 E5.93281
G1 X118.542 Y90.391 E5.94192
G1 X118.418 Y89.79 E5.95101
G1 X118.372 Y89.134 E5.96075
G1 X118.372 Y79.134 E6.10888
G1 X118.412 Y78.521 E6.11798
G1 X118.531 Y77.918 E6.12709
G1 X118.728 Y77.336 E6.13619
G1 X118.998 Y76.784 E6.14529
M204 S625
M205 X6 Y6
G0 F5000 X119.347 Y76.881
M204 S500
M205 X5 Y5
G1 F1200 X119.685 Y76.396 E6.15405
G1 X120.085 Y75.961 E6.1628
G1 X120.541 Y75.584 E6.17157
G1 X121.043 Y75.271 E6.18033
G1 X121.582 Y75.03 E6.18908
G1 X122.15 Y74.863 E6.19785
G1 X122.734 Y74.774 E6.2066
G1 X123.097 Y74.759 E6.21198
G1 X124.597 Y74.759 E6.2342
G1 X125.187 Y74.799 E6.24296
G1 X125.766 Y74.918 E6.25172
G1 X126.324 Y75.114 E6.26048
G1 X126.85 Y75.384 E6.26923
G1 X127.335 Y75.722 E6.27799
G1 X127.77 Y76.122 E6.28675
G1 X128.147 Y76.578 E6.29551
G1 X128.46 Y77.08 E6.30427
G1 X128.701 Y77.619 E6.31302
G1 X128.868 Y78.187 E6.32179
G1 X128.957 Y78.771 E6.33054
G1 X128.972 Y79.134 E6.33592
G1 X128.972 Y89.134 E6.48406
G1 X128.932 Y89.724 E6.49282
G1 X128.813 Y90.303 E6.50157
G1 X128.617 Y90.861 E6.51033
G1 X128.347 Y91.387 E6.51909
G1 X128.009 Y91.872 E6.52785
G1 X127.609 Y92.307 E6.5366
G1 X127.153 Y92.684 E6.54537
G1 X126.651 Y92.997 E6.55413
G1 X126.112 Y93.238 E6.56288
G1 X125.544 Y93.405 E6.57165
G1 X124.96 Y93.494 E6.5804
G1 X124.597 Y93.509 E6.58578
G1 X123.097 Y93.509 E6.608
G1 X122.507 Y93.469 E6.61676
G1 X121.928 Y93.35 E6.62552
G1 X121.37 Y93.154 E6.63428
G1 X120.844 Y92.884 E6.64303
G1 X120.359 Y92.546 E6.65179
G1 X119.924 Y92.146 E6.66055
G1 X119.547 Y91.69 E6.66931
G1 X119.234 Y91.188 E6.67807
G1 X118.993 Y90.649 E6.68682
G1 X118.826 Y90.081 E6.69559
G1 X118.737 Y89.497 E6.70434
G1 X118.722 Y89.134 E6.70972
G1 X118.722 Y79.134 E6.85786
G1 X118.762 Y78.544 E6.86662
G1 X118.881 Y77.965 E6.87537
G1 X119.077 Y77.407 E6.88413
G1 X119.347 Y76.881 E6.89289
M204 S625
M205 X6 Y6
G0 F5000 X119.695 Y76.982
M204 S500
M205 X5 Y5
G1 F1200 X120.032 Y76.526 E6.90129
G1 X120.429 Y76.121 E6.90969
G1 X120.879 Y75.775 E6.9181
G1 X121.373 Y75.497 E6.9265
G1 X121.901 Y75.291 E6.93489
G1 X122.453 Y75.161 E6.94329
G1 X123.097 Y75.109 E6.95286
G1 X124.597 Y75.109 E6.97508
G1 X125.163 Y75.149 E6.98349
G1 X125.717 Y75.268 E6.99188
G1 X126.249 Y75.464 E7.00028
G1 X126.749 Y75.732 E7.00868
G1 X127.205 Y76.069 E7.01708
G1 X127.61 Y76.466 E7.02549
G1 X127.956 Y76.916 E7.03389
G1 X128.234 Y77.41 E7.04229
G1 X128.44 Y77.938 E7.05069
G1 X128.57 Y78.49 E7.05909
G1 X128.622 Y79.134 E7.06866
G1 X128.622 Y89.134 E7.21679
G1 X128.582 Y89.7 E7.2252
G1 X128.463 Y90.254 E7.23359
G1 X128.267 Y90.786 E7.24199
G1 X127.999 Y91.286 E7.25039
G1 X127.662 Y91.742 E7.25879
G1 X127.265 Y92.147 E7.26719
G1 X126.815 Y92.493 E7.2756
G1 X126.321 Y92.771 E7.284
G1 X125.793 Y92.977 E7.29239
G1 X125.241 Y93.107 E7.30079
G1 X124.597 Y93.159 E7.31037
