;START_OF_HEADER
;HEADER_VERSION:0.1
;FLAVOR:Griffin
;GENERATOR.NAME:Cura_SteamEngine
;GENERATOR.VERSION:3.2.0
;GENERATOR.BUILD_DATE:2018-02-06
;TARGET_MACHINE.NAME:Ultimaker 3
;EXTRUDER_TRAIN.0.INITIAL_TEMPERATURE:200
;EXTRUDER_TRAIN.0.MATERIAL.VOLUME_USED:594
;EXTRUDER_TRAIN.0.MATERIAL.GUID:506c9f0d-e3aa-4bd4-b2d2-23e2425b1aa9
;EXTRUDER_TRAIN.0.NOZZLE.DIAMETER:0.4
;EXTRUDER_TRAIN.0.NOZZLE.NAME:AA 0.4
;BUILD_PLATE.INITIAL_TEMPERATURE:60
;PRINT.TIME:472
;PRINT.SIZE.MIN.X:9
;PRINT.SIZE.MIN.Y:6
;PRINT.SIZE.MIN.Z:0.27
;PRINT.SIZE.MAX.X:138.225
;PRINT.SIZE.MAX.Y:139.287
;PRINT.SIZE.MAX.Z:2.27
;END_OF_HEADER
;Generated with Cura_SteamEngine 3.2.0
T0
M82 ;absolute extrusion mode

G92 E0
M109 S200
G0 F15000 X9 Y6 Z2
G280
G1 F1500 E-6.5
;LAYER_COUNT:4
;LAYER:0
M107
M204 S625
M205 X6 Y6
G0 F5000 X115.325 Y109.387 Z0.27
M204 S500
M205 X5 Y5
;TYPE:SKIRT
G1 F1500 E0
G1 F1200 X115.325 Y115.737 E0.09406
G1 X117.675 Y115.737 E0.12888
G1 X117.675 Y109.387 E0.22294
G1 X117.25 Y109.387 E0.22924
G1 X116.512 Y109.347 E0.24018
G1 X116.465 Y109.339 E0.24089
G1 X116.124 Y109.377 E0.24597
G1 X115.75 Y109.387 E0.25152
G1 X115.325 Y109.387 E0.25781
M204 S625
M205 X6 Y6
G0 F5000 X114.975 Y109.037
M204 S500
M205 X5 Y5
G1 F1200 X114.975 Y116.087 E0.36224
G1 X118.025 Y116.087 E0.40743
G1 X118.025 Y109.037 E0.51186
G1 X117.25 Y109.037 E0.52334
G1 X116.532 Y108.997 E0.53399
G1 X116.492 Y108.99 E0.53459
G1 X115.75 Y109.037 E0.54561
G1 X114.975 Y109.037 E0.55709
M204 S625
M205 X6 Y6
G0 F5000 X115.75 Y108.687
M204 S500
M205 X5 Y5
G1 F1200 X114.625 Y108.687 E0.57375
G1 X114.625 Y116.437 E0.68856
G1 X118.375 Y116.437 E0.74411
G1 X118.375 Y108.687 E0.85891
G1 X117.25 Y108.687 E0.87557
G1 X116.551 Y108.647 E0.88595
G1 X116.48 Y108.635 E0.88701
G1 X116.269 Y108.665 E0.89017
G1 X115.75 Y108.687 E0.89786
M204 S625
M205 X6 Y6
G0 F5000 X115.75 Y108.337
M204 S500
M205 X5 Y5
G1 F1200 X114.275 Y108.337 E0.91971
G1 X114.275 Y116.787 E1.04489
G1 X118.725 Y116.787 E1.11081
G1 X118.725 Y108.337 E1.23598
G1 X117.25 Y108.337 E1.25783
G1 X116.572 Y108.297 E1.26789
G1 X116.475 Y108.28 E1.26935
G1 X115.75 Y108.337 E1.28012
M204 S625
M205 X6 Y6
G0 F5000 X115.75 Y107.987
M204 S500
M205 X5 Y5
G1 F1200 X113.925 Y107.987 E1.30715
G1 X113.925 Y117.137 E1.4427
G1 X119.075 Y117.137 E1.51898
G1 X119.075 Y107.987 E1.65453
G1 X117.25 Y107.987 E1.68156
G1 X116.593 Y107.947 E1.69131
G1 X116.495 Y107.929 E1.69279
G1 X116.364 Y107.952 E1.69476
G1 X115.75 Y107.987 E1.70387
M204 S625
M205 X6 Y6
G0 F5000 X115.75 Y107.637
M204 S500
M205 X5 Y5
G1 F1200 X113.575 Y107.637 E1.73609
G1 X113.575 Y117.487 E1.882
G1 X119.425 Y117.487 E1.96866
G1 X119.425 Y107.637 E2.11457
G1 X117.25 Y107.637 E2.14679
G1 X116.614 Y107.597 E2.15623
G1 X116.491 Y107.574 E2.15808
G1 X116.074 Y107.627 E2.16431
G1 X115.75 Y107.637 E2.16911
M204 S625
M205 X6 Y6
G0 F5000 X115.75 Y107.287
M204 S500
M205 X5 Y5
G1 F1200 X113.225 Y107.287 E2.20651
G1 X113.225 Y117.837 E2.36279
G1 X119.775 Y117.837 E2.45982
G1 X119.775 Y107.287 E2.6161
G1 X117.25 Y107.287 E2.6535
G1 X116.637 Y107.247 E2.6626
G1 X116.504 Y107.221 E2.66461
G1 X116.406 Y107.241 E2.66609
G1 X115.75 Y107.287 E2.67583
M204 S625
M205 X6 Y6
G0 F5000 X115.75 Y106.937
M204 S500
M205 X5 Y5
G1 F1200 X112.875 Y106.937 E2.71842
G1 X112.875 Y118.187 E2.88507
G1 X120.125 Y118.187 E2.99247
G1 X120.125 Y106.937 E3.15912
G1 X117.25 Y106.937 E3.20171
G1 X116.66 Y106.897 E3.21047
G1 X116.497 Y106.863 E3.21293
G1 X116.113 Y106.922 E3.21869
G1 X115.75 Y106.937 E3.22407
M204 S625
M205 X6 Y6
G0 F5000 X115.75 Y106.587
M204 S500
M205 X5 Y5
G1 F1200 X112.525 Y106.587 E3.27184
G1 X112.525 Y118.537 E3.44886
G1 X120.475 Y118.537 E3.56663
G1 X120.475 Y106.587 E3.74365
G1 X117.25 Y106.587 E3.79142
G1 X116.684 Y106.547 E3.79982
G1 X116.506 Y106.509 E3.80252
G1 X116.394 Y106.535 E3.80422
G1 X115.75 Y106.587 E3.81379
M204 S625
M205 X6 Y6
G0 F5000 X115.75 Y106.237
M204 S500
M205 X5 Y5
G1 F1200 X112.175 Y106.237 E3.86675
G1 X112.175 Y118.887 E4.05414
G1 X120.825 Y118.887 E4.18228
G1 X120.825 Y106.237 E4.36966
G1 X117.25 Y106.237 E4.42262
G1 X116.71 Y106.197 E4.43064
G1 X116.505 Y106.151 E4.43376
G1 X116.099 Y106.22 E4.43986
G1 X115.75 Y106.237 E4.44503
M204 S625
M205 X6 Y6
G0 F5000 X115.75 Y105.887
M204 S500
M205 X5 Y5
G1 F1200 X111.825 Y105.887 E4.50317
G1 X111.825 Y119.237 E4.70093
G1 X121.175 Y119.237 E4.83944
G1 X121.175 Y105.887 E5.03719
G1 X117.25 Y105.887 E5.09534
G1 X116.736 Y105.847 E5.10297
G1 X116.503 Y105.792 E5.10652
G1 X116.327 Y105.837 E5.10921
G1 X115.75 Y105.887 E5.11779
M204 S625
M205 X6 Y6
G0 F5000 X115.75 Y105.537
M204 S500
M205 X5 Y5
G1 F1200 X111.475 Y105.537 E5.18112
G1 X111.475 Y119.587 E5.38924
G1 X121.525 Y119.587 E5.53812
G1 X121.525 Y105.537 E5.74624
G1 X117.25 Y105.537 E5.80957
G1 X116.764 Y105.497 E5.8168
G1 X116.519 Y105.435 E5.82054
G1 X116.511 Y105.438 E5.82067
G1 X116.031 Y105.524 E5.82789
G1 X115.75 Y105.537 E5.83206
M204 S625
M205 X6 Y6
G0 F5000 X115.75 Y105.187
M204 S500
M205 X5 Y5
G1 F1200 X111.125 Y105.187 E5.90057
G1 X111.125 Y119.937 E6.11906
G1 X121.875 Y119.937 E6.27831
G1 X121.875 Y105.187 E6.4968
G1 X117.25 Y105.187 E6.56531
G1 X116.794 Y105.147 E6.5721
G1 X116.499 Y105.068 E6.57662
G1 X116.204 Y105.147 E6.58114
G1 X115.75 Y105.187 E6.58789
M204 S625
M205 X6 Y6
G0 F5000 X115.75 Y104.837
M204 S500
M205 X5 Y5
G1 F1200 X110.775 Y104.837 E6.66159
G1 X110.775 Y120.287 E6.89046
G1 X122.225 Y120.287 E7.06007
G1 X122.225 Y104.837 E7.28893
G1 X117.25 Y104.837 E7.36263
G1 X116.826 Y104.797 E7.36894
G1 X116.494 Y104.702 E7.37406
G1 X116.33 Y104.762 E7.37664
G1 X115.75 Y104.837 E7.38531
M204 S625
M205 X6 Y6
G0 F5000 X115.75 Y104.487
M204 S500
M205 X5 Y5
G1 F1200 X110.425 Y104.487 E7.46419
G1 X110.425 Y120.637 E7.70342
G1 X122.575 Y120.637 E7.8834
G1 X122.575 Y104.487 E8.12264
G1 X117.25 Y104.487 E8.20152
G1 X116.86 Y104.447 E8.20733
G1 X116.491 Y104.331 E8.21306
G1 X116.405 Y104.372 E8.21447
G1 X116.025 Y104.467 E8.22027
G1 X115.75 Y104.487 E8.22435
M204 S625
M205 X6 Y6
G0 F5000 X115.75 Y104.137
M204 S500
M205 X5 Y5
G1 F1200 X110.075 Y104.137 E8.30842
G1 X110.075 Y120.987 E8.55802
G1 X122.925 Y120.987 E8.74838
G1 X122.925 Y104.137 E8.99798
G1 X117.25 Y104.137 E9.08205
G1 X116.898 Y104.097 E9.08729
G1 X116.564 Y103.98 E9.09254
G1 X116.5 Y103.939 E9.09366
G1 X116.426 Y103.985 E9.09495
G1 X116.09 Y104.1 E9.10021
G1 X115.75 Y104.137 E9.10528
M204 S625
M205 X6 Y6
G0 F5000 X115.75 Y103.787
M204 S500
M205 X5 Y5
G1 F1200 X109.725 Y103.787 E9.19453
G1 X109.725 Y121.337 E9.4545
G1 X123.275 Y121.337 E9.65522
G1 X123.275 Y103.787 E9.9152
G1 X117.25 Y103.787 E10.00445
G1 X116.94 Y103.747 E10.00908
G1 X116.65 Y103.63 E10.01371
G1 X116.5 Y103.518 E10.01648
G1 X116.388 Y103.608 E10.01861
G1 X116.103 Y103.735 E10.02323
G1 X115.75 Y103.787 E10.02852
M204 S625
M205 X6 Y6
G0 F5000 X115.75 Y103.437
M204 S500
M205 X5 Y5
G1 F1200 X109.375 Y103.437 E10.12295
G1 X109.375 Y121.687 E10.3933
G1 X123.625 Y121.687 E10.60439
G1 X123.625 Y103.437 E10.87473
G1 X117.25 Y103.437 E10.96916
G1 X116.989 Y103.397 E10.97308
G1 X116.752 Y103.282 E10.97698
G1 X116.56 Y103.1 E10.9809
G1 X116.501 Y102.995 E10.98268
G1 X116.47 Y103.06 E10.98375
G1 X116.288 Y103.252 E10.98767
G1 X116.058 Y103.381 E10.99157
G1 X115.75 Y103.437 E10.99621
M204 S625
M205 X6 Y6
G0 F5000 X115.75 Y103.087
M204 S500
M205 X5 Y5
G1 F1200 X109.025 Y103.087 E11.09583
G1 X109.025 Y122.037 E11.37654
G1 X123.975 Y122.037 E11.598
G1 X123.975 Y103.087 E11.87871
G1 X117.25 Y103.087 E11.97833
G1 X117.05 Y103.047 E11.98135
G1 X116.88 Y102.935 E11.98437
G1 X116.766 Y102.765 E11.9874
G1 X116.725 Y102.562 E11.99047
G1 X116.725 Y92.662 E12.13712
G1 X116.765 Y92.462 E12.14014
G1 X116.877 Y92.292 E12.14316
G1 X117.047 Y92.178 E12.14619
G1 X117.25 Y92.137 E12.14926
G1 X122.615 Y92.137 E12.22873
G1 X122.815 Y92.177 E12.23175
G1 X123.046 Y92.362 E12.23614
G1 X131.831 Y104.965 E12.46371
G1 X131.913 Y105.152 E12.46673
G1 X131.925 Y105.265 E12.46842
G1 X131.925 Y119.858 E12.68459
G1 X131.885 Y120.058 E12.68761
G1 X131.831 Y120.158 E12.68929
G1 X123.046 Y132.762 E12.91688
G1 X122.899 Y132.904 E12.9199
G1 X122.615 Y132.987 E12.92429
G1 X110.385 Y132.987 E13.10545
G1 X110.185 Y132.947 E13.10848
G1 X109.954 Y132.762 E13.11286
G1 X101.169 Y120.158 E13.34044
G1 X101.087 Y119.971 E13.34347
G1 X101.075 Y119.858 E13.34515
G1 X101.075 Y105.265 E13.56132
G1 X101.115 Y105.065 E13.56434
G1 X101.169 Y104.965 E13.56603
G1 X109.954 Y92.362 E13.7936
G1 X110.101 Y92.22 E13.79663
G1 X110.385 Y92.137 E13.80101
G1 X115.75 Y92.137 E13.88048
G1 X115.95 Y92.177 E13.8835
G1 X116.12 Y92.289 E13.88652
G1 X116.234 Y92.459 E13.88955
G1 X116.275 Y92.662 E13.89262
G1 X116.275 Y102.562 E14.03927
G1 X116.235 Y102.762 E14.04229
G1 X116.123 Y102.932 E14.04531
G1 X115.953 Y103.046 E14.04834
G1 X115.75 Y103.087 E14.05141
M204 S625
M205 X6 Y6
G0 F5000 X115.75 Y102.737
M204 S500
M205 X5 Y5
G1 F1200 X108.675 Y102.737 E14.15621
G1 X108.675 Y122.387 E14.4473
G1 X124.325 Y122.387 E14.67912
G1 X124.325 Y102.737 E14.9702
G1 X117.25 Y102.737 E15.07501
G1 X117.14 Y102.698 E15.07674
G1 X117.075 Y102.562 E15.07897
G1 X117.075 Y92.662 E15.22562
G1 X117.114 Y92.552 E15.22735
G1 X117.25 Y92.487 E15.22958
G1 X122.615 Y92.487 E15.30906
G1 X122.759 Y92.562 E15.31146
G1 X131.544 Y105.165 E15.53904
G1 X131.575 Y105.265 E15.54059
G1 X131.575 Y119.858 E15.75676
G1 X131.544 Y119.958 E15.75831
G1 X122.759 Y132.562 E15.98589
G1 X122.615 Y132.637 E15.9883
G1 X110.385 Y132.637 E16.16946
G1 X110.241 Y132.562 E16.17187
G1 X101.456 Y119.958 E16.39945
G1 X101.425 Y119.858 E16.401
G1 X101.425 Y105.265 E16.61717
G1 X101.456 Y105.165 E16.61873
G1 X110.241 Y92.562 E16.8463
G1 X110.385 Y92.487 E16.8487
G1 X115.75 Y92.487 E16.92818
G1 X115.86 Y92.526 E16.92991
G1 X115.925 Y92.662 E16.93214
G1 X115.925 Y102.562 E17.07879
G1 X115.886 Y102.672 E17.08052
G1 X115.75 Y102.737 E17.08275
M204 S625
M205 X6 Y6
G1 F1500 E10.58275
G1 F2400 Z2.27
G0 F5000 X100.882 Y104.765 Z2.27
M204 S500
M205 X5 Y5
G1 F2400 Z0.27
G1 F1500 E17.08275
G1 F1200 X109.667 Y92.162 E17.31032
G1 X109.849 Y91.97 E17.31424
G1 X110.079 Y91.842 E17.31814
G1 X110.385 Y91.787 E17.32275
G1 X115.75 Y91.787 E17.40222
G1 X116.011 Y91.827 E17.40613
G1 X116.248 Y91.942 E17.41003
G1 X116.44 Y92.124 E17.41395
G1 X116.499 Y92.229 E17.41574
G1 X116.53 Y92.164 E17.4168
G1 X116.712 Y91.972 E17.42072
G1 X116.942 Y91.843 E17.42463
G1 X117.25 Y91.787 E17.42927
G1 X122.615 Y91.787 E17.50874
G1 X122.876 Y91.827 E17.51265
G1 X123.113 Y91.942 E17.51655
G1 X123.333 Y92.162 E17.52116
G1 X132.118 Y104.765 E17.74873
G1 X132.234 Y105.001 E17.75263
G1 X132.275 Y105.265 E17.75659
G1 X132.275 Y119.858 E17.97276
G1 X132.235 Y120.119 E17.97667
G1 X132.118 Y120.358 E17.98061
G1 X123.333 Y132.962 E18.2082
G1 X123.151 Y133.154 E18.21211
G1 X122.921 Y133.282 E18.21601
G1 X122.615 Y133.337 E18.22062
G1 X110.385 Y133.337 E18.40179
G1 X110.124 Y133.297 E18.4057
G1 X109.887 Y133.182 E18.4096
G1 X109.667 Y132.962 E18.41421
G1 X100.882 Y120.358 E18.64179
G1 X100.766 Y120.122 E18.64569
G1 X100.725 Y119.858 E18.64965
G1 X100.725 Y105.265 E18.86582
G1 X100.765 Y105.004 E18.86973
G1 X100.882 Y104.765 E18.87367
M204 S625
M205 X6 Y6
G0 F5000 X100.595 Y104.564
M204 S500
M205 X5 Y5
G1 F1200 X109.38 Y91.961 E19.10124
G1 X109.59 Y91.73 E19.10587
G1 X109.852 Y91.559 E19.1105
G1 X110.148 Y91.46 E19.11512
G1 X110.385 Y91.437 E19.11865
G1 X115.75 Y91.437 E19.19813
G1 X116.06 Y91.477 E19.20276
G1 X116.35 Y91.594 E19.20739
G1 X116.5 Y91.706 E19.21016
G1 X116.612 Y91.616 E19.21229
G1 X116.897 Y91.489 E19.21691
G1 X117.25 Y91.437 E19.2222
G1 X122.615 Y91.437 E19.30167
G1 X122.925 Y91.477 E19.3063
G1 X123.215 Y91.594 E19.31093
G1 X123.465 Y91.78 E19.31555
G1 X123.62 Y91.961 E19.31908
G1 X132.405 Y104.564 E19.54665
G1 X132.549 Y104.841 E19.55128
G1 X132.625 Y105.265 E19.55766
G1 X132.625 Y119.858 E19.77383
G1 X132.585 Y120.168 E19.77846
G1 X132.405 Y120.558 E19.78482
G1 X123.62 Y133.162 E20.0124
G1 X123.41 Y133.394 E20.01704
G1 X123.149 Y133.565 E20.02166
G1 X122.852 Y133.664 E20.0263
G1 X122.615 Y133.687 E20.02983
G1 X110.385 Y133.687 E20.21099
G1 X110.075 Y133.647 E20.21562
G1 X109.785 Y133.53 E20.22026
G1 X109.535 Y133.344 E20.22487
G1 X109.38 Y133.162 E20.22841
G1 X100.595 Y120.558 E20.456
G1 X100.451 Y120.281 E20.46062
G1 X100.375 Y119.858 E20.46699
G1 X100.375 Y105.265 E20.68316
G1 X100.415 Y104.955 E20.68779
G1 X100.595 Y104.564 E20.69417
M204 S625
M205 X6 Y6
G0 F5000 X100.308 Y104.364
M204 S500
M205 X5 Y5
G1 F1200 X109.093 Y91.761 E20.92174
G1 X109.327 Y91.495 E20.92699
G1 X109.615 Y91.288 E20.93224
G1 X109.941 Y91.151 E20.93748
G1 X110.385 Y91.087 E20.94412
G1 X115.75 Y91.087 E21.0236
G1 X116.102 Y91.127 E21.02884
G1 X116.436 Y91.244 E21.03409
G1 X116.5 Y91.285 E21.03521
G1 X116.574 Y91.239 E21.0365
G1 X116.91 Y91.124 E21.04176
G1 X117.25 Y91.087 E21.04683
G1 X122.615 Y91.087 E21.1263
G1 X122.967 Y91.127 E21.13155
G1 X123.301 Y91.244 E21.13679
G1 X123.601 Y91.434 E21.14205
G1 X123.907 Y91.761 E21.14869
G1 X132.692 Y104.364 E21.37626
G1 X132.861 Y104.676 E21.38152
G1 X132.955 Y105.018 E21.38677
G1 X132.975 Y105.265 E21.39044
G1 X132.975 Y119.858 E21.60661
G1 X132.935 Y120.21 E21.61186
G1 X132.818 Y120.544 E21.6171
G1 X132.692 Y120.759 E21.62079
G1 X123.907 Y133.363 E21.84838
G1 X123.673 Y133.629 E21.85363
G1 X123.385 Y133.836 E21.85888
G1 X123.059 Y133.973 E21.86412
G1 X122.615 Y134.037 E21.87076
G1 X110.385 Y134.037 E22.05193
G1 X110.033 Y133.997 E22.05718
G1 X109.699 Y133.88 E22.06242
G1 X109.399 Y133.69 E22.06768
G1 X109.093 Y133.363 E22.07432
G1 X100.308 Y120.759 E22.3019
G1 X100.139 Y120.447 E22.30716
G1 X100.045 Y120.105 E22.31241
G1 X100.025 Y119.858 E22.31608
G1 X100.025 Y105.265 E22.53225
G1 X100.065 Y104.913 E22.5375
G1 X100.182 Y104.579 E22.54274
G1 X100.308 Y104.364 E22.54643
M204 S625
M205 X6 Y6
G0 F5000 X100.021 Y104.164
M204 S500
M205 X5 Y5
G1 F1200 X108.806 Y91.561 E22.77401
G1 X109.061 Y91.264 E22.7798
G1 X109.372 Y91.025 E22.78561
G1 X109.725 Y90.854 E22.79142
G1 X110.104 Y90.758 E22.79722
G1 X110.385 Y90.737 E22.80139
G1 X115.75 Y90.737 E22.88086
G1 X116.14 Y90.777 E22.88667
G1 X116.509 Y90.893 E22.8924
G1 X116.595 Y90.852 E22.89381
G1 X116.975 Y90.757 E22.89961
G1 X117.25 Y90.737 E22.9037
G1 X122.615 Y90.737 E22.98317
G1 X123.005 Y90.777 E22.98898
G1 X123.379 Y90.895 E22.99479
G1 X123.721 Y91.086 E23.00059
G1 X124.017 Y91.343 E23.0064
G1 X124.194 Y91.561 E23.01056
G1 X132.979 Y104.164 E23.23813
G1 X133.169 Y104.507 E23.24394
G1 X133.286 Y104.881 E23.24974
G1 X133.325 Y105.265 E23.25546
G1 X133.325 Y119.858 E23.47163
G1 X133.285 Y120.248 E23.47744
G1 X133.167 Y120.622 E23.48325
G1 X132.979 Y120.959 E23.48897
G1 X124.194 Y133.563 E23.71655
G1 X123.939 Y133.86 E23.72235
G1 X123.628 Y134.099 E23.72816
G1 X123.276 Y134.27 E23.73396
G1 X122.896 Y134.366 E23.73976
G1 X122.615 Y134.387 E23.74394
G1 X110.385 Y134.387 E23.9251
G1 X109.995 Y134.347 E23.93091
G1 X109.621 Y134.229 E23.93672
G1 X109.279 Y134.038 E23.94252
G1 X108.983 Y133.781 E23.94833
G1 X108.806 Y133.563 E23.95249
G1 X100.021 Y120.959 E24.18007
G1 X99.831 Y120.616 E24.18588
G1 X99.714 Y120.242 E24.19169
G1 X99.675 Y119.858 E24.1974
G1 X99.675 Y105.265 E24.41357
G1 X99.715 Y104.875 E24.41938
G1 X99.833 Y104.501 E24.42519
G1 X100.021 Y104.164 E24.43091
M204 S625
M205 X6 Y6
G0 F5000 X99.734 Y103.964
M204 S500
M205 X5 Y5
G1 F1200 X108.519 Y91.361 E24.65848
G1 X108.794 Y91.036 E24.66479
G1 X109.125 Y90.768 E24.6711
G1 X109.501 Y90.566 E24.67742
G1 X109.907 Y90.438 E24.68372
G1 X110.385 Y90.387 E24.69084
G1 X115.75 Y90.387 E24.77032
